;This Gcode has been generated specifically for the LulzBot Mini
;Basic settings: Layer height: 0.25 Walls: 1 Fill: 20
;Filament Diameter: 2.85
;Nozzle Size: 0.5
G26                          ; clear potential 'probe fail' condition
G21                          ; metric values
G90                          ; absolute positioning
M82                          ; set extruder to absolute mode
M107                         ; start with the fan off
G92 E0                       ; set extruder position to 0
M140 S60; get bed heating up
G28                          ; home all
M109 R140                    ; set to cleaning temp and wait
G1 Z150 E-30 F75             ; suck up XXmm of filament
M109 R140                    ; heat up rest of way
G1 X45 Y174 F11520           ; move behind scraper
G1 Z0  F1200                 ; CRITICAL: set Z to height of top of scraper
G1 X45 Y174 Z-.5 F4000       ; wiping ; plunge into wipe pad
G1 X55 Y172 Z-.5 F4000       ; wiping
G1 X45 Y174 Z0 F4000         ; wiping
G1 X55 Y172 F4000            ; wiping
G1 X45 Y174 F4000            ; wiping
G1 X55 Y172 F4000            ; wiping
G1 X45 Y174 F4000            ; wiping
G1 X55 Y172 F4000            ; wiping
G1 X60 Y174 F4000            ; wiping
G1 X80 Y172 F4000            ; wiping
G1 X60 Y174 F4000            ; wiping
G1 X80 Y172 F4000            ; wiping
G1 X60 Y174 F4000            ; wiping
G1 X90 Y172 F4000            ; wiping
G1 X80 Y174 F4000            ; wiping
G1 X100 Y172 F4000           ; wiping
G1 X80 Y174 F4000            ; wiping
G1 X100 Y172 F4000           ; wiping
G1 X80 Y174 F4000            ; wiping
G1 X100 Y172 F4000           ; wiping
G1 X110 Y174 F4000           ; wiping
G1 X100 Y172 F4000           ; wiping
G1 X110 Y174 F4000           ; wiping
G1 X100 Y172 F4000           ; wiping
G1 X110 Y174 F4000           ; wiping
G1 X115 Y172 Z-0.5 F1000     ; wipe slower and bury noz in cleanish area
G1 Z10                       ; raise z
G28 X0 Y0                    ; home x and y
M109 R140                    ; set to probing temp
M204 S300                    ; Set probing acceleration
G29                          ; Probe
M204 S2000                   ; Restore standard acceleration
G1 X5 Y15 Z10 F5000          ; get out the way
G4 S1                        ; pause
M400                         ; clear buffer
M109 R205    ; set extruder temp and wait
G4 S15                       ; wait for bed to temp up
G1 Z2 E0 F75                 ; extrude filament back into nozzle
M140 S60; get bed temping up during first layer

;Layer count: 179
;LAYER:0
M107
G0 F10500 X23.688 Y30.688 Z0.425
;TYPE:SKIRT
G1 F900 X136.312 Y30.688 E4.68943
G1 X136.312 Y125.312 E8.62938
G1 X23.688 Y125.312 E13.31881
G1 X23.688 Y30.688 E17.25876
G1 F600 E15.50876
G1 Z0.525
G0 F10500 X27.937 Y34.937
;TYPE:WALL-INNER
G1 Z0.425
G1 F600 E17.25876
G1 F900 X132.063 Y34.937 E21.59436
G1 X132.063 Y121.063 E25.18047
G1 X27.937 Y121.063 E29.51606
G1 X27.937 Y34.937 E33.10217
G0 F10500 X27.312 Y34.312
;TYPE:WALL-OUTER
G1 F900 X132.688 Y34.312 E37.48981
G1 X132.688 Y121.688 E41.12797
G1 X27.312 Y121.688 E45.51561
G1 X27.312 Y34.312 E49.15377
G0 F10500 X28.526 Y35.155
;TYPE:SKIN
G1 F900 X114.213 Y120.843 E54.19947
G0 F10500 X113.329 Y120.843
G1 F900 X28.155 Y35.669 E59.21494
G0 F10500 X28.155 Y36.553
G1 F900 X112.445 Y120.843 E64.17835
G0 F10500 X111.561 Y120.843
G1 F900 X28.155 Y37.437 E69.08971
G0 F10500 X28.155 Y38.320
G1 F900 X110.677 Y120.843 E73.94904
G0 F10500 X109.793 Y120.843
G1 F900 X28.155 Y39.204 E78.75632
G0 F10500 X29.409 Y35.155
G1 F900 X115.097 Y120.843 E83.80206
G0 F10500 X115.981 Y120.843
G1 F900 X30.293 Y35.155 E88.84779
G0 F10500 X31.177 Y35.155
G1 F900 X116.864 Y120.843 E93.89350
G0 F10500 X117.748 Y120.843
G1 F900 X32.061 Y35.155 E98.93920
G0 F10500 X32.945 Y35.155
G1 F900 X118.632 Y120.843 E103.98490
G0 F10500 X119.516 Y120.843
G1 F900 X33.829 Y35.155 E109.03061
G0 F10500 X34.713 Y35.155
G1 F900 X120.400 Y120.843 E114.07631
G0 F10500 X121.284 Y120.843
G1 F900 X35.597 Y35.155 E119.12202
G0 F10500 X36.481 Y35.155
G1 F900 X122.168 Y120.843 E124.16772
G0 F10500 X123.052 Y120.843
G1 F900 X37.364 Y35.155 E129.21346
G0 F10500 X38.248 Y35.155
G1 F900 X123.936 Y120.843 E134.25919
G0 F10500 X124.819 Y120.843
G1 F900 X39.132 Y35.155 E139.30490
G0 F10500 X40.016 Y35.155
G1 F900 X125.703 Y120.843 E144.35060
G0 F10500 X126.587 Y120.843
G1 F900 X40.900 Y35.155 E149.39630
G0 F10500 X41.784 Y35.155
G1 F900 X127.471 Y120.843 E154.44201
G0 F10500 X128.355 Y120.843
G1 F900 X42.668 Y35.155 E159.48771
G0 F10500 X43.552 Y35.155
G1 F900 X129.239 Y120.843 E164.53342
G0 F10500 X130.123 Y120.843
G1 F900 X44.436 Y35.155 E169.57912
G0 F10500 X45.319 Y35.155
G1 F900 X131.007 Y120.843 E174.62486
G0 F10500 X131.843 Y120.795
G1 F900 X46.203 Y35.155 E179.66776
G0 F10500 X47.087 Y35.155
G1 F900 X131.843 Y119.911 E184.65862
G0 F10500 X131.843 Y119.027
G1 F900 X47.971 Y35.155 E189.59742
G0 F10500 X48.855 Y35.155
G1 F900 X131.843 Y118.144 E194.48419
G0 F10500 X131.843 Y117.260
G1 F900 X49.739 Y35.155 E199.31891
G0 F10500 X50.623 Y35.155
G1 F900 X131.843 Y116.376 E204.10158
G0 F10500 X131.843 Y115.492
G1 F900 X51.507 Y35.155 E208.83219
G0 F10500 X52.390 Y35.155
G1 F900 X131.843 Y114.608 E213.51077
G0 F10500 X131.843 Y113.724
G1 F900 X53.274 Y35.155 E218.13731
G0 F10500 X54.158 Y35.155
G1 F900 X131.843 Y112.840 E222.71178
G0 F10500 X131.843 Y111.956
G1 F900 X55.042 Y35.155 E227.23421
G0 F10500 X55.926 Y35.155
G1 F900 X131.843 Y111.073 E231.70460
G0 F10500 X131.843 Y110.189
G1 F900 X56.810 Y35.155 E236.12295
G0 F10500 X57.694 Y35.155
G1 F900 X131.843 Y109.305 E240.48924
G0 F10500 X131.843 Y108.421
G1 F900 X58.578 Y35.155 E244.80347
G0 F10500 X59.462 Y35.155
G1 F900 X131.843 Y107.537 E249.06566
G0 F10500 X131.843 Y106.653
G1 F900 X60.345 Y35.155 E253.27581
G0 F10500 X61.229 Y35.155
G1 F900 X131.843 Y105.769 E257.43391
G0 F10500 X131.843 Y104.885
G1 F900 X62.113 Y35.155 E261.53996
G0 F10500 X62.997 Y35.155
G1 F900 X131.843 Y104.001 E265.59396
G0 F10500 X131.843 Y103.118
G1 F900 X63.881 Y35.155 E269.59592
G0 F10500 X64.765 Y35.155
G1 F900 X131.843 Y102.234 E273.54584
G0 F10500 X131.843 Y101.350
G1 F900 X65.649 Y35.155 E277.44370
G0 F10500 X66.533 Y35.155
G1 F900 X131.843 Y100.466 E281.28950
G0 F10500 X131.843 Y99.582
G1 F900 X67.416 Y35.155 E285.08329
G0 F10500 X68.300 Y35.155
G1 F900 X131.843 Y98.698 E288.82501
G0 F10500 X131.843 Y97.814
G1 F900 X69.184 Y35.155 E292.51468
G0 F10500 X70.068 Y35.155
G1 F900 X131.843 Y96.930 E296.15230
G0 F10500 X131.843 Y96.047
G1 F900 X70.952 Y35.155 E299.73790
G0 F10500 X71.836 Y35.155
G1 F900 X131.843 Y95.163 E303.27144
G0 F10500 X131.843 Y94.279
G1 F900 X72.720 Y35.155 E306.75292
G0 F10500 X73.604 Y35.155
G1 F900 X131.843 Y93.395 E310.18235
G0 F10500 X131.843 Y92.511
G1 F900 X74.488 Y35.155 E313.55973
G0 F10500 X75.371 Y35.155
G1 F900 X131.843 Y91.627 E316.88508
G0 F10500 X131.843 Y90.743
G1 F900 X76.255 Y35.155 E320.15837
G0 F10500 X77.139 Y35.155
G1 F900 X131.843 Y89.859 E323.37962
G0 F10500 X131.843 Y88.975
G1 F900 X78.023 Y35.155 E326.54880
G0 F10500 X78.907 Y35.155
G1 F900 X131.843 Y88.092 E329.66597
G0 F10500 X131.843 Y87.208
G1 F900 X79.791 Y35.155 E332.73108
G0 F10500 X80.675 Y35.155
G1 F900 X131.843 Y86.324 E335.74413
G0 F10500 X131.843 Y85.440
G1 F900 X81.559 Y35.155 E338.70513
G0 F10500 X82.442 Y35.155
G1 F900 X131.843 Y84.556 E341.61411
G0 F10500 X131.843 Y83.672
G1 F900 X83.326 Y35.155 E344.47103
G0 F10500 X84.210 Y35.155
G1 F900 X131.843 Y82.788 E347.27590
G0 F10500 X131.843 Y81.904
G1 F900 X85.094 Y35.155 E350.02871
G0 F10500 X85.978 Y35.155
G1 F900 X131.843 Y81.021 E352.72950
G0 F10500 X131.843 Y80.137
G1 F900 X86.862 Y35.155 E355.37823
G0 F10500 X87.746 Y35.155
G1 F900 X131.843 Y79.253 E357.97491
G0 F10500 X131.843 Y78.369
G1 F900 X88.630 Y35.155 E360.51954
G0 F10500 X89.514 Y35.155
G1 F900 X131.843 Y77.485 E363.01211
G0 F10500 X131.843 Y76.601
G1 F900 X90.397 Y35.155 E365.45265
G0 F10500 X91.281 Y35.155
G1 F900 X131.843 Y75.717 E367.84114
G0 F10500 X131.843 Y74.833
G1 F900 X92.165 Y35.155 E370.17758
G0 F10500 X93.049 Y35.155
G1 F900 X131.843 Y73.949 E372.46196
G0 F10500 X131.843 Y73.066
G1 F900 X93.933 Y35.155 E374.69432
G0 F10500 X94.817 Y35.155
G1 F900 X131.843 Y72.182 E376.87463
G0 F10500 X131.843 Y71.298
G1 F900 X95.701 Y35.155 E379.00287
G0 F10500 X96.585 Y35.155
G1 F900 X131.843 Y70.414 E381.07907
G0 F10500 X131.843 Y69.530
G1 F900 X97.469 Y35.155 E383.10321
G0 F10500 X98.352 Y35.155
G1 F900 X131.843 Y68.646 E385.07533
G0 F10500 X131.843 Y67.762
G1 F900 X99.236 Y35.155 E386.99539
G0 F10500 X100.120 Y35.155
G1 F900 X131.843 Y66.878 E388.86340
G0 F10500 X131.843 Y65.994
G1 F900 X101.004 Y35.155 E390.67935
G0 F10500 X101.888 Y35.155
G1 F900 X131.843 Y65.111 E392.44328
G0 F10500 X131.843 Y64.227
G1 F900 X102.772 Y35.155 E394.15515
G0 F10500 X103.656 Y35.155
G1 F900 X131.843 Y63.343 E395.81497
G0 F10500 X131.843 Y62.459
G1 F900 X104.540 Y35.155 E397.42274
G0 F10500 X105.423 Y35.155
G1 F900 X131.843 Y61.575 E398.97848
G0 F10500 X131.843 Y60.691
G1 F900 X106.307 Y35.155 E400.48216
G0 F10500 X107.191 Y35.155
G1 F900 X131.843 Y59.807 E401.93379
G0 F10500 X131.843 Y58.923
G1 F900 X108.075 Y35.155 E403.33337
G0 F10500 X108.959 Y35.155
G1 F900 X131.843 Y58.040 E404.68093
G0 F10500 X131.843 Y57.156
G1 F900 X109.843 Y35.155 E405.97642
G0 F10500 X110.727 Y35.155
G1 F900 X131.843 Y56.272 E407.21987
G0 F10500 X131.843 Y55.388
G1 F900 X111.611 Y35.155 E408.41126
G0 F10500 X112.495 Y35.155
G1 F900 X131.843 Y54.504 E409.55059
G0 F10500 X131.843 Y53.620
G1 F900 X113.378 Y35.155 E410.63790
G0 F10500 X114.262 Y35.155
G1 F900 X131.843 Y52.736 E411.67316
G0 F10500 X131.843 Y51.852
G1 F900 X115.146 Y35.155 E412.65636
G0 F10500 X116.030 Y35.155
G1 F900 X131.843 Y50.968 E413.58751
G0 F10500 X131.843 Y50.085
G1 F900 X116.914 Y35.155 E414.46663
G0 F10500 X117.798 Y35.155
G1 F900 X131.843 Y49.201 E415.29370
G0 F10500 X131.843 Y48.317
G1 F900 X118.682 Y35.155 E416.06872
G0 F10500 X119.566 Y35.155
G1 F900 X131.843 Y47.433 E416.79168
G0 F10500 X131.843 Y46.549
G1 F900 X120.449 Y35.155 E417.46261
G0 F10500 X121.333 Y35.155
G1 F900 X131.843 Y45.665 E418.08149
G0 F10500 X131.843 Y44.781
G1 F900 X122.217 Y35.155 E418.64832
G0 F10500 X123.101 Y35.155
G1 F900 X131.843 Y43.897 E419.16309
G0 F10500 X131.843 Y43.014
G1 F900 X123.985 Y35.155 E419.62584
G0 F10500 X124.869 Y35.155
G1 F900 X131.843 Y42.130 E420.03653
G0 F10500 X131.843 Y41.246
G1 F900 X125.753 Y35.155 E420.39517
G0 F10500 X126.637 Y35.155
G1 F900 X131.843 Y40.362 E420.70175
G0 F10500 X131.843 Y39.478
G1 F900 X127.521 Y35.155 E420.95628
G0 F10500 X128.404 Y35.155
G1 F900 X131.843 Y38.594 E421.15879
G0 F10500 X131.843 Y37.710
G1 F900 X129.288 Y35.155 E421.30924
G0 F10500 X130.172 Y35.155
G1 F900 X131.843 Y36.826 E421.40764
G0 F10500 X131.843 Y35.942
G1 F900 X131.056 Y35.155 E421.45398
G0 F10500 X108.910 Y120.843
G1 F900 X28.155 Y40.088 E426.20923
G0 F10500 X28.155 Y40.972
G1 F900 X108.026 Y120.843 E430.91244
G0 F10500 X107.142 Y120.843
G1 F900 X28.155 Y41.856 E435.56358
G0 F10500 X28.155 Y42.740
G1 F900 X106.258 Y120.843 E440.16267
G0 F10500 X105.374 Y120.843
G1 F900 X28.155 Y43.624 E444.70971
G0 F10500 X28.155 Y44.508
G1 F900 X104.490 Y120.843 E449.20469
G0 F10500 X103.606 Y120.843
G1 F900 X28.155 Y45.392 E453.64762
G0 F10500 X28.155 Y46.275
G1 F900 X102.722 Y120.843 E458.03853
G0 F10500 X101.838 Y120.843
G1 F900 X28.155 Y47.159 E462.37738
G0 F10500 X28.155 Y48.043
G1 F900 X100.955 Y120.843 E466.66420
G0 F10500 X100.071 Y120.843
G1 F900 X28.155 Y48.927 E470.89897
G0 F10500 X28.155 Y49.811
G1 F900 X99.187 Y120.843 E475.08169
G0 F10500 X98.303 Y120.843
G1 F900 X28.155 Y50.695 E479.21235
G0 F10500 X28.155 Y51.579
G1 F900 X97.419 Y120.843 E483.29096
G0 F10500 X96.535 Y120.843
G1 F900 X28.155 Y52.463 E487.31751
G0 F10500 X28.155 Y53.346
G1 F900 X95.651 Y120.843 E491.29204
G0 F10500 X94.767 Y120.843
G1 F900 X28.155 Y54.230 E495.21451
G0 F10500 X28.155 Y55.114
G1 F900 X93.883 Y120.843 E499.08493
G0 F10500 X93.000 Y120.843
G1 F900 X28.155 Y55.998 E502.90333
G0 F10500 X28.155 Y56.882
G1 F900 X92.116 Y120.843 E506.66967
G0 F10500 X91.232 Y120.843
G1 F900 X28.155 Y57.766 E510.38395
G0 F10500 X28.155 Y58.650
G1 F900 X90.348 Y120.843 E514.04618
G0 F10500 X89.464 Y120.843
G1 F900 X28.155 Y59.534 E517.65636
G0 F10500 X28.155 Y60.418
G1 F900 X88.580 Y120.843 E521.21449
G0 F10500 X87.696 Y120.843
G1 F900 X28.155 Y61.301 E524.72058
G0 F10500 X28.155 Y62.185
G1 F900 X86.812 Y120.843 E528.17463
G0 F10500 X85.929 Y120.843
G1 F900 X28.155 Y63.069 E531.57665
G0 F10500 X28.155 Y63.953
G1 F900 X85.045 Y120.843 E534.92661
G0 F10500 X84.161 Y120.843
G1 F900 X28.155 Y64.837 E538.22452
G0 F10500 X28.155 Y65.721
G1 F900 X83.277 Y120.843 E541.47038
G0 F10500 X82.393 Y120.843
G1 F900 X28.155 Y66.605 E544.66418
G0 F10500 X28.155 Y67.489
G1 F900 X81.509 Y120.843 E547.80593
G0 F10500 X80.625 Y120.843
G1 F900 X28.155 Y68.372 E550.89565
G0 F10500 X28.155 Y69.256
G1 F900 X79.741 Y120.843 E553.93332
G0 F10500 X78.857 Y120.843
G1 F900 X28.155 Y70.140 E556.91894
G0 F10500 X28.155 Y71.024
G1 F900 X77.974 Y120.843 E559.85253
G0 F10500 X77.090 Y120.843
G1 F900 X28.155 Y71.908 E562.73406
G0 F10500 X28.155 Y72.792
G1 F900 X76.206 Y120.843 E565.56354
G0 F10500 X75.322 Y120.843
G1 F900 X28.155 Y73.676 E568.34097
G0 F10500 X28.155 Y74.560
G1 F900 X74.438 Y120.843 E571.06634
G0 F10500 X73.554 Y120.843
G1 F900 X28.155 Y75.444 E573.73966
G0 F10500 X28.155 Y76.327
G1 F900 X72.670 Y120.843 E576.36095
G0 F10500 X71.786 Y120.843
G1 F900 X28.155 Y77.211 E578.93019
G0 F10500 X28.155 Y78.095
G1 F900 X70.903 Y120.843 E581.44740
G0 F10500 X70.019 Y120.843
G1 F900 X28.155 Y78.979 E583.91256
G0 F10500 X28.155 Y79.863
G1 F900 X69.135 Y120.843 E586.32567
G0 F10500 X68.251 Y120.843
G1 F900 X28.155 Y80.747 E588.68672
G0 F10500 X28.155 Y81.631
G1 F900 X67.367 Y120.843 E590.99572
G0 F10500 X66.483 Y120.843
G1 F900 X28.155 Y82.515 E593.25266
G0 F10500 X28.155 Y83.399
G1 F900 X65.599 Y120.843 E595.45755
G0 F10500 X64.715 Y120.843
G1 F900 X28.155 Y84.282 E597.61041
G0 F10500 X28.155 Y85.166
G1 F900 X63.831 Y120.843 E599.71122
G0 F10500 X62.948 Y120.843
G1 F900 X28.155 Y86.050 E601.76001
G0 F10500 X28.155 Y86.934
G1 F900 X62.064 Y120.843 E603.75674
G0 F10500 X61.180 Y120.843
G1 F900 X28.155 Y87.818 E605.70141
G0 F10500 X28.155 Y88.702
G1 F900 X60.296 Y120.843 E607.59403
G0 F10500 X59.412 Y120.843
G1 F900 X28.155 Y89.586 E609.43460
G0 F10500 X28.155 Y90.470
G1 F900 X58.528 Y120.843 E611.22311
G0 F10500 X57.644 Y120.843
G1 F900 X28.155 Y91.353 E612.95960
G0 F10500 X28.155 Y92.237
G1 F900 X56.760 Y120.843 E614.64403
G0 F10500 X55.876 Y120.843
G1 F900 X28.155 Y93.121 E616.27641
G0 F10500 X28.155 Y94.005
G1 F900 X54.993 Y120.843 E617.85677
G0 F10500 X54.109 Y120.843
G1 F900 X28.155 Y94.889 E619.38507
G0 F10500 X28.155 Y95.773
G1 F900 X53.225 Y120.843 E620.86131
G0 F10500 X52.341 Y120.843
G1 F900 X28.155 Y96.657 E622.28550
G0 F10500 X28.155 Y97.541
G1 F900 X51.457 Y120.843 E623.65764
G0 F10500 X50.573 Y120.843
G1 F900 X28.155 Y98.425 E624.97772
G0 F10500 X28.155 Y99.308
G1 F900 X49.689 Y120.843 E626.24578
G0 F10500 X48.805 Y120.843
G1 F900 X28.155 Y100.192 E627.46179
G0 F10500 X28.155 Y101.076
G1 F900 X47.922 Y120.843 E628.62577
G0 F10500 X47.038 Y120.843
G1 F900 X28.155 Y101.960 E629.73769
G0 F10500 X28.155 Y102.844
G1 F900 X46.154 Y120.843 E630.79756
G0 F10500 X45.270 Y120.843
G1 F900 X28.155 Y103.728 E631.80538
G0 F10500 X28.155 Y104.612
G1 F900 X44.386 Y120.843 E632.76114
G0 F10500 X43.502 Y120.843
G1 F900 X28.155 Y105.496 E633.66485
G0 F10500 X28.155 Y106.379
G1 F900 X42.618 Y120.843 E634.51653
G0 F10500 X41.734 Y120.843
G1 F900 X28.155 Y107.263 E635.31616
G0 F10500 X28.155 Y108.147
G1 F900 X40.850 Y120.843 E636.06373
G0 F10500 X39.967 Y120.843
G1 F900 X28.155 Y109.031 E636.75928
G0 F10500 X28.155 Y109.915
G1 F900 X39.083 Y120.843 E637.40277
G0 F10500 X38.199 Y120.843
G1 F900 X28.155 Y110.799 E637.99421
G0 F10500 X28.155 Y111.683
G1 F900 X37.315 Y120.843 E638.53360
G0 F10500 X36.431 Y120.843
G1 F900 X28.155 Y112.567 E639.02093
G0 F10500 X28.155 Y113.451
G1 F900 X35.547 Y120.843 E639.45621
G0 F10500 X34.663 Y120.843
G1 F900 X28.155 Y114.334 E639.83946
G0 F10500 X28.155 Y115.218
G1 F900 X33.779 Y120.843 E640.17066
G0 F10500 X32.896 Y120.843
G1 F900 X28.155 Y116.102 E640.44983
G0 F10500 X28.155 Y116.986
G1 F900 X32.012 Y120.843 E640.67695
G0 F10500 X31.128 Y120.843
G1 F900 X28.155 Y117.870 E640.85202
G0 F10500 X28.155 Y118.754
G1 F900 X30.244 Y120.843 E640.97503
G0 F10500 X29.360 Y120.843
G1 F900 X28.155 Y119.638 E641.04599
G0 F10500 X28.155 Y120.522
G1 F900 X28.476 Y120.843 E641.06489
;LAYER:1
M106 S191
G0 F10500 X27.750 Y121.250 Z0.675
;TYPE:WALL-INNER
G1 F1140 X27.750 Y34.750 E642.75980
G1 X132.250 Y34.750 E644.80741
G1 X132.250 Y121.250 E646.50231
G1 X27.750 Y121.250 E648.54992
G0 F10500 X27.250 Y121.750
;TYPE:WALL-OUTER
G1 F1080 X27.250 Y34.250 E650.26443
G1 X132.750 Y34.250 E652.33163
G1 X132.750 Y121.750 E654.04613
G1 X27.250 Y121.750 E656.11333
G0 F10500 X27.925 Y120.920
;TYPE:SKIN
G1 F1380 X113.921 Y34.924 E658.49633
G0 F10500 X113.214 Y34.924
G1 F1380 X27.925 Y120.213 E660.85974
G0 F10500 X28.478 Y121.074
G1 F1380 X114.629 Y34.924 E663.24702
G0 F10500 X115.336 Y34.924
G1 F1380 X29.185 Y121.074 E665.63430
G0 F10500 X29.892 Y121.074
G1 F1380 X116.043 Y34.924 E668.02158
G0 F10500 X116.750 Y34.924
G1 F1380 X30.600 Y121.074 E670.40884
G0 F10500 X31.307 Y121.074
G1 F1380 X117.457 Y34.924 E672.79611
G0 F10500 X118.164 Y34.924
G1 F1380 X32.014 Y121.074 E675.18337
G0 F10500 X32.721 Y121.074
G1 F1380 X118.871 Y34.924 E677.57064
G0 F10500 X119.578 Y34.924
G1 F1380 X33.428 Y121.074 E679.95790
G0 F10500 X34.135 Y121.074
G1 F1380 X120.285 Y34.924 E682.34517
G0 F10500 X120.993 Y34.924
G1 F1380 X34.842 Y121.074 E684.73245
G0 F10500 X35.549 Y121.074
G1 F1380 X121.700 Y34.924 E687.11973
G0 F10500 X122.407 Y34.924
G1 F1380 X36.256 Y121.074 E689.50701
G0 F10500 X36.964 Y121.074
G1 F1380 X123.114 Y34.924 E691.89427
G0 F10500 X123.821 Y34.924
G1 F1380 X37.671 Y121.074 E694.28154
G0 F10500 X38.378 Y121.074
G1 F1380 X124.528 Y34.924 E696.66880
G0 F10500 X125.235 Y34.924
G1 F1380 X39.085 Y121.074 E699.05607
G0 F10500 X39.792 Y121.074
G1 F1380 X125.942 Y34.924 E701.44333
G0 F10500 X126.649 Y34.924
G1 F1380 X40.499 Y121.074 E703.83060
G0 F10500 X41.206 Y121.074
G1 F1380 X127.357 Y34.924 E706.21788
G0 F10500 X128.064 Y34.924
G1 F1380 X41.913 Y121.074 E708.60516
G0 F10500 X42.620 Y121.074
G1 F1380 X128.771 Y34.924 E710.99243
G0 F10500 X129.478 Y34.924
G1 F1380 X43.327 Y121.074 E713.37971
G0 F10500 X44.035 Y121.074
G1 F1380 X130.185 Y34.924 E715.76698
G0 F10500 X130.892 Y34.924
G1 F1380 X44.742 Y121.074 E718.15424
G0 F10500 X45.449 Y121.074
G1 F1380 X131.599 Y34.924 E720.54151
G0 F10500 X132.074 Y35.156
G1 F1380 X46.156 Y121.074 E722.92235
G0 F10500 X46.863 Y121.074
G1 F1380 X132.074 Y35.863 E725.28359
G0 F10500 X132.074 Y36.570
G1 F1380 X47.570 Y121.074 E727.62525
G0 F10500 X48.277 Y121.074
G1 F1380 X132.074 Y37.277 E729.94731
G0 F10500 X132.074 Y37.985
G1 F1380 X48.984 Y121.074 E732.24976
G0 F10500 X49.691 Y121.074
G1 F1380 X132.074 Y38.692 E734.53263
G0 F10500 X132.074 Y39.399
G1 F1380 X50.399 Y121.074 E736.79589
G0 F10500 X51.106 Y121.074
G1 F1380 X132.074 Y40.106 E739.03956
G0 F10500 X132.074 Y40.813
G1 F1380 X51.813 Y121.074 E741.26364
G0 F10500 X52.520 Y121.074
G1 F1380 X132.074 Y41.520 E743.46812
G0 F10500 X132.074 Y42.227
G1 F1380 X53.227 Y121.074 E745.65302
G0 F10500 X53.934 Y121.074
G1 F1380 X132.074 Y42.934 E747.81832
G0 F10500 X132.074 Y43.641
G1 F1380 X54.641 Y121.074 E749.96404
G0 F10500 X55.348 Y121.074
G1 F1380 X132.074 Y44.349 E752.09014
G0 F10500 X132.074 Y45.056
G1 F1380 X56.055 Y121.074 E754.19666
G0 F10500 X56.762 Y121.074
G1 F1380 X132.074 Y45.763 E756.28358
G0 F10500 X132.074 Y46.470
G1 F1380 X57.470 Y121.074 E758.35090
G0 F10500 X58.177 Y121.074
G1 F1380 X132.074 Y47.177 E760.39863
G0 F10500 X132.074 Y47.884
G1 F1380 X58.884 Y121.074 E762.42677
G0 F10500 X59.591 Y121.074
G1 F1380 X132.074 Y48.591 E764.43531
G0 F10500 X132.074 Y49.298
G1 F1380 X60.298 Y121.074 E766.42426
G0 F10500 X61.005 Y121.074
G1 F1380 X132.074 Y50.005 E768.39363
G0 F10500 X132.074 Y50.712
G1 F1380 X61.712 Y121.074 E770.34340
G0 F10500 X62.419 Y121.074
G1 F1380 X132.074 Y51.420 E772.27356
G0 F10500 X132.074 Y52.127
G1 F1380 X63.126 Y121.074 E774.18414
G0 F10500 X63.834 Y121.074
G1 F1380 X132.074 Y52.834 E776.07511
G0 F10500 X132.074 Y53.541
G1 F1380 X64.541 Y121.074 E777.94648
G0 F10500 X65.248 Y121.074
G1 F1380 X132.074 Y54.248 E779.79827
G0 F10500 X132.074 Y54.955
G1 F1380 X65.955 Y121.074 E781.63047
G0 F10500 X66.662 Y121.074
G1 F1380 X132.074 Y55.662 E783.44307
G0 F10500 X132.074 Y56.369
G1 F1380 X67.369 Y121.074 E785.23608
G0 F10500 X68.076 Y121.074
G1 F1380 X132.074 Y57.076 E787.00950
G0 F10500 X132.074 Y57.784
G1 F1380 X68.783 Y121.074 E788.76332
G0 F10500 X69.490 Y121.074
G1 F1380 X132.074 Y58.491 E790.49754
G0 F10500 X132.074 Y59.198
G1 F1380 X70.198 Y121.074 E792.21216
G0 F10500 X70.905 Y121.074
G1 F1380 X132.074 Y59.905 E793.90719
G0 F10500 X132.074 Y60.612
G1 F1380 X71.612 Y121.074 E795.58263
G0 F10500 X72.319 Y121.074
G1 F1380 X132.074 Y61.319 E797.23847
G0 F10500 X132.074 Y62.026
G1 F1380 X73.026 Y121.074 E798.87472
G0 F10500 X73.733 Y121.074
G1 F1380 X132.074 Y62.733 E800.49139
G0 F10500 X132.074 Y63.440
G1 F1380 X74.440 Y121.074 E802.08846
G0 F10500 X75.147 Y121.074
G1 F1380 X132.074 Y64.148 E803.66592
G0 F10500 X132.074 Y64.855
G1 F1380 X75.854 Y121.074 E805.22380
G0 F10500 X76.561 Y121.074
G1 F1380 X132.074 Y65.562 E806.76208
G0 F10500 X132.074 Y66.269
G1 F1380 X77.269 Y121.074 E808.28076
G0 F10500 X77.976 Y121.074
G1 F1380 X132.074 Y66.976 E809.77984
G0 F10500 X132.074 Y67.683
G1 F1380 X78.683 Y121.074 E811.25934
G0 F10500 X79.390 Y121.074
G1 F1380 X132.074 Y68.390 E812.71924
G0 F10500 X132.074 Y69.097
G1 F1380 X80.096 Y121.075 E814.15958
G0 F10500 X80.803 Y121.075
G1 F1380 X132.074 Y69.804 E815.58033
G0 F10500 X132.074 Y70.511
G1 F1380 X81.511 Y121.075 E816.98147
G0 F10500 X82.218 Y121.075
G1 F1380 X132.074 Y71.219 E818.36301
G0 F10500 X132.074 Y71.926
G1 F1380 X82.925 Y121.075 E819.72496
G0 F10500 X83.632 Y121.075
G1 F1380 X132.074 Y72.633 E821.06731
G0 F10500 X132.074 Y73.340
G1 F1380 X84.339 Y121.075 E822.39008
G0 F10500 X85.046 Y121.075
G1 F1380 X132.074 Y74.047 E823.69325
G0 F10500 X132.074 Y74.754
G1 F1380 X85.753 Y121.075 E824.97683
G0 F10500 X86.460 Y121.075
G1 F1380 X132.074 Y75.461 E826.24082
G0 F10500 X132.074 Y76.168
G1 F1380 X87.167 Y121.075 E827.48522
G0 F10500 X87.874 Y121.075
G1 F1380 X132.074 Y76.875 E828.71003
G0 F10500 X132.074 Y77.583
G1 F1380 X88.582 Y121.075 E829.91521
G0 F10500 X89.289 Y121.075
G1 F1380 X132.074 Y78.290 E831.10081
G0 F10500 X132.074 Y78.997
G1 F1380 X89.996 Y121.075 E832.26682
G0 F10500 X90.703 Y121.075
G1 F1380 X132.074 Y79.704 E833.41323
G0 F10500 X132.074 Y80.411
G1 F1380 X91.410 Y121.075 E834.54005
G0 F10500 X92.117 Y121.075
G1 F1380 X132.074 Y81.118 E835.64728
G0 F10500 X132.074 Y81.825
G1 F1380 X92.824 Y121.075 E836.73492
G0 F10500 X93.531 Y121.075
G1 F1380 X132.074 Y82.532 E837.80297
G0 F10500 X132.074 Y83.239
G1 F1380 X94.238 Y121.075 E838.85143
G0 F10500 X94.946 Y121.075
G1 F1380 X132.074 Y83.947 E839.88027
G0 F10500 X132.074 Y84.654
G1 F1380 X95.653 Y121.075 E840.88951
G0 F10500 X96.360 Y121.075
G1 F1380 X132.074 Y85.361 E841.87917
G0 F10500 X132.074 Y86.068
G1 F1380 X97.067 Y121.075 E842.84923
G0 F10500 X97.774 Y121.075
G1 F1380 X132.074 Y86.775 E843.79970
G0 F10500 X132.074 Y87.482
G1 F1380 X98.481 Y121.075 E844.73059
G0 F10500 X99.188 Y121.075
G1 F1380 X132.074 Y88.189 E845.64188
G0 F10500 X132.074 Y88.896
G1 F1380 X99.895 Y121.075 E846.53357
G0 F10500 X100.602 Y121.075
G1 F1380 X132.074 Y89.603 E847.40568
G0 F10500 X132.074 Y90.310
G1 F1380 X101.310 Y121.075 E848.25818
G0 F10500 X102.017 Y121.075
G1 F1380 X132.074 Y91.018 E849.09108
G0 F10500 X132.074 Y91.725
G1 F1380 X102.724 Y121.075 E849.90438
G0 F10500 X103.431 Y121.075
G1 F1380 X132.074 Y92.432 E850.69810
G0 F10500 X132.074 Y93.139
G1 F1380 X104.138 Y121.075 E851.47222
G0 F10500 X104.845 Y121.075
G1 F1380 X132.074 Y93.846 E852.22675
G0 F10500 X132.074 Y94.553
G1 F1380 X105.552 Y121.075 E852.96169
G0 F10500 X106.259 Y121.075
G1 F1380 X132.074 Y95.260 E853.67704
G0 F10500 X132.074 Y95.967
G1 F1380 X106.966 Y121.075 E854.37280
G0 F10500 X107.673 Y121.075
G1 F1380 X132.074 Y96.674 E855.04896
G0 F10500 X132.074 Y97.382
G1 F1380 X108.381 Y121.075 E855.70551
G0 F10500 X109.088 Y121.075
G1 F1380 X132.074 Y98.089 E856.34246
G0 F10500 X132.074 Y98.796
G1 F1380 X109.795 Y121.075 E856.95983
G0 F10500 X110.502 Y121.075
G1 F1380 X132.074 Y99.503 E857.55760
G0 F10500 X132.074 Y100.210
G1 F1380 X111.209 Y121.075 E858.13578
G0 F10500 X111.916 Y121.075
G1 F1380 X132.074 Y100.917 E858.69437
G0 F10500 X132.074 Y101.624
G1 F1380 X112.623 Y121.075 E859.23337
G0 F10500 X113.330 Y121.075
G1 F1380 X132.074 Y102.331 E859.75277
G0 F10500 X132.074 Y103.038
G1 F1380 X114.037 Y121.075 E860.25259
G0 F10500 X114.745 Y121.075
G1 F1380 X132.074 Y103.745 E860.73280
G0 F10500 X132.074 Y104.453
G1 F1380 X115.452 Y121.075 E861.19341
G0 F10500 X116.159 Y121.075
G1 F1380 X132.074 Y105.160 E861.63442
G0 F10500 X132.074 Y105.867
G1 F1380 X116.866 Y121.075 E862.05584
G0 F10500 X117.573 Y121.075
G1 F1380 X132.074 Y106.574 E862.45767
G0 F10500 X132.074 Y107.281
G1 F1380 X118.280 Y121.075 E862.83991
G0 F10500 X118.987 Y121.075
G1 F1380 X132.074 Y107.988 E863.20256
G0 F10500 X132.074 Y108.695
G1 F1380 X119.694 Y121.075 E863.54562
G0 F10500 X120.401 Y121.075
G1 F1380 X132.074 Y109.402 E863.86908
G0 F10500 X132.074 Y110.109
G1 F1380 X121.109 Y121.075 E864.17294
G0 F10500 X121.816 Y121.075
G1 F1380 X132.074 Y110.817 E864.45720
G0 F10500 X132.074 Y111.524
G1 F1380 X122.523 Y121.075 E864.72186
G0 F10500 X123.230 Y121.075
G1 F1380 X132.074 Y112.231 E864.96693
G0 F10500 X132.074 Y112.938
G1 F1380 X123.937 Y121.075 E865.19241
G0 F10500 X124.644 Y121.075
G1 F1380 X132.074 Y113.645 E865.39830
G0 F10500 X132.074 Y114.352
G1 F1380 X125.351 Y121.075 E865.58460
G0 F10500 X126.058 Y121.075
G1 F1380 X132.074 Y115.059 E865.75131
G0 F10500 X132.074 Y115.766
G1 F1380 X126.765 Y121.075 E865.89842
G0 F10500 X127.472 Y121.075
G1 F1380 X132.074 Y116.473 E866.02595
G0 F10500 X132.074 Y117.181
G1 F1380 X128.180 Y121.075 E866.13385
G0 F10500 X128.887 Y121.075
G1 F1380 X132.074 Y117.888 E866.22217
G0 F10500 X132.074 Y118.595
G1 F1380 X129.594 Y121.075 E866.29089
G0 F10500 X130.301 Y121.075
G1 F1380 X132.074 Y119.302 E866.34002
G0 F10500 X132.074 Y120.009
G1 F1380 X131.008 Y121.075 E866.36956
G0 F10500 X131.715 Y121.075
G1 F1380 X132.074 Y120.716 E866.37951
G0 F10500 X112.507 Y34.924
G1 F1380 X27.925 Y119.506 E868.72332
G0 F10500 X27.925 Y118.799
G1 F1380 X111.800 Y34.924 E871.04755
G0 F10500 X111.093 Y34.924
G1 F1380 X27.925 Y118.092 E873.35218
G0 F10500 X27.925 Y117.385
G1 F1380 X110.386 Y34.924 E875.63722
G0 F10500 X109.679 Y34.924
G1 F1380 X27.925 Y116.678 E877.90267
G0 F10500 X27.925 Y115.971
G1 F1380 X108.972 Y34.924 E880.14853
G0 F10500 X108.265 Y34.924
G1 F1380 X27.925 Y115.264 E882.37479
G0 F10500 X27.925 Y114.556
G1 F1380 X107.558 Y34.924 E884.58146
G0 F10500 X106.850 Y34.924
G1 F1380 X27.925 Y113.849 E886.76851
G0 F10500 X27.925 Y113.142
G1 F1380 X106.143 Y34.924 E888.93598
G0 F10500 X105.436 Y34.924
G1 F1380 X27.925 Y112.435 E891.08385
G0 F10500 X27.925 Y111.728
G1 F1380 X104.729 Y34.924 E893.21213
G0 F10500 X104.022 Y34.924
G1 F1380 X27.925 Y111.021 E895.32083
G0 F10500 X27.925 Y110.314
G1 F1380 X103.315 Y34.924 E897.40992
G0 F10500 X102.608 Y34.924
G1 F1380 X27.925 Y109.607 E899.47943
G0 F10500 X27.925 Y108.900
G1 F1380 X101.901 Y34.924 E901.52935
G0 F10500 X101.194 Y34.924
G1 F1380 X27.925 Y108.192 E903.55966
G0 F10500 X27.925 Y107.485
G1 F1380 X100.486 Y34.924 E905.57037
G0 F10500 X99.779 Y34.924
G1 F1380 X27.925 Y106.778 E907.56148
G0 F10500 X27.925 Y106.071
G1 F1380 X99.072 Y34.924 E909.53301
G0 F10500 X98.365 Y34.924
G1 F1380 X27.925 Y105.364 E911.48494
G0 F10500 X27.925 Y104.657
G1 F1380 X97.658 Y34.924 E913.41728
G0 F10500 X96.951 Y34.924
G1 F1380 X27.925 Y103.950 E915.33003
G0 F10500 X27.925 Y103.243
G1 F1380 X96.244 Y34.924 E917.22319
G0 F10500 X95.537 Y34.924
G1 F1380 X27.925 Y102.536 E919.09675
G0 F10500 X27.925 Y101.829
G1 F1380 X94.830 Y34.924 E920.95073
G0 F10500 X94.122 Y34.924
G1 F1380 X27.925 Y101.121 E922.78509
G0 F10500 X27.925 Y100.414
G1 F1380 X93.415 Y34.924 E924.59985
G0 F10500 X92.708 Y34.924
G1 F1380 X27.925 Y99.707 E926.39503
G0 F10500 X27.925 Y99.000
G1 F1380 X92.001 Y34.924 E928.17061
G0 F10500 X91.294 Y34.924
G1 F1380 X27.925 Y98.293 E929.92660
G0 F10500 X27.925 Y97.586
G1 F1380 X90.587 Y34.924 E931.66300
G0 F10500 X89.880 Y34.924
G1 F1380 X27.925 Y96.879 E933.37981
G0 F10500 X27.925 Y96.172
G1 F1380 X89.173 Y34.924 E935.07702
G0 F10500 X88.466 Y34.924
G1 F1380 X27.925 Y95.465 E936.75465
G0 F10500 X27.925 Y94.757
G1 F1380 X87.759 Y34.924 E938.41267
G0 F10500 X87.051 Y34.924
G1 F1380 X27.925 Y94.050 E940.05108
G0 F10500 X27.925 Y93.343
G1 F1380 X86.344 Y34.924 E941.66991
G0 F10500 X85.637 Y34.924
G1 F1380 X27.925 Y92.636 E943.26914
G0 F10500 X27.925 Y91.929
G1 F1380 X84.930 Y34.924 E944.84878
G0 F10500 X84.223 Y34.924
G1 F1380 X27.925 Y91.222 E946.40883
G0 F10500 X27.925 Y90.515
G1 F1380 X83.516 Y34.924 E947.94929
G0 F10500 X82.809 Y34.924
G1 F1380 X27.925 Y89.808 E949.47015
G0 F10500 X27.925 Y89.101
G1 F1380 X82.102 Y34.924 E950.97143
G0 F10500 X81.395 Y34.924
G1 F1380 X27.925 Y88.394 E952.45311
G0 F10500 X27.925 Y87.686
G1 F1380 X80.687 Y34.924 E953.91518
G0 F10500 X79.980 Y34.924
G1 F1380 X27.925 Y86.979 E955.35765
G0 F10500 X27.925 Y86.272
G1 F1380 X79.273 Y34.924 E956.78053
G0 F10500 X78.566 Y34.924
G1 F1380 X27.925 Y85.565 E958.18383
G0 F10500 X27.925 Y84.858
G1 F1380 X77.859 Y34.924 E959.56753
G0 F10500 X77.152 Y34.924
G1 F1380 X27.925 Y84.151 E960.93163
G0 F10500 X27.925 Y83.444
G1 F1380 X76.445 Y34.924 E962.27615
G0 F10500 X75.738 Y34.924
G1 F1380 X27.925 Y82.737 E963.60108
G0 F10500 X27.925 Y82.030
G1 F1380 X75.031 Y34.924 E964.90641
G0 F10500 X74.323 Y34.924
G1 F1380 X27.925 Y81.322 E966.19212
G0 F10500 X27.925 Y80.615
G1 F1380 X73.616 Y34.924 E967.45825
G0 F10500 X72.909 Y34.924
G1 F1380 X27.925 Y79.908 E968.70478
G0 F10500 X27.925 Y79.201
G1 F1380 X72.202 Y34.924 E969.93172
G0 F10500 X71.495 Y34.924
G1 F1380 X27.925 Y78.494 E971.13907
G0 F10500 X27.925 Y77.787
G1 F1380 X70.788 Y34.924 E972.32683
G0 F10500 X70.081 Y34.924
G1 F1380 X27.925 Y77.080 E973.49499
G0 F10500 X27.925 Y76.373
G1 F1380 X69.374 Y34.924 E974.64357
G0 F10500 X68.667 Y34.924
G1 F1380 X27.925 Y75.666 E975.77255
G0 F10500 X27.925 Y74.958
G1 F1380 X67.960 Y34.924 E976.88193
G0 F10500 X67.252 Y34.924
G1 F1380 X27.925 Y74.251 E977.97171
G0 F10500 X27.925 Y73.544
G1 F1380 X66.545 Y34.924 E979.04189
G0 F10500 X65.838 Y34.924
G1 F1380 X27.925 Y72.837 E980.09248
G0 F10500 X27.925 Y72.130
G1 F1380 X65.131 Y34.924 E981.12348
G0 F10500 X64.424 Y34.924
G1 F1380 X27.925 Y71.423 E982.13489
G0 F10500 X27.925 Y70.716
G1 F1380 X63.717 Y34.924 E983.12670
G0 F10500 X63.010 Y34.924
G1 F1380 X27.925 Y70.009 E984.09893
G0 F10500 X27.925 Y69.302
G1 F1380 X62.303 Y34.924 E985.05156
G0 F10500 X61.596 Y34.924
G1 F1380 X27.925 Y68.595 E985.98460
G0 F10500 X27.925 Y67.887
G1 F1380 X60.888 Y34.924 E986.89803
G0 F10500 X60.181 Y34.924
G1 F1380 X27.925 Y67.180 E987.79186
G0 F10500 X27.925 Y66.473
G1 F1380 X59.474 Y34.924 E988.66610
G0 F10500 X58.767 Y34.924
G1 F1380 X27.925 Y65.766 E989.52075
G0 F10500 X27.925 Y65.059
G1 F1380 X58.060 Y34.924 E990.35581
G0 F10500 X57.353 Y34.924
G1 F1380 X27.925 Y64.352 E991.17127
G0 F10500 X27.925 Y63.645
G1 F1380 X56.646 Y34.924 E991.96715
G0 F10500 X55.939 Y34.924
G1 F1380 X27.925 Y62.938 E992.74343
G0 F10500 X27.925 Y62.231
G1 F1380 X55.232 Y34.924 E993.50013
G0 F10500 X54.525 Y34.924
G1 F1380 X27.925 Y61.523 E994.23721
G0 F10500 X27.925 Y60.816
G1 F1380 X53.817 Y34.924 E994.95469
G0 F10500 X53.110 Y34.924
G1 F1380 X27.925 Y60.109 E995.65259
G0 F10500 X27.925 Y59.402
G1 F1380 X52.403 Y34.924 E996.33088
G0 F10500 X51.696 Y34.924
G1 F1380 X27.925 Y58.695 E996.98959
G0 F10500 X27.925 Y57.988
G1 F1380 X50.989 Y34.924 E997.62871
G0 F10500 X50.282 Y34.924
G1 F1380 X27.925 Y57.281 E998.24823
G0 F10500 X27.925 Y56.574
G1 F1380 X49.575 Y34.924 E998.84817
G0 F10500 X48.868 Y34.924
G1 F1380 X27.925 Y55.867 E999.42851
G0 F10500 X27.925 Y55.159
G1 F1380 X48.161 Y34.924 E999.98925
G0 F10500 X47.453 Y34.924
G1 F1380 X27.925 Y54.452 E1000.53038
G0 F10500 X27.925 Y53.745
G1 F1380 X46.746 Y34.924 E1001.05192
G0 F10500 X46.039 Y34.924
G1 F1380 X27.925 Y53.038 E1001.55387
G0 F10500 X27.925 Y52.331
G1 F1380 X45.332 Y34.924 E1002.03623
G0 F10500 X44.625 Y34.924
G1 F1380 X27.925 Y51.624 E1002.49899
G0 F10500 X27.925 Y50.917
G1 F1380 X43.918 Y34.924 E1002.94217
G0 F10500 X43.211 Y34.924
G1 F1380 X27.925 Y50.210 E1003.36575
G0 F10500 X27.925 Y49.503
G1 F1380 X42.504 Y34.924 E1003.76974
G0 F10500 X41.797 Y34.924
G1 F1380 X27.925 Y48.796 E1004.15415
G0 F10500 X27.925 Y48.088
G1 F1380 X41.089 Y34.924 E1004.51893
G0 F10500 X40.382 Y34.924
G1 F1380 X27.925 Y47.381 E1004.86412
G0 F10500 X27.925 Y46.674
G1 F1380 X39.675 Y34.924 E1005.18972
G0 F10500 X38.968 Y34.924
G1 F1380 X27.925 Y45.967 E1005.49573
G0 F10500 X27.925 Y45.260
G1 F1380 X38.261 Y34.924 E1005.78214
G0 F10500 X37.554 Y34.924
G1 F1380 X27.925 Y44.553 E1006.04897
G0 F10500 X27.925 Y43.846
G1 F1380 X36.847 Y34.924 E1006.29620
G0 F10500 X36.140 Y34.924
G1 F1380 X27.925 Y43.139 E1006.52384
G0 F10500 X27.925 Y42.432
G1 F1380 X35.433 Y34.924 E1006.73189
G0 F10500 X34.726 Y34.924
G1 F1380 X27.925 Y41.724 E1006.92034
G0 F10500 X27.925 Y41.017
G1 F1380 X34.018 Y34.924 E1007.08918
G0 F10500 X33.311 Y34.924
G1 F1380 X27.925 Y40.310 E1007.23843
G0 F10500 X27.925 Y39.603
G1 F1380 X32.604 Y34.924 E1007.36809
G0 F10500 X31.897 Y34.924
G1 F1380 X27.925 Y38.896 E1007.47815
G0 F10500 X27.925 Y38.189
G1 F1380 X31.190 Y34.924 E1007.56863
G0 F10500 X30.483 Y34.924
G1 F1380 X27.925 Y37.482 E1007.63951
G0 F10500 X27.925 Y36.775
G1 F1380 X29.776 Y34.924 E1007.69080
G0 F10500 X29.069 Y34.924
G1 F1380 X27.925 Y36.068 E1007.72250
G0 F10500 X27.925 Y35.360
G1 F1380 X28.362 Y34.924 E1007.73460
;LAYER:2
G0 F10500 X27.750 Y34.750 Z0.925
;TYPE:WALL-INNER
G1 F1440 X132.250 Y34.750 E1009.78221
G1 X132.250 Y121.250 E1011.47712
G1 X27.750 Y121.250 E1013.52472
G1 X27.750 Y34.750 E1015.21963
G0 F10500 X27.250 Y34.250
;TYPE:WALL-OUTER
G1 F1320 X132.750 Y34.250 E1017.28684
G1 X132.750 Y121.750 E1019.00134
G1 X27.250 Y121.750 E1021.06854
G1 X27.250 Y34.250 E1022.78305
G0 F10500 X28.207 Y34.924
;TYPE:SKIN
G1 F1920 X114.356 Y121.074 E1025.17030
G0 F10500 X113.649 Y121.074
G1 F1920 X27.925 Y35.349 E1027.54577
G0 F10500 X27.925 Y36.056
G1 F1920 X112.942 Y121.074 E1029.90165
G0 F10500 X112.235 Y121.074
G1 F1920 X27.925 Y36.763 E1032.23795
G0 F10500 X27.925 Y37.471
G1 F1920 X111.528 Y121.074 E1034.55463
G0 F10500 X110.821 Y121.074
G1 F1920 X27.925 Y38.178 E1036.85173
G0 F10500 X27.925 Y38.885
G1 F1920 X110.114 Y121.074 E1039.12923
G0 F10500 X109.407 Y121.074
G1 F1920 X27.925 Y39.592 E1041.38714
G0 F10500 X28.914 Y34.924
G1 F1920 X115.063 Y121.074 E1043.77440
G0 F10500 X115.771 Y121.074
G1 F1920 X29.621 Y34.924 E1046.16166
G0 F10500 X30.328 Y34.924
G1 F1920 X116.478 Y121.074 E1048.54893
G0 F10500 X117.185 Y121.074
G1 F1920 X31.035 Y34.924 E1050.93619
G0 F10500 X31.742 Y34.924
G1 F1920 X117.892 Y121.074 E1053.32346
G0 F10500 X118.599 Y121.074
G1 F1920 X32.449 Y34.924 E1055.71072
G0 F10500 X33.156 Y34.924
G1 F1920 X119.306 Y121.074 E1058.09799
G0 F10500 X108.699 Y121.074
G1 F1920 X27.925 Y40.299 E1060.33629
G0 F10500 X27.925 Y41.006
G1 F1920 X107.992 Y121.074 E1062.55501
G0 F10500 X107.285 Y121.074
G1 F1920 X27.925 Y41.713 E1064.75414
G0 F10500 X27.925 Y42.420
G1 F1920 X106.578 Y121.074 E1066.93367
G0 F10500 X105.871 Y121.074
G1 F1920 X27.925 Y43.127 E1069.09361
G0 F10500 X27.925 Y43.834
G1 F1920 X105.164 Y121.074 E1071.23396
G0 F10500 X104.457 Y121.074
G1 F1920 X27.925 Y44.542 E1073.35471
G0 F10500 X27.925 Y45.249
G1 F1920 X103.750 Y121.074 E1075.45586
G0 F10500 X103.043 Y121.074
G1 F1920 X27.925 Y45.956 E1077.53742
G0 F10500 X27.925 Y46.663
G1 F1920 X102.336 Y121.074 E1079.59939
G0 F10500 X101.628 Y121.074
G1 F1920 X27.925 Y47.370 E1081.64176
G0 F10500 X27.925 Y48.077
G1 F1920 X100.921 Y121.074 E1083.66453
G0 F10500 X100.214 Y121.074
G1 F1920 X27.925 Y48.784 E1085.66772
G0 F10500 X27.925 Y49.491
G1 F1920 X99.507 Y121.074 E1087.65131
G0 F10500 X98.800 Y121.074
G1 F1920 X27.925 Y50.198 E1089.61531
G0 F10500 X27.925 Y50.906
G1 F1920 X98.093 Y121.074 E1091.55970
G0 F10500 X97.386 Y121.074
G1 F1920 X27.925 Y51.613 E1093.48451
G0 F10500 X27.925 Y52.320
G1 F1920 X96.679 Y121.074 E1095.38972
G0 F10500 X95.972 Y121.074
G1 F1920 X27.925 Y53.027 E1097.27534
G0 F10500 X27.925 Y53.734
G1 F1920 X95.264 Y121.074 E1099.14136
G0 F10500 X94.557 Y121.074
G1 F1920 X27.925 Y54.441 E1100.98778
G0 F10500 X27.925 Y55.148
G1 F1920 X93.850 Y121.074 E1102.81461
G0 F10500 X93.143 Y121.074
G1 F1920 X27.925 Y55.855 E1104.62185
G0 F10500 X27.925 Y56.562
G1 F1920 X92.436 Y121.074 E1106.40950
G0 F10500 X91.729 Y121.074
G1 F1920 X27.925 Y57.269 E1108.17756
G0 F10500 X27.925 Y57.977
G1 F1920 X91.022 Y121.074 E1109.92602
G0 F10500 X90.315 Y121.074
G1 F1920 X27.925 Y58.684 E1111.65488
G0 F10500 X27.925 Y59.391
G1 F1920 X89.608 Y121.074 E1113.36415
G0 F10500 X88.901 Y121.074
G1 F1920 X27.925 Y60.098 E1115.05383
G0 F10500 X27.925 Y60.805
G1 F1920 X88.193 Y121.074 E1116.72390
G0 F10500 X87.486 Y121.074
G1 F1920 X27.925 Y61.512 E1118.37439
G0 F10500 X27.925 Y62.219
G1 F1920 X86.779 Y121.074 E1120.00528
G0 F10500 X86.072 Y121.074
G1 F1920 X27.925 Y62.926 E1121.61658
G0 F10500 X27.925 Y63.633
G1 F1920 X85.365 Y121.074 E1123.20829
G0 F10500 X84.658 Y121.074
G1 F1920 X27.925 Y64.341 E1124.78039
G0 F10500 X27.925 Y65.048
G1 F1920 X83.951 Y121.074 E1126.33290
G0 F10500 X83.244 Y121.074
G1 F1920 X27.925 Y65.755 E1127.86582
G0 F10500 X27.925 Y66.462
G1 F1920 X82.537 Y121.074 E1129.37915
G0 F10500 X81.829 Y121.074
G1 F1920 X27.925 Y67.169 E1130.87288
G0 F10500 X27.925 Y67.876
G1 F1920 X81.122 Y121.074 E1132.34701
G0 F10500 X80.415 Y121.074
G1 F1920 X27.925 Y68.583 E1133.80155
G0 F10500 X27.925 Y69.290
G1 F1920 X79.707 Y121.073 E1135.23647
G0 F10500 X79.000 Y121.073
G1 F1920 X27.925 Y69.997 E1136.65181
G0 F10500 X27.925 Y70.705
G1 F1920 X78.293 Y121.073 E1138.04753
G0 F10500 X77.586 Y121.073
G1 F1920 X27.925 Y71.412 E1139.42367
G0 F10500 X27.925 Y72.119
G1 F1920 X76.879 Y121.073 E1140.78021
G0 F10500 X76.172 Y121.073
G1 F1920 X27.925 Y72.826 E1142.11716
G0 F10500 X27.925 Y73.533
G1 F1920 X75.465 Y121.073 E1143.43452
G0 F10500 X74.758 Y121.073
G1 F1920 X27.925 Y74.240 E1144.73229
G0 F10500 X27.925 Y74.947
G1 F1920 X74.051 Y121.073 E1146.01047
G0 F10500 X73.343 Y121.073
G1 F1920 X27.925 Y75.654 E1147.26904
G0 F10500 X27.925 Y76.361
G1 F1920 X72.636 Y121.073 E1148.50802
G0 F10500 X71.929 Y121.073
G1 F1920 X27.925 Y77.068 E1149.72741
G0 F10500 X27.925 Y77.776
G1 F1920 X71.222 Y121.073 E1150.92720
G0 F10500 X70.515 Y121.073
G1 F1920 X27.925 Y78.483 E1152.10739
G0 F10500 X27.925 Y79.190
G1 F1920 X69.808 Y121.073 E1153.26799
G0 F10500 X69.101 Y121.073
G1 F1920 X27.925 Y79.897 E1154.40900
G0 F10500 X27.925 Y80.604
G1 F1920 X68.394 Y121.073 E1155.53042
G0 F10500 X67.687 Y121.073
G1 F1920 X27.925 Y81.311 E1156.63225
G0 F10500 X27.925 Y82.018
G1 F1920 X66.979 Y121.073 E1157.71447
G0 F10500 X66.272 Y121.073
G1 F1920 X27.925 Y82.725 E1158.77710
G0 F10500 X27.925 Y83.432
G1 F1920 X65.565 Y121.073 E1159.82014
G0 F10500 X64.858 Y121.073
G1 F1920 X27.925 Y84.140 E1160.84357
G0 F10500 X27.925 Y84.847
G1 F1920 X64.151 Y121.073 E1161.84742
G0 F10500 X63.444 Y121.073
G1 F1920 X27.925 Y85.554 E1162.83167
G0 F10500 X27.925 Y86.261
G1 F1920 X62.737 Y121.073 E1163.79633
G0 F10500 X62.030 Y121.073
G1 F1920 X27.925 Y86.968 E1164.74140
G0 F10500 X27.925 Y87.675
G1 F1920 X61.323 Y121.073 E1165.66688
G0 F10500 X60.616 Y121.073
G1 F1920 X27.925 Y88.382 E1166.57276
G0 F10500 X27.925 Y89.089
G1 F1920 X59.908 Y121.073 E1167.45904
G0 F10500 X59.201 Y121.073
G1 F1920 X27.925 Y89.796 E1168.32573
G0 F10500 X27.925 Y90.504
G1 F1920 X58.494 Y121.073 E1169.17282
G0 F10500 X57.787 Y121.073
G1 F1920 X27.925 Y91.211 E1170.00031
G0 F10500 X27.925 Y91.918
G1 F1920 X57.080 Y121.073 E1170.80821
G0 F10500 X56.373 Y121.073
G1 F1920 X27.925 Y92.625 E1171.59652
G0 F10500 X27.925 Y93.332
G1 F1920 X55.666 Y121.073 E1172.36524
G0 F10500 X54.959 Y121.073
G1 F1920 X27.925 Y94.039 E1173.11437
G0 F10500 X27.925 Y94.746
G1 F1920 X54.252 Y121.073 E1173.84390
G0 F10500 X53.544 Y121.073
G1 F1920 X27.925 Y95.453 E1174.55383
G0 F10500 X27.925 Y96.160
G1 F1920 X52.837 Y121.073 E1175.24417
G0 F10500 X52.130 Y121.073
G1 F1920 X27.925 Y96.867 E1175.91492
G0 F10500 X27.925 Y97.575
G1 F1920 X51.423 Y121.073 E1176.56606
G0 F10500 X50.716 Y121.073
G1 F1920 X27.925 Y98.282 E1177.19762
G0 F10500 X27.925 Y98.989
G1 F1920 X50.009 Y121.073 E1177.80958
G0 F10500 X49.302 Y121.073
G1 F1920 X27.925 Y99.696 E1178.40194
G0 F10500 X27.925 Y100.403
G1 F1920 X48.595 Y121.073 E1178.97472
G0 F10500 X47.888 Y121.073
G1 F1920 X27.925 Y101.110 E1179.52791
G0 F10500 X27.925 Y101.817
G1 F1920 X47.180 Y121.073 E1180.06149
G0 F10500 X46.473 Y121.073
G1 F1920 X27.925 Y102.524 E1180.57548
G0 F10500 X27.925 Y103.231
G1 F1920 X45.766 Y121.073 E1181.06988
G0 F10500 X45.059 Y121.073
G1 F1920 X27.925 Y103.939 E1181.54467
G0 F10500 X27.925 Y104.646
G1 F1920 X44.352 Y121.073 E1181.99987
G0 F10500 X43.645 Y121.073
G1 F1920 X27.925 Y105.353 E1182.43548
G0 F10500 X27.925 Y106.060
G1 F1920 X42.938 Y121.073 E1182.85150
G0 F10500 X42.231 Y121.073
G1 F1920 X27.925 Y106.767 E1183.24793
G0 F10500 X27.925 Y107.474
G1 F1920 X41.524 Y121.073 E1183.62476
G0 F10500 X40.817 Y121.073
G1 F1920 X27.925 Y108.181 E1183.98201
G0 F10500 X27.925 Y108.888
G1 F1920 X40.109 Y121.073 E1184.31965
G0 F10500 X39.402 Y121.073
G1 F1920 X27.925 Y109.595 E1184.63770
G0 F10500 X27.925 Y110.303
G1 F1920 X38.695 Y121.073 E1184.93614
G0 F10500 X37.988 Y121.073
G1 F1920 X27.925 Y111.010 E1185.21499
G0 F10500 X27.925 Y111.717
G1 F1920 X37.281 Y121.073 E1185.47425
G0 F10500 X36.574 Y121.073
G1 F1920 X27.925 Y112.424 E1185.71392
G0 F10500 X27.925 Y113.131
G1 F1920 X35.867 Y121.073 E1185.93400
G0 F10500 X35.160 Y121.073
G1 F1920 X27.925 Y113.838 E1186.13448
G0 F10500 X27.925 Y114.545
G1 F1920 X34.453 Y121.073 E1186.31538
G0 F10500 X33.745 Y121.073
G1 F1920 X27.925 Y115.252 E1186.47667
G0 F10500 X27.925 Y115.959
G1 F1920 X33.038 Y121.073 E1186.61836
G0 F10500 X32.331 Y121.073
G1 F1920 X27.925 Y116.666 E1186.74047
G0 F10500 X27.925 Y117.374
G1 F1920 X31.624 Y121.073 E1186.84297
G0 F10500 X30.917 Y121.073
G1 F1920 X27.925 Y118.081 E1186.92588
G0 F10500 X27.925 Y118.788
G1 F1920 X30.210 Y121.073 E1186.98920
G0 F10500 X29.503 Y121.073
G1 F1920 X27.925 Y119.495 E1187.03293
G0 F10500 X27.925 Y120.202
G1 F1920 X28.796 Y121.073 E1187.05706
G0 F10500 X28.089 Y121.073
G1 F1920 X27.925 Y120.909 E1187.06161
G0 F10500 X33.864 Y34.924
G1 F1920 X120.013 Y121.074 E1189.44886
G0 F10500 X120.720 Y121.074
G1 F1920 X34.571 Y34.924 E1191.83611
G0 F10500 X35.278 Y34.924
G1 F1920 X121.427 Y121.074 E1194.22336
G0 F10500 X122.135 Y121.074
G1 F1920 X35.985 Y34.924 E1196.61063
G0 F10500 X36.692 Y34.924
G1 F1920 X122.842 Y121.074 E1198.99789
G0 F10500 X123.549 Y121.074
G1 F1920 X37.399 Y34.924 E1201.38516
G0 F10500 X38.106 Y34.924
G1 F1920 X124.256 Y121.074 E1203.77242
G0 F10500 X124.963 Y121.074
G1 F1920 X38.813 Y34.924 E1206.15969
G0 F10500 X39.520 Y34.924
G1 F1920 X125.670 Y121.074 E1208.54695
G0 F10500 X126.377 Y121.074
G1 F1920 X40.228 Y34.924 E1210.93421
G0 F10500 X40.935 Y34.924
G1 F1920 X127.084 Y121.074 E1213.32146
G0 F10500 X127.791 Y121.074
G1 F1920 X41.642 Y34.924 E1215.70871
G0 F10500 X42.349 Y34.924
G1 F1920 X128.498 Y121.074 E1218.09596
G0 F10500 X129.206 Y121.074
G1 F1920 X43.056 Y34.924 E1220.48323
G0 F10500 X43.763 Y34.924
G1 F1920 X129.913 Y121.074 E1222.87049
G0 F10500 X130.620 Y121.074
G1 F1920 X44.470 Y34.924 E1225.25776
G0 F10500 X45.177 Y34.924
G1 F1920 X131.327 Y121.074 E1227.64502
G0 F10500 X132.034 Y121.074
G1 F1920 X45.884 Y34.924 E1230.03229
G0 F10500 X46.591 Y34.924
G1 F1920 X132.074 Y120.407 E1232.40107
G0 F10500 X132.074 Y119.700
G1 F1920 X47.299 Y34.924 E1234.75025
G0 F10500 X48.006 Y34.924
G1 F1920 X132.074 Y118.993 E1237.07983
G0 F10500 X132.074 Y118.286
G1 F1920 X48.713 Y34.924 E1239.38983
G0 F10500 X49.420 Y34.924
G1 F1920 X132.074 Y117.579 E1241.68023
G0 F10500 X132.074 Y116.872
G1 F1920 X50.127 Y34.924 E1243.95104
G0 F10500 X50.834 Y34.924
G1 F1920 X132.074 Y116.164 E1246.20225
G0 F10500 X132.074 Y115.457
G1 F1920 X51.541 Y34.924 E1248.43386
G0 F10500 X52.248 Y34.924
G1 F1920 X132.074 Y114.750 E1250.64589
G0 F10500 X132.074 Y114.043
G1 F1920 X52.955 Y34.924 E1252.83832
G0 F10500 X53.663 Y34.924
G1 F1920 X132.074 Y113.336 E1255.01115
G0 F10500 X132.074 Y112.629
G1 F1920 X54.370 Y34.924 E1257.16438
G0 F10500 X55.077 Y34.924
G1 F1920 X132.074 Y111.922 E1259.29803
G0 F10500 X132.074 Y111.215
G1 F1920 X55.784 Y34.924 E1261.41208
G0 F10500 X56.491 Y34.924
G1 F1920 X132.074 Y110.508 E1263.50654
G0 F10500 X132.074 Y109.800
G1 F1920 X57.198 Y34.924 E1265.58140
G0 F10500 X57.905 Y34.924
G1 F1920 X132.074 Y109.093 E1267.63666
G0 F10500 X132.074 Y108.386
G1 F1920 X58.612 Y34.924 E1269.67234
G0 F10500 X59.319 Y34.924
G1 F1920 X132.074 Y107.679 E1271.68842
G0 F10500 X132.074 Y106.972
G1 F1920 X60.027 Y34.924 E1273.68490
G0 F10500 X60.734 Y34.924
G1 F1920 X132.074 Y106.265 E1275.66178
G0 F10500 X132.074 Y105.558
G1 F1920 X61.441 Y34.924 E1277.61908
G0 F10500 X62.148 Y34.924
G1 F1920 X132.074 Y104.851 E1279.55678
G0 F10500 X132.074 Y104.144
G1 F1920 X62.855 Y34.924 E1281.47489
G0 F10500 X63.562 Y34.924
G1 F1920 X132.074 Y103.436 E1283.37340
G0 F10500 X132.074 Y102.729
G1 F1920 X64.269 Y34.924 E1285.25231
G0 F10500 X64.976 Y34.924
G1 F1920 X132.074 Y102.022 E1287.11163
G0 F10500 X132.074 Y101.315
G1 F1920 X65.683 Y34.924 E1288.95137
G0 F10500 X66.390 Y34.924
G1 F1920 X132.074 Y100.608 E1290.77151
G0 F10500 X132.074 Y99.901
G1 F1920 X67.098 Y34.924 E1292.57204
G0 F10500 X67.805 Y34.924
G1 F1920 X132.074 Y99.194 E1294.35299
G0 F10500 X132.074 Y98.487
G1 F1920 X68.512 Y34.924 E1296.11434
G0 F10500 X69.219 Y34.924
G1 F1920 X132.074 Y97.780 E1297.85610
G0 F10500 X132.074 Y97.073
G1 F1920 X69.926 Y34.924 E1299.57827
G0 F10500 X70.633 Y34.924
G1 F1920 X132.074 Y96.365 E1301.28084
G0 F10500 X132.074 Y95.658
G1 F1920 X71.340 Y34.924 E1302.96381
G0 F10500 X72.047 Y34.924
G1 F1920 X132.074 Y94.951 E1304.62719
G0 F10500 X132.074 Y94.244
G1 F1920 X72.754 Y34.924 E1306.27098
G0 F10500 X73.462 Y34.924
G1 F1920 X132.074 Y93.537 E1307.89517
G0 F10500 X132.074 Y92.830
G1 F1920 X74.169 Y34.924 E1309.49976
G0 F10500 X74.876 Y34.924
G1 F1920 X132.074 Y92.123 E1311.08477
G0 F10500 X132.074 Y91.416
G1 F1920 X75.583 Y34.924 E1312.65018
G0 F10500 X76.290 Y34.924
G1 F1920 X132.074 Y90.709 E1314.19600
G0 F10500 X132.074 Y90.001
G1 F1920 X76.997 Y34.924 E1315.72221
G0 F10500 X77.704 Y34.924
G1 F1920 X132.074 Y89.294 E1317.22884
G0 F10500 X132.074 Y88.587
G1 F1920 X78.411 Y34.924 E1318.71587
G0 F10500 X79.118 Y34.924
G1 F1920 X132.074 Y87.880 E1320.18331
G0 F10500 X132.074 Y87.173
G1 F1920 X79.825 Y34.924 E1321.63116
G0 F10500 X80.533 Y34.924
G1 F1920 X132.074 Y86.466 E1323.05940
G0 F10500 X132.074 Y85.759
G1 F1920 X81.240 Y34.924 E1324.46806
G0 F10500 X81.947 Y34.924
G1 F1920 X132.074 Y85.052 E1325.85712
G0 F10500 X132.074 Y84.345
G1 F1920 X82.654 Y34.924 E1327.22659
G0 F10500 X83.361 Y34.924
G1 F1920 X132.074 Y83.638 E1328.57647
G0 F10500 X132.074 Y82.930
G1 F1920 X84.068 Y34.924 E1329.90674
G0 F10500 X84.775 Y34.924
G1 F1920 X132.074 Y82.223 E1331.21742
G0 F10500 X132.074 Y81.516
G1 F1920 X85.482 Y34.924 E1332.50851
G0 F10500 X86.189 Y34.924
G1 F1920 X132.074 Y80.809 E1333.78001
G0 F10500 X132.074 Y80.102
G1 F1920 X86.897 Y34.924 E1335.03191
G0 F10500 X87.604 Y34.924
G1 F1920 X132.074 Y79.395 E1336.26421
G0 F10500 X132.074 Y78.688
G1 F1920 X88.311 Y34.924 E1337.47692
G0 F10500 X89.018 Y34.924
G1 F1920 X132.074 Y77.981 E1338.67004
G0 F10500 X132.074 Y77.274
G1 F1920 X89.725 Y34.924 E1339.84357
G0 F10500 X90.432 Y34.924
G1 F1920 X132.074 Y76.566 E1340.99749
G0 F10500 X132.074 Y75.859
G1 F1920 X91.139 Y34.924 E1342.13182
G0 F10500 X91.846 Y34.924
G1 F1920 X132.074 Y75.152 E1343.24656
G0 F10500 X132.074 Y74.445
G1 F1920 X92.553 Y34.924 E1344.34171
G0 F10500 X93.261 Y34.924
G1 F1920 X132.074 Y73.738 E1345.41726
G0 F10500 X132.074 Y73.031
G1 F1920 X93.968 Y34.924 E1346.47321
G0 F10500 X94.675 Y34.924
G1 F1920 X132.074 Y72.324 E1347.50957
G0 F10500 X132.074 Y71.617
G1 F1920 X95.382 Y34.924 E1348.52634
G0 F10500 X96.089 Y34.924
G1 F1920 X132.074 Y70.910 E1349.52352
G0 F10500 X132.074 Y70.202
G1 F1920 X96.796 Y34.924 E1350.50109
G0 F10500 X97.503 Y34.924
G1 F1920 X132.074 Y69.495 E1351.45908
G0 F10500 X132.074 Y68.788
G1 F1920 X98.210 Y34.924 E1352.39747
G0 F10500 X98.917 Y34.924
G1 F1920 X132.074 Y68.081 E1353.31627
G0 F10500 X132.074 Y67.374
G1 F1920 X99.624 Y34.924 E1354.21547
G0 F10500 X100.332 Y34.924
G1 F1920 X132.074 Y66.667 E1355.09508
G0 F10500 X132.074 Y65.960
G1 F1920 X101.039 Y34.924 E1355.95509
G0 F10500 X101.746 Y34.924
G1 F1920 X132.074 Y65.253 E1356.79551
G0 F10500 X132.074 Y64.546
G1 F1920 X102.453 Y34.924 E1357.61634
G0 F10500 X103.160 Y34.924
G1 F1920 X132.074 Y63.839 E1358.41757
G0 F10500 X132.074 Y63.131
G1 F1920 X103.867 Y34.924 E1359.19921
G0 F10500 X104.574 Y34.924
G1 F1920 X132.074 Y62.424 E1359.96125
G0 F10500 X132.074 Y61.717
G1 F1920 X105.281 Y34.924 E1360.70370
G0 F10500 X105.988 Y34.924
G1 F1920 X132.074 Y61.010 E1361.42655
G0 F10500 X132.074 Y60.303
G1 F1920 X106.696 Y34.924 E1362.12981
G0 F10500 X107.403 Y34.924
G1 F1920 X132.074 Y59.596 E1362.81347
G0 F10500 X132.074 Y58.889
G1 F1920 X108.110 Y34.924 E1363.47754
G0 F10500 X108.817 Y34.924
G1 F1920 X132.074 Y58.182 E1364.12202
G0 F10500 X132.074 Y57.475
G1 F1920 X109.524 Y34.924 E1364.74690
G0 F10500 X110.231 Y34.924
G1 F1920 X132.074 Y56.767 E1365.35218
G0 F10500 X132.074 Y56.060
G1 F1920 X110.938 Y34.924 E1365.93788
G0 F10500 X111.645 Y34.924
G1 F1920 X132.074 Y55.353 E1366.50397
G0 F10500 X132.074 Y54.646
G1 F1920 X112.352 Y34.924 E1367.05048
G0 F10500 X113.060 Y34.924
G1 F1920 X132.074 Y53.939 E1367.57738
G0 F10500 X132.074 Y53.232
G1 F1920 X113.767 Y34.924 E1368.08470
G0 F10500 X114.474 Y34.924
G1 F1920 X132.074 Y52.525 E1368.57242
G0 F10500 X132.074 Y51.818
G1 F1920 X115.181 Y34.924 E1369.04054
G0 F10500 X115.888 Y34.924
G1 F1920 X132.074 Y51.111 E1369.48908
G0 F10500 X132.074 Y50.403
G1 F1920 X116.595 Y34.924 E1369.91801
G0 F10500 X117.302 Y34.924
G1 F1920 X132.074 Y49.696 E1370.32735
G0 F10500 X132.074 Y48.989
G1 F1920 X118.009 Y34.924 E1370.71710
G0 F10500 X118.716 Y34.924
G1 F1920 X132.074 Y48.282 E1371.08726
G0 F10500 X132.074 Y47.575
G1 F1920 X119.423 Y34.924 E1371.43783
G0 F10500 X120.131 Y34.924
G1 F1920 X132.074 Y46.868 E1371.76879
G0 F10500 X132.074 Y46.161
G1 F1920 X120.838 Y34.924 E1372.08016
G0 F10500 X121.545 Y34.924
G1 F1920 X132.074 Y45.454 E1372.37194
G0 F10500 X132.074 Y44.747
G1 F1920 X122.252 Y34.924 E1372.64412
G0 F10500 X122.959 Y34.924
G1 F1920 X132.074 Y44.040 E1372.89672
G0 F10500 X132.074 Y43.332
G1 F1920 X123.666 Y34.924 E1373.12971
G0 F10500 X124.373 Y34.924
G1 F1920 X132.074 Y42.625 E1373.34311
G0 F10500 X132.074 Y41.918
G1 F1920 X125.080 Y34.924 E1373.53692
G0 F10500 X125.787 Y34.924
G1 F1920 X132.074 Y41.211 E1373.71113
G0 F10500 X132.074 Y40.504
G1 F1920 X126.495 Y34.924 E1373.86574
G0 F10500 X127.202 Y34.924
G1 F1920 X132.074 Y39.797 E1374.00076
G0 F10500 X132.074 Y39.090
G1 F1920 X127.909 Y34.924 E1374.11619
G0 F10500 X128.616 Y34.924
G1 F1920 X132.074 Y38.383 E1374.21203
G0 F10500 X132.074 Y37.676
G1 F1920 X129.323 Y34.924 E1374.28827
G0 F10500 X130.030 Y34.924
G1 F1920 X132.074 Y36.968 E1374.34491
G0 F10500 X132.074 Y36.261
G1 F1920 X130.737 Y34.924 E1374.38196
G0 F10500 X131.444 Y34.924
G1 F1920 X132.074 Y35.554 E1374.39942
;LAYER:3
G0 F10500 X132.250 Y34.750 Z1.175
;TYPE:WALL-INNER
G1 F1740 X132.250 Y121.250 E1376.09433
G1 X27.750 Y121.250 E1378.14194
G1 X27.750 Y34.750 E1379.83685
G1 X132.250 Y34.750 E1381.88446
G0 F10500 X132.750 Y34.250
;TYPE:WALL-OUTER
G1 F1500 X132.750 Y121.750 E1383.59896
G1 X27.250 Y121.750 E1385.66616
G1 X27.250 Y34.250 E1387.38066
G1 X132.750 Y34.250 E1389.44787
G0 F10500 X132.074 Y35.156
;TYPE:SKIN
G1 F2400 X46.156 Y121.074 E1391.82870
G0 F10500 X46.863 Y121.074
G1 F2400 X132.074 Y35.863 E1394.18995
G0 F10500 X132.074 Y36.570
G1 F2400 X47.570 Y121.074 E1396.53160
G0 F10500 X48.277 Y121.074
G1 F2400 X132.074 Y37.277 E1398.85366
G0 F10500 X132.074 Y37.985
G1 F2400 X48.984 Y121.074 E1401.15612
G0 F10500 X49.691 Y121.074
G1 F2400 X132.074 Y38.692 E1403.43899
G0 F10500 X132.074 Y39.399
G1 F2400 X50.399 Y121.074 E1405.70225
G0 F10500 X51.106 Y121.074
G1 F2400 X132.074 Y40.106 E1407.94592
G0 F10500 X132.074 Y40.813
G1 F2400 X51.813 Y121.074 E1410.16999
G0 F10500 X52.520 Y121.074
G1 F2400 X132.074 Y41.520 E1412.37448
G0 F10500 X132.074 Y42.227
G1 F2400 X53.227 Y121.074 E1414.55938
G0 F10500 X53.934 Y121.074
G1 F2400 X132.074 Y42.934 E1416.72468
G0 F10500 X132.074 Y43.641
G1 F2400 X54.641 Y121.074 E1418.87039
G0 F10500 X55.348 Y121.074
G1 F2400 X132.074 Y44.349 E1420.99650
G0 F10500 X132.074 Y45.056
G1 F2400 X56.055 Y121.074 E1423.10302
G0 F10500 X56.762 Y121.074
G1 F2400 X132.074 Y45.763 E1425.18994
G0 F10500 X132.074 Y46.470
G1 F2400 X57.470 Y121.074 E1427.25726
G0 F10500 X58.177 Y121.074
G1 F2400 X132.074 Y47.177 E1429.30499
G0 F10500 X132.074 Y47.884
G1 F2400 X58.884 Y121.074 E1431.33312
G0 F10500 X59.591 Y121.074
G1 F2400 X132.074 Y48.591 E1433.34167
G0 F10500 X132.074 Y49.298
G1 F2400 X60.298 Y121.074 E1435.33062
G0 F10500 X61.005 Y121.074
G1 F2400 X132.074 Y50.005 E1437.29998
G0 F10500 X132.074 Y50.712
G1 F2400 X61.712 Y121.074 E1439.24975
G0 F10500 X62.419 Y121.074
G1 F2400 X132.074 Y51.420 E1441.17992
G0 F10500 X132.074 Y52.127
G1 F2400 X63.126 Y121.074 E1443.09049
G0 F10500 X63.834 Y121.074
G1 F2400 X132.074 Y52.834 E1444.98146
G0 F10500 X132.074 Y53.541
G1 F2400 X64.541 Y121.074 E1446.85284
G0 F10500 X65.248 Y121.074
G1 F2400 X132.074 Y54.248 E1448.70463
G0 F10500 X132.074 Y54.955
G1 F2400 X65.955 Y121.074 E1450.53682
G0 F10500 X66.662 Y121.074
G1 F2400 X132.074 Y55.662 E1452.34943
G0 F10500 X132.074 Y56.369
G1 F2400 X67.369 Y121.074 E1454.14244
G0 F10500 X68.076 Y121.074
G1 F2400 X132.074 Y57.076 E1455.91586
G0 F10500 X132.074 Y57.784
G1 F2400 X68.783 Y121.074 E1457.66967
G0 F10500 X69.490 Y121.074
G1 F2400 X132.074 Y58.491 E1459.40390
G0 F10500 X132.074 Y59.198
G1 F2400 X70.198 Y121.074 E1461.11852
G0 F10500 X70.905 Y121.074
G1 F2400 X132.074 Y59.905 E1462.81355
G0 F10500 X132.074 Y60.612
G1 F2400 X71.612 Y121.074 E1464.48898
G0 F10500 X72.319 Y121.074
G1 F2400 X132.074 Y61.319 E1466.14483
G0 F10500 X132.074 Y62.026
G1 F2400 X73.026 Y121.074 E1467.78108
G0 F10500 X73.733 Y121.074
G1 F2400 X132.074 Y62.733 E1469.39774
G0 F10500 X132.074 Y63.440
G1 F2400 X74.440 Y121.074 E1470.99481
G0 F10500 X75.147 Y121.074
G1 F2400 X132.074 Y64.148 E1472.57228
G0 F10500 X132.074 Y64.855
G1 F2400 X75.854 Y121.074 E1474.13015
G0 F10500 X76.561 Y121.074
G1 F2400 X132.074 Y65.562 E1475.66844
G0 F10500 X132.074 Y66.269
G1 F2400 X77.269 Y121.074 E1477.18711
G0 F10500 X77.976 Y121.074
G1 F2400 X132.074 Y66.976 E1478.68620
G0 F10500 X132.074 Y67.683
G1 F2400 X78.683 Y121.074 E1480.16570
G0 F10500 X79.390 Y121.074
G1 F2400 X132.074 Y68.390 E1481.62560
G0 F10500 X132.074 Y69.097
G1 F2400 X80.096 Y121.075 E1483.06594
G0 F10500 X80.803 Y121.075
G1 F2400 X132.074 Y69.804 E1484.48669
G0 F10500 X132.074 Y70.511
G1 F2400 X81.511 Y121.075 E1485.88783
G0 F10500 X82.218 Y121.075
G1 F2400 X132.074 Y71.219 E1487.26937
G0 F10500 X132.074 Y71.926
G1 F2400 X82.925 Y121.075 E1488.63131
G0 F10500 X83.632 Y121.075
G1 F2400 X132.074 Y72.633 E1489.97367
G0 F10500 X132.074 Y73.340
G1 F2400 X84.339 Y121.075 E1491.29643
G0 F10500 X85.046 Y121.075
G1 F2400 X132.074 Y74.047 E1492.59961
G0 F10500 X132.074 Y74.754
G1 F2400 X85.753 Y121.075 E1493.88319
G0 F10500 X86.460 Y121.075
G1 F2400 X132.074 Y75.461 E1495.14718
G0 F10500 X132.074 Y76.168
G1 F2400 X87.167 Y121.075 E1496.39158
G0 F10500 X87.874 Y121.075
G1 F2400 X132.074 Y76.875 E1497.61638
G0 F10500 X132.074 Y77.583
G1 F2400 X88.582 Y121.075 E1498.82157
G0 F10500 X89.289 Y121.075
G1 F2400 X132.074 Y78.290 E1500.00717
G0 F10500 X132.074 Y78.997
G1 F2400 X89.996 Y121.075 E1501.17317
G0 F10500 X90.703 Y121.075
G1 F2400 X132.074 Y79.704 E1502.31959
G0 F10500 X132.074 Y80.411
G1 F2400 X91.410 Y121.075 E1503.44641
G0 F10500 X92.117 Y121.075
G1 F2400 X132.074 Y81.118 E1504.55364
G0 F10500 X132.074 Y81.825
G1 F2400 X92.824 Y121.075 E1505.64128
G0 F10500 X93.531 Y121.075
G1 F2400 X132.074 Y82.532 E1506.70933
G0 F10500 X132.074 Y83.239
G1 F2400 X94.238 Y121.075 E1507.75779
G0 F10500 X94.946 Y121.075
G1 F2400 X132.074 Y83.947 E1508.78662
G0 F10500 X132.074 Y84.654
G1 F2400 X95.653 Y121.075 E1509.79587
G0 F10500 X96.360 Y121.075
G1 F2400 X132.074 Y85.361 E1510.78552
G0 F10500 X132.074 Y86.068
G1 F2400 X97.067 Y121.075 E1511.75559
G0 F10500 X97.774 Y121.075
G1 F2400 X132.074 Y86.775 E1512.70606
G0 F10500 X132.074 Y87.482
G1 F2400 X98.481 Y121.075 E1513.63694
G0 F10500 X99.188 Y121.075
G1 F2400 X132.074 Y88.189 E1514.54823
G0 F10500 X132.074 Y88.896
G1 F2400 X99.895 Y121.075 E1515.43993
G0 F10500 X100.602 Y121.075
G1 F2400 X132.074 Y89.603 E1516.31204
G0 F10500 X132.074 Y90.310
G1 F2400 X101.310 Y121.075 E1517.16454
G0 F10500 X102.017 Y121.075
G1 F2400 X132.074 Y91.018 E1517.99744
G0 F10500 X132.074 Y91.725
G1 F2400 X102.724 Y121.075 E1518.81074
G0 F10500 X103.431 Y121.075
G1 F2400 X132.074 Y92.432 E1519.60445
G0 F10500 X132.074 Y93.139
G1 F2400 X104.138 Y121.075 E1520.37858
G0 F10500 X104.845 Y121.075
G1 F2400 X132.074 Y93.846 E1521.13311
G0 F10500 X132.074 Y94.553
G1 F2400 X105.552 Y121.075 E1521.86805
G0 F10500 X106.259 Y121.075
G1 F2400 X132.074 Y95.260 E1522.58340
G0 F10500 X132.074 Y95.967
G1 F2400 X106.966 Y121.075 E1523.27915
G0 F10500 X107.673 Y121.075
G1 F2400 X132.074 Y96.674 E1523.95532
G0 F10500 X132.074 Y97.382
G1 F2400 X108.381 Y121.075 E1524.61186
G0 F10500 X109.088 Y121.075
G1 F2400 X132.074 Y98.089 E1525.24882
G0 F10500 X132.074 Y98.796
G1 F2400 X109.795 Y121.075 E1525.86618
G0 F10500 X110.502 Y121.075
G1 F2400 X132.074 Y99.503 E1526.46396
G0 F10500 X132.074 Y100.210
G1 F2400 X111.209 Y121.075 E1527.04214
G0 F10500 X111.916 Y121.075
G1 F2400 X132.074 Y100.917 E1527.60073
G0 F10500 X132.074 Y101.624
G1 F2400 X112.623 Y121.075 E1528.13972
G0 F10500 X113.330 Y121.075
G1 F2400 X132.074 Y102.331 E1528.65913
G0 F10500 X132.074 Y103.038
G1 F2400 X114.037 Y121.075 E1529.15895
G0 F10500 X114.745 Y121.075
G1 F2400 X132.074 Y103.745 E1529.63916
G0 F10500 X132.074 Y104.453
G1 F2400 X115.452 Y121.075 E1530.09976
G0 F10500 X116.159 Y121.075
G1 F2400 X132.074 Y105.160 E1530.54078
G0 F10500 X132.074 Y105.867
G1 F2400 X116.866 Y121.075 E1530.96220
G0 F10500 X117.573 Y121.075
G1 F2400 X132.074 Y106.574 E1531.36403
G0 F10500 X132.074 Y107.281
G1 F2400 X118.280 Y121.075 E1531.74627
G0 F10500 X118.987 Y121.075
G1 F2400 X132.074 Y107.988 E1532.10892
G0 F10500 X132.074 Y108.695
G1 F2400 X119.694 Y121.075 E1532.45197
G0 F10500 X120.401 Y121.075
G1 F2400 X132.074 Y109.402 E1532.77544
G0 F10500 X132.074 Y110.109
G1 F2400 X121.109 Y121.075 E1533.07930
G0 F10500 X121.816 Y121.075
G1 F2400 X132.074 Y110.817 E1533.36355
G0 F10500 X132.074 Y111.524
G1 F2400 X122.523 Y121.075 E1533.62822
G0 F10500 X123.230 Y121.075
G1 F2400 X132.074 Y112.231 E1533.87329
G0 F10500 X132.074 Y112.938
G1 F2400 X123.937 Y121.075 E1534.09877
G0 F10500 X124.644 Y121.075
G1 F2400 X132.074 Y113.645 E1534.30466
G0 F10500 X132.074 Y114.352
G1 F2400 X125.351 Y121.075 E1534.49096
G0 F10500 X126.058 Y121.075
G1 F2400 X132.074 Y115.059 E1534.65767
G0 F10500 X132.074 Y115.766
G1 F2400 X126.765 Y121.075 E1534.80478
G0 F10500 X127.472 Y121.075
G1 F2400 X132.074 Y116.473 E1534.93231
G0 F10500 X132.074 Y117.181
G1 F2400 X128.180 Y121.075 E1535.04021
G0 F10500 X128.887 Y121.075
G1 F2400 X132.074 Y117.888 E1535.12852
G0 F10500 X132.074 Y118.595
G1 F2400 X129.594 Y121.075 E1535.19725
G0 F10500 X130.301 Y121.075
G1 F2400 X132.074 Y119.302 E1535.24638
G0 F10500 X132.074 Y120.009
G1 F2400 X131.008 Y121.075 E1535.27592
G0 F10500 X131.715 Y121.075
G1 F2400 X132.074 Y120.716 E1535.28586
G0 F10500 X131.599 Y34.924
G1 F2400 X45.449 Y121.074 E1537.67313
G0 F10500 X44.742 Y121.074
G1 F2400 X130.892 Y34.924 E1540.06039
G0 F10500 X130.185 Y34.924
G1 F2400 X44.035 Y121.074 E1542.44766
G0 F10500 X43.327 Y121.074
G1 F2400 X129.478 Y34.924 E1544.83494
G0 F10500 X128.771 Y34.924
G1 F2400 X42.620 Y121.074 E1547.22222
G0 F10500 X41.913 Y121.074
G1 F2400 X128.064 Y34.924 E1549.60950
G0 F10500 X127.357 Y34.924
G1 F2400 X41.206 Y121.074 E1551.99678
G0 F10500 X40.499 Y121.074
G1 F2400 X126.649 Y34.924 E1554.38404
G0 F10500 X125.942 Y34.924
G1 F2400 X39.792 Y121.074 E1556.77131
G0 F10500 X39.085 Y121.074
G1 F2400 X125.235 Y34.924 E1559.15857
G0 F10500 X124.528 Y34.924
G1 F2400 X38.378 Y121.074 E1561.54584
G0 F10500 X37.671 Y121.074
G1 F2400 X123.821 Y34.924 E1563.93310
G0 F10500 X123.114 Y34.924
G1 F2400 X36.964 Y121.074 E1566.32037
G0 F10500 X36.256 Y121.074
G1 F2400 X122.407 Y34.924 E1568.70765
G0 F10500 X121.700 Y34.924
G1 F2400 X35.549 Y121.074 E1571.09493
G0 F10500 X34.842 Y121.074
G1 F2400 X120.993 Y34.924 E1573.48221
G0 F10500 X120.285 Y34.924
G1 F2400 X34.135 Y121.074 E1575.86947
G0 F10500 X33.428 Y121.074
G1 F2400 X119.578 Y34.924 E1578.25674
G0 F10500 X118.871 Y34.924
G1 F2400 X32.721 Y121.074 E1580.64400
G0 F10500 X32.014 Y121.074
G1 F2400 X118.164 Y34.924 E1583.03127
G0 F10500 X117.457 Y34.924
G1 F2400 X31.307 Y121.074 E1585.41853
G0 F10500 X30.600 Y121.074
G1 F2400 X116.750 Y34.924 E1587.80580
G0 F10500 X116.043 Y34.924
G1 F2400 X29.892 Y121.074 E1590.19308
G0 F10500 X29.185 Y121.074
G1 F2400 X115.336 Y34.924 E1592.58036
G0 F10500 X114.629 Y34.924
G1 F2400 X28.478 Y121.074 E1594.96764
G0 F10500 X27.925 Y120.920
G1 F2400 X113.921 Y34.924 E1597.35063
G0 F10500 X113.214 Y34.924
G1 F2400 X27.925 Y120.213 E1599.71404
G0 F10500 X27.925 Y119.506
G1 F2400 X112.507 Y34.924 E1602.05786
G0 F10500 X111.800 Y34.924
G1 F2400 X27.925 Y118.799 E1604.38208
G0 F10500 X27.925 Y118.092
G1 F2400 X111.093 Y34.924 E1606.68671
G0 F10500 X110.386 Y34.924
G1 F2400 X27.925 Y117.385 E1608.97175
G0 F10500 X27.925 Y116.678
G1 F2400 X109.679 Y34.924 E1611.23720
G0 F10500 X108.972 Y34.924
G1 F2400 X27.925 Y115.971 E1613.48306
G0 F10500 X27.925 Y115.264
G1 F2400 X108.265 Y34.924 E1615.70933
G0 F10500 X107.558 Y34.924
G1 F2400 X27.925 Y114.556 E1617.91599
G0 F10500 X27.925 Y113.849
G1 F2400 X106.850 Y34.924 E1620.10305
G0 F10500 X106.143 Y34.924
G1 F2400 X27.925 Y113.142 E1622.27051
G0 F10500 X27.925 Y112.435
G1 F2400 X105.436 Y34.924 E1624.41838
G0 F10500 X104.729 Y34.924
G1 F2400 X27.925 Y111.728 E1626.54667
G0 F10500 X27.925 Y111.021
G1 F2400 X104.022 Y34.924 E1628.65536
G0 F10500 X103.315 Y34.924
G1 F2400 X27.925 Y110.314 E1630.74446
G0 F10500 X27.925 Y109.607
G1 F2400 X102.608 Y34.924 E1632.81397
G0 F10500 X101.901 Y34.924
G1 F2400 X27.925 Y108.900 E1634.86388
G0 F10500 X27.925 Y108.192
G1 F2400 X101.194 Y34.924 E1636.89419
G0 F10500 X100.486 Y34.924
G1 F2400 X27.925 Y107.485 E1638.90490
G0 F10500 X27.925 Y106.778
G1 F2400 X99.779 Y34.924 E1640.89602
G0 F10500 X99.072 Y34.924
G1 F2400 X27.925 Y106.071 E1642.86754
G0 F10500 X27.925 Y105.364
G1 F2400 X98.365 Y34.924 E1644.81947
G0 F10500 X97.658 Y34.924
G1 F2400 X27.925 Y104.657 E1646.75181
G0 F10500 X27.925 Y103.950
G1 F2400 X96.951 Y34.924 E1648.66456
G0 F10500 X96.244 Y34.924
G1 F2400 X27.925 Y103.243 E1650.55772
G0 F10500 X27.925 Y102.536
G1 F2400 X95.537 Y34.924 E1652.43129
G0 F10500 X94.830 Y34.924
G1 F2400 X27.925 Y101.829 E1654.28526
G0 F10500 X27.925 Y101.121
G1 F2400 X94.122 Y34.924 E1656.11962
G0 F10500 X93.415 Y34.924
G1 F2400 X27.925 Y100.414 E1657.93438
G0 F10500 X27.925 Y99.707
G1 F2400 X92.708 Y34.924 E1659.72956
G0 F10500 X92.001 Y34.924
G1 F2400 X27.925 Y99.000 E1661.50514
G0 F10500 X27.925 Y98.293
G1 F2400 X91.294 Y34.924 E1663.26113
G0 F10500 X90.587 Y34.924
G1 F2400 X27.925 Y97.586 E1664.99753
G0 F10500 X27.925 Y96.879
G1 F2400 X89.880 Y34.924 E1666.71434
G0 F10500 X89.173 Y34.924
G1 F2400 X27.925 Y96.172 E1668.41156
G0 F10500 X27.925 Y95.465
G1 F2400 X88.466 Y34.924 E1670.08918
G0 F10500 X87.759 Y34.924
G1 F2400 X27.925 Y94.757 E1671.74720
G0 F10500 X27.925 Y94.050
G1 F2400 X87.051 Y34.924 E1673.38562
G0 F10500 X86.344 Y34.924
G1 F2400 X27.925 Y93.343 E1675.00444
G0 F10500 X27.925 Y92.636
G1 F2400 X85.637 Y34.924 E1676.60367
G0 F10500 X84.930 Y34.924
G1 F2400 X27.925 Y91.929 E1678.18331
G0 F10500 X27.925 Y91.222
G1 F2400 X84.223 Y34.924 E1679.74336
G0 F10500 X83.516 Y34.924
G1 F2400 X27.925 Y90.515 E1681.28382
G0 F10500 X27.925 Y89.808
G1 F2400 X82.809 Y34.924 E1682.80469
G0 F10500 X82.102 Y34.924
G1 F2400 X27.925 Y89.101 E1684.30596
G0 F10500 X27.925 Y88.394
G1 F2400 X81.395 Y34.924 E1685.78765
G0 F10500 X80.687 Y34.924
G1 F2400 X27.925 Y87.686 E1687.24971
G0 F10500 X27.925 Y86.979
G1 F2400 X79.980 Y34.924 E1688.69219
G0 F10500 X79.273 Y34.924
G1 F2400 X27.925 Y86.272 E1690.11507
G0 F10500 X27.925 Y85.565
G1 F2400 X78.566 Y34.924 E1691.51836
G0 F10500 X77.859 Y34.924
G1 F2400 X27.925 Y84.858 E1692.90206
G0 F10500 X27.925 Y84.151
G1 F2400 X77.152 Y34.924 E1694.26617
G0 F10500 X76.445 Y34.924
G1 F2400 X27.925 Y83.444 E1695.61068
G0 F10500 X27.925 Y82.737
G1 F2400 X75.738 Y34.924 E1696.93561
G0 F10500 X75.031 Y34.924
G1 F2400 X27.925 Y82.030 E1698.24094
G0 F10500 X27.925 Y81.322
G1 F2400 X74.323 Y34.924 E1699.52666
G0 F10500 X73.616 Y34.924
G1 F2400 X27.925 Y80.615 E1700.79278
G0 F10500 X27.925 Y79.908
G1 F2400 X72.909 Y34.924 E1702.03931
G0 F10500 X72.202 Y34.924
G1 F2400 X27.925 Y79.201 E1703.26625
G0 F10500 X27.925 Y78.494
G1 F2400 X71.495 Y34.924 E1704.47360
G0 F10500 X70.788 Y34.924
G1 F2400 X27.925 Y77.787 E1705.66136
G0 F10500 X27.925 Y77.080
G1 F2400 X70.081 Y34.924 E1706.82953
G0 F10500 X69.374 Y34.924
G1 F2400 X27.925 Y76.373 E1707.97810
G0 F10500 X27.925 Y75.666
G1 F2400 X68.667 Y34.924 E1709.10709
G0 F10500 X67.960 Y34.924
G1 F2400 X27.925 Y74.958 E1710.21647
G0 F10500 X27.925 Y74.251
G1 F2400 X67.252 Y34.924 E1711.30624
G0 F10500 X66.545 Y34.924
G1 F2400 X27.925 Y73.544 E1712.37642
G0 F10500 X27.925 Y72.837
G1 F2400 X65.838 Y34.924 E1713.42701
G0 F10500 X65.131 Y34.924
G1 F2400 X27.925 Y72.130 E1714.45801
G0 F10500 X27.925 Y71.423
G1 F2400 X64.424 Y34.924 E1715.46942
G0 F10500 X63.717 Y34.924
G1 F2400 X27.925 Y70.716 E1716.46124
G0 F10500 X27.925 Y70.009
G1 F2400 X63.010 Y34.924 E1717.43346
G0 F10500 X62.303 Y34.924
G1 F2400 X27.925 Y69.302 E1718.38609
G0 F10500 X27.925 Y68.595
G1 F2400 X61.596 Y34.924 E1719.31914
G0 F10500 X60.888 Y34.924
G1 F2400 X27.925 Y67.887 E1720.23256
G0 F10500 X27.925 Y67.180
G1 F2400 X60.181 Y34.924 E1721.12639
G0 F10500 X59.474 Y34.924
G1 F2400 X27.925 Y66.473 E1722.00063
G0 F10500 X27.925 Y65.766
G1 F2400 X58.767 Y34.924 E1722.85528
G0 F10500 X58.060 Y34.924
G1 F2400 X27.925 Y65.059 E1723.69034
G0 F10500 X27.925 Y64.352
G1 F2400 X57.353 Y34.924 E1724.50581
G0 F10500 X56.646 Y34.924
G1 F2400 X27.925 Y63.645 E1725.30168
G0 F10500 X27.925 Y62.938
G1 F2400 X55.939 Y34.924 E1726.07797
G0 F10500 X55.232 Y34.924
G1 F2400 X27.925 Y62.231 E1726.83466
G0 F10500 X27.925 Y61.523
G1 F2400 X54.525 Y34.924 E1727.57175
G0 F10500 X53.817 Y34.924
G1 F2400 X27.925 Y60.816 E1728.28923
G0 F10500 X27.925 Y60.109
G1 F2400 X53.110 Y34.924 E1728.98712
G0 F10500 X52.403 Y34.924
G1 F2400 X27.925 Y59.402 E1729.66542
G0 F10500 X27.925 Y58.695
G1 F2400 X51.696 Y34.924 E1730.32413
G0 F10500 X50.989 Y34.924
G1 F2400 X27.925 Y57.988 E1730.96324
G0 F10500 X27.925 Y57.281
G1 F2400 X50.282 Y34.924 E1731.58277
G0 F10500 X49.575 Y34.924
G1 F2400 X27.925 Y56.574 E1732.18270
G0 F10500 X27.925 Y55.867
G1 F2400 X48.868 Y34.924 E1732.76304
G0 F10500 X48.161 Y34.924
G1 F2400 X27.925 Y55.159 E1733.32378
G0 F10500 X27.925 Y54.452
G1 F2400 X47.453 Y34.924 E1733.86491
G0 F10500 X46.746 Y34.924
G1 F2400 X27.925 Y53.745 E1734.38645
G0 F10500 X27.925 Y53.038
G1 F2400 X46.039 Y34.924 E1734.88840
G0 F10500 X45.332 Y34.924
G1 F2400 X27.925 Y52.331 E1735.37076
G0 F10500 X27.925 Y51.624
G1 F2400 X44.625 Y34.924 E1735.83353
G0 F10500 X43.918 Y34.924
G1 F2400 X27.925 Y50.917 E1736.27670
G0 F10500 X27.925 Y50.210
G1 F2400 X43.211 Y34.924 E1736.70029
G0 F10500 X42.504 Y34.924
G1 F2400 X27.925 Y49.503 E1737.10428
G0 F10500 X27.925 Y48.796
G1 F2400 X41.797 Y34.924 E1737.48868
G0 F10500 X41.089 Y34.924
G1 F2400 X27.925 Y48.088 E1737.85346
G0 F10500 X27.925 Y47.381
G1 F2400 X40.382 Y34.924 E1738.19865
G0 F10500 X39.675 Y34.924
G1 F2400 X27.925 Y46.674 E1738.52425
G0 F10500 X27.925 Y45.967
G1 F2400 X38.968 Y34.924 E1738.83026
G0 F10500 X38.261 Y34.924
G1 F2400 X27.925 Y45.260 E1739.11667
G0 F10500 X27.925 Y44.553
G1 F2400 X37.554 Y34.924 E1739.38350
G0 F10500 X36.847 Y34.924
G1 F2400 X27.925 Y43.846 E1739.63073
G0 F10500 X27.925 Y43.139
G1 F2400 X36.140 Y34.924 E1739.85838
G0 F10500 X35.433 Y34.924
G1 F2400 X27.925 Y42.432 E1740.06643
G0 F10500 X27.925 Y41.724
G1 F2400 X34.726 Y34.924 E1740.25487
G0 F10500 X34.018 Y34.924
G1 F2400 X27.925 Y41.017 E1740.42371
G0 F10500 X27.925 Y40.310
G1 F2400 X33.311 Y34.924 E1740.57296
G0 F10500 X32.604 Y34.924
G1 F2400 X27.925 Y39.603 E1740.70262
G0 F10500 X27.925 Y38.896
G1 F2400 X31.897 Y34.924 E1740.81269
G0 F10500 X31.190 Y34.924
G1 F2400 X27.925 Y38.189 E1740.90316
G0 F10500 X27.925 Y37.482
G1 F2400 X30.483 Y34.924 E1740.97404
G0 F10500 X29.776 Y34.924
G1 F2400 X27.925 Y36.775 E1741.02534
G0 F10500 X27.925 Y36.068
G1 F2400 X29.069 Y34.924 E1741.05704
G0 F10500 X28.362 Y34.924
G1 F2400 X27.925 Y35.360 E1741.06913
;LAYER:4
G0 F10500 X27.750 Y34.750 Z1.425
;TYPE:WALL-INNER
G1 F2100 X132.250 Y34.750 E1743.11674
G1 X132.250 Y121.250 E1744.81165
G1 X27.750 Y121.250 E1746.85926
G1 X27.750 Y34.750 E1748.55417
G0 F10500 X27.250 Y34.250
;TYPE:WALL-OUTER
G1 F1800 X132.750 Y34.250 E1750.62137
G1 X132.750 Y121.750 E1752.33587
G1 X27.250 Y121.750 E1754.40307
G1 X27.250 Y34.250 E1756.11758
G0 F10500 X27.600 Y34.510
G0 X31.389 Y34.924
;TYPE:FILL
G1 F2400 X32.289 Y35.824 E1756.14252
G0 F10500 X32.251 Y34.924
G1 F2400 X31.349 Y35.825 E1756.16750
G0 F10500 X28.825 Y38.349
G1 F2400 X27.925 Y39.250 E1756.19245
G0 F10500 X27.925 Y38.531
G1 F2400 X28.825 Y39.432 E1756.21741
G0 F10500 X38.420 Y35.825
G1 F2400 X39.322 Y34.924 E1756.24239
G0 F10500 X38.460 Y34.924
G1 F2400 X39.360 Y35.824 E1756.26733
G0 F10500 X45.491 Y35.825
G1 F2400 X46.393 Y34.924 E1756.29231
G0 F10500 X45.531 Y34.924
G1 F2400 X46.431 Y35.824 E1756.31725
G0 F10500 X52.562 Y35.825
G1 F2400 X53.464 Y34.924 E1756.34223
G0 F10500 X52.602 Y34.924
G1 F2400 X53.502 Y35.824 E1756.36717
G0 F10500 X59.633 Y35.825
G1 F2400 X60.535 Y34.924 E1756.39215
G0 F10500 X59.673 Y34.924
G1 F2400 X60.573 Y35.824 E1756.41709
G0 F10500 X66.704 Y35.825
G1 F2400 X67.606 Y34.924 E1756.44207
G0 F10500 X66.744 Y34.924
G1 F2400 X67.644 Y35.824 E1756.46701
G0 F10500 X73.775 Y35.825
G1 F2400 X74.677 Y34.924 E1756.49199
G0 F10500 X73.815 Y34.924
G1 F2400 X74.715 Y35.824 E1756.51693
G0 F10500 X80.847 Y35.825
G1 F2400 X81.748 Y34.924 E1756.54190
G0 F10500 X80.886 Y34.924
G1 F2400 X81.786 Y35.824 E1756.56684
G0 F10500 X87.918 Y35.825
G1 F2400 X88.819 Y34.924 E1756.59180
G0 F10500 X87.957 Y34.924
G1 F2400 X88.857 Y35.824 E1756.61674
G0 F10500 X94.989 Y35.825
G1 F2400 X95.890 Y34.924 E1756.64171
G0 F10500 X95.028 Y34.924
G1 F2400 X95.928 Y35.824 E1756.66665
G0 F10500 X102.060 Y35.825
G1 F2400 X102.961 Y34.924 E1756.69162
G0 F10500 X102.099 Y34.924
G1 F2400 X103.000 Y35.824 E1756.71657
G0 F10500 X109.131 Y35.825
G1 F2400 X110.032 Y34.924 E1756.74154
G0 F10500 X109.170 Y34.924
G1 F2400 X110.071 Y35.824 E1756.76649
G0 F10500 X116.202 Y35.825
G1 F2400 X117.103 Y34.924 E1756.79146
G0 F10500 X116.241 Y34.924
G1 F2400 X117.142 Y35.824 E1756.81641
G0 F10500 X123.273 Y35.825
G1 F2400 X124.175 Y34.924 E1756.84139
G0 F10500 X123.313 Y34.924
G1 F2400 X124.213 Y35.824 E1756.86633
G0 F10500 X130.344 Y35.825
G1 F2400 X131.246 Y34.924 E1756.89131
G0 F10500 X130.384 Y34.924
G1 F2400 X132.074 Y36.614 E1756.93814
G0 F10500 X132.074 Y41.167
G1 F2400 X131.173 Y42.067 E1756.96310
G0 F10500 X131.173 Y42.784
G1 F2400 X132.074 Y43.685 E1756.98806
G0 F10500 X132.074 Y48.238
G1 F2400 X131.173 Y49.138 E1757.01302
G0 F10500 X131.173 Y49.855
G1 F2400 X132.074 Y50.756 E1757.03799
G0 F10500 X132.074 Y55.309
G1 F2400 X131.173 Y56.210 E1757.06295
G0 F10500 X131.173 Y56.927
G1 F2400 X132.074 Y57.827 E1757.08791
G0 F10500 X122.824 Y57.487
G1 F2400 X120.486 Y59.826 E1757.15271
G0 F10500 X122.824 Y55.649
G1 F2400 X122.350 Y55.175 E1757.16584
G0 F10500 X118.173 Y58.069
G1 F2400 X119.929 Y59.825 E1757.21450
G0 F10500 X115.137 Y65.174
G1 F2400 X111.674 Y68.637 E1757.31046
G0 F10500 X111.674 Y65.712
G1 F2400 X116.324 Y70.362 E1757.43932
G0 F10500 X116.324 Y71.059
G1 F2400 X112.557 Y74.826 E1757.54370
G0 F10500 X113.716 Y74.826
G1 F2400 X111.674 Y72.783 E1757.60030
G0 F10500 X112.992 Y81.173
G1 F2400 X116.324 Y84.504 E1757.69262
G0 F10500 X116.324 Y85.200
G1 F2400 X111.674 Y89.850 E1757.82147
G0 F10500 X111.674 Y86.926
G1 F2400 X115.573 Y90.825 E1757.92952
G0 F10500 X119.492 Y96.175
G1 F2400 X118.174 Y97.493 E1757.96604
G0 F10500 X111.674 Y82.779
G1 F2400 X113.281 Y81.173 E1758.01056
G0 F10500 X120.923 Y96.175
G1 F2400 X122.824 Y98.075 E1758.06322
G0 F10500 X122.824 Y99.914
G1 F2400 X121.913 Y100.824 E1758.08845
G0 F10500 X131.173 Y99.353
G1 F2400 X132.074 Y100.255 E1758.11343
G0 F10500 X132.074 Y104.806
G1 F2400 X131.173 Y105.707 E1758.13840
G0 F10500 X131.173 Y106.424
G1 F2400 X132.074 Y107.326 E1758.16338
G0 F10500 X132.074 Y111.877
G1 F2400 X131.173 Y112.778 E1758.18835
G0 F10500 X131.173 Y113.495
G1 F2400 X132.074 Y114.397 E1758.21333
G0 F10500 X132.074 Y118.948
G1 F2400 X131.173 Y119.849 E1758.23830
G0 F10500 X130.850 Y120.172
G1 F2400 X129.947 Y121.075 E1758.26332
G0 F10500 X130.780 Y120.173
G1 F2400 X131.680 Y121.074 E1758.28827
G0 F10500 X124.609 Y121.074
G1 F2400 X123.709 Y120.173 E1758.31323
G0 F10500 X123.779 Y120.172
G1 F2400 X122.876 Y121.075 E1758.33825
G0 F10500 X117.538 Y121.074
G1 F2400 X116.637 Y120.173 E1758.36322
G0 F10500 X116.707 Y120.172
G1 F2400 X115.805 Y121.075 E1758.38822
G0 F10500 X110.467 Y121.074
G1 F2400 X109.566 Y120.173 E1758.41319
G0 F10500 X109.636 Y120.172
G1 F2400 X108.734 Y121.075 E1758.43820
G0 F10500 X103.396 Y121.074
G1 F2400 X102.495 Y120.173 E1758.46317
G0 F10500 X102.565 Y120.172
G1 F2400 X101.663 Y121.075 E1758.48818
G0 F10500 X96.325 Y121.074
G1 F2400 X95.424 Y120.173 E1758.51314
G0 F10500 X95.494 Y120.172
G1 F2400 X94.592 Y121.075 E1758.53815
G0 F10500 X89.254 Y121.074
G1 F2400 X88.353 Y120.173 E1758.56312
G0 F10500 X88.423 Y120.172
G1 F2400 X87.521 Y121.075 E1758.58813
G0 F10500 X82.183 Y121.074
G1 F2400 X81.282 Y120.173 E1758.61310
G0 F10500 X81.352 Y120.172
G1 F2400 X80.450 Y121.075 E1758.63810
G0 F10500 X75.111 Y121.073
G1 F2400 X74.211 Y120.173 E1758.66304
G0 F10500 X74.281 Y120.172
G1 F2400 X73.380 Y121.074 E1758.68802
G0 F10500 X68.040 Y121.073
G1 F2400 X67.140 Y120.173 E1758.71296
G0 F10500 X67.210 Y120.172
G1 F2400 X66.308 Y121.074 E1758.73796
G0 F10500 X60.969 Y121.073
G1 F2400 X60.069 Y120.173 E1758.76290
G0 F10500 X60.139 Y120.172
G1 F2400 X59.237 Y121.074 E1758.78789
G0 F10500 X53.898 Y121.073
G1 F2400 X52.998 Y120.173 E1758.81283
G0 F10500 X53.068 Y120.172
G1 F2400 X52.166 Y121.074 E1758.83783
G0 F10500 X46.827 Y121.073
G1 F2400 X45.927 Y120.173 E1758.86277
G0 F10500 X45.997 Y120.172
G1 F2400 X45.095 Y121.074 E1758.88776
G0 F10500 X39.756 Y121.073
G1 F2400 X38.856 Y120.173 E1758.91270
G0 F10500 X38.926 Y120.172
G1 F2400 X38.024 Y121.074 E1758.93770
G0 F10500 X32.685 Y121.073
G1 F2400 X31.785 Y120.173 E1758.96264
G0 F10500 X31.855 Y120.172
G1 F2400 X30.953 Y121.074 E1758.98763
G0 F10500 X28.825 Y117.214
G1 F2400 X27.925 Y116.313 E1759.01258
G0 F10500 X27.925 Y117.031
G1 F2400 X28.825 Y116.130 E1759.03754
G0 F10500 X28.825 Y110.143
G1 F2400 X27.925 Y109.242 E1759.06249
G0 F10500 X27.925 Y109.960
G1 F2400 X28.825 Y109.059 E1759.08744
G0 F10500 X28.825 Y103.072
G1 F2400 X27.925 Y102.171 E1759.11240
G0 F10500 X27.925 Y102.889
G1 F2400 X28.825 Y101.988 E1759.13735
G0 F10500 X28.825 Y96.001
G1 F2400 X27.925 Y95.100 E1759.16231
G0 F10500 X27.925 Y95.818
G1 F2400 X28.825 Y94.917 E1759.18726
G0 F10500 X28.825 Y88.929
G1 F2400 X27.925 Y88.029 E1759.21220
G0 F10500 X27.925 Y88.747
G1 F2400 X28.825 Y87.846 E1759.23715
G0 F10500 X28.825 Y81.858
G1 F2400 X27.925 Y80.958 E1759.26209
G0 F10500 X27.925 Y81.676
G1 F2400 X28.825 Y80.775 E1759.28704
G0 F10500 X28.825 Y74.787
G1 F2400 X27.925 Y73.887 E1759.31198
G0 F10500 X27.925 Y74.605
G1 F2400 X28.825 Y73.704 E1759.33694
G0 F10500 X28.825 Y67.716
G1 F2400 X27.925 Y66.815 E1759.36189
G0 F10500 X27.925 Y67.534
G1 F2400 X28.825 Y66.633 E1759.38684
G0 F10500 X28.825 Y60.645
G1 F2400 X27.925 Y59.744 E1759.41180
G0 F10500 X27.925 Y60.463
G1 F2400 X28.825 Y59.562 E1759.43675
G0 F10500 X28.825 Y53.574
G1 F2400 X27.925 Y52.673 E1759.46170
G0 F10500 X27.925 Y53.392
G1 F2400 X28.825 Y52.491 E1759.48666
G0 F10500 X28.825 Y46.503
G1 F2400 X27.925 Y45.602 E1759.51161
G0 F10500 X27.925 Y46.321
G1 F2400 X28.825 Y45.420 E1759.53656
G0 F10500 X131.632 Y62.821
G1 F2400 X132.074 Y62.380 E1759.54880
G0 F10500 X132.074 Y97.735
G1 F2400 X131.173 Y98.636 E1759.57377
G0 F10500 X118.502 Y100.824
G1 F2400 X118.174 Y100.496 E1759.58285
G0 F10500 X118.824 Y100.086
;TYPE:SKIN
G1 F3000 X53.914 Y35.175 E1761.38156
G0 F10500 X54.621 Y35.175
G1 F3000 X118.824 Y99.378 E1763.16066
G0 F10500 X118.824 Y98.671
G1 F3000 X55.328 Y35.175 E1764.92017
G0 F10500 X56.035 Y35.175
G1 F3000 X118.824 Y97.964 E1766.66009
G0 F10500 X118.824 Y97.257
G1 F3000 X56.742 Y35.175 E1768.38042
G0 F10500 X57.449 Y35.175
G1 F3000 X112.324 Y90.050 E1769.90104
G0 F10500 X112.449 Y90.175
G1 F3000 X119.098 Y96.824 E1770.08528
G0 F10500 X119.805 Y96.824
G1 F3000 X113.156 Y90.175 E1770.26953
G0 F10500 X113.863 Y90.175
G1 F3000 X120.512 Y96.824 E1770.45378
G0 F10500 X121.220 Y96.824
G1 F3000 X114.570 Y90.175 E1770.63804
G0 F10500 X115.277 Y90.175
G1 F3000 X121.927 Y96.824 E1770.82230
G0 F10500 X122.174 Y97.072
G1 F3000 X131.823 Y106.721 E1771.08968
G0 F10500 X131.823 Y107.428
G1 F3000 X122.174 Y97.779 E1771.35706
G0 F10500 X122.174 Y98.486
G1 F3000 X131.823 Y108.135 E1771.62444
G0 F10500 X131.823 Y108.842
G1 F3000 X122.174 Y99.193 E1771.89182
G0 F10500 X122.174 Y99.900
G1 F3000 X131.823 Y109.549 E1772.15920
G0 F10500 X131.823 Y110.257
G1 F3000 X121.741 Y100.175 E1772.43858
G0 F10500 X121.034 Y100.175
G1 F3000 X131.823 Y110.964 E1772.73755
G0 F10500 X131.823 Y111.671
G1 F3000 X120.327 Y100.175 E1773.05611
G0 F10500 X119.620 Y100.175
G1 F3000 X131.823 Y112.378 E1773.39426
G0 F10500 X131.823 Y113.085
G1 F3000 X118.913 Y100.175 E1773.75200
G0 F10500 X115.674 Y89.864
G1 F3000 X131.823 Y106.014 E1774.19951
G0 F10500 X131.823 Y105.307
G1 F3000 X115.674 Y89.157 E1774.64703
G0 F10500 X115.674 Y88.450
G1 F3000 X131.823 Y104.600 E1775.09454
G0 F10500 X131.823 Y103.893
G1 F3000 X115.674 Y87.743 E1775.54205
G0 F10500 X115.674 Y87.036
G1 F3000 X131.823 Y103.185 E1775.98955
G0 F10500 X131.823 Y102.478
G1 F3000 X115.674 Y86.329 E1776.43704
G0 F10500 X115.674 Y85.622
G1 F3000 X131.823 Y101.771 E1776.88454
G0 F10500 X131.823 Y101.064
G1 F3000 X115.674 Y84.915 E1777.33204
G0 F10500 X115.674 Y84.207
G1 F3000 X131.823 Y100.357 E1777.77955
G0 F10500 X131.823 Y113.792
G1 F3000 X53.206 Y35.175 E1779.95807
G0 F10500 X52.499 Y35.175
G1 F3000 X131.823 Y114.499 E1782.15619
G0 F10500 X131.823 Y115.206
G1 F3000 X51.792 Y35.175 E1784.37389
G0 F10500 X51.085 Y35.175
G1 F3000 X131.823 Y115.913 E1786.61119
G0 F10500 X131.823 Y116.621
G1 F3000 X50.378 Y35.175 E1788.86809
G0 F10500 X49.671 Y35.175
G1 F3000 X131.823 Y117.328 E1791.14458
G0 F10500 X131.823 Y118.035
G1 F3000 X48.964 Y35.175 E1793.44066
G0 F10500 X48.257 Y35.175
G1 F3000 X131.823 Y118.742 E1795.75634
G0 F10500 X131.823 Y119.449
G1 F3000 X47.550 Y35.175 E1798.09161
G0 F10500 X46.842 Y35.175
G1 F3000 X131.823 Y120.156 E1800.44648
G0 F10500 X131.783 Y120.823
G1 F3000 X46.135 Y35.175 E1802.81983
G0 F10500 X45.428 Y35.175
G1 F3000 X131.076 Y120.823 E1805.19319
G0 F10500 X130.369 Y120.823
G1 F3000 X44.721 Y35.175 E1807.56654
G0 F10500 X44.014 Y35.175
G1 F3000 X129.662 Y120.823 E1809.93990
G0 F10500 X128.955 Y120.823
G1 F3000 X43.307 Y35.175 E1812.31325
G0 F10500 X42.600 Y35.175
G1 F3000 X128.247 Y120.823 E1814.68659
G0 F10500 X127.540 Y120.823
G1 F3000 X41.893 Y35.175 E1817.05993
G0 F10500 X41.186 Y35.175
G1 F3000 X126.833 Y120.823 E1819.43327
G0 F10500 X126.126 Y120.823
G1 F3000 X40.479 Y35.175 E1821.80661
G0 F10500 X58.156 Y35.175
G1 F3000 X112.324 Y89.343 E1823.30764
G0 F10500 X112.324 Y88.636
G1 F3000 X58.863 Y35.175 E1824.78907
G0 F10500 X59.570 Y35.175
G1 F3000 X112.324 Y87.929 E1826.25092
G0 F10500 X112.324 Y87.222
G1 F3000 X60.278 Y35.175 E1827.69316
G0 F10500 X60.985 Y35.175
G1 F3000 X112.324 Y86.515 E1829.11580
G0 F10500 X112.324 Y85.808
G1 F3000 X61.692 Y35.175 E1830.51886
G0 F10500 X62.399 Y35.175
G1 F3000 X112.324 Y85.101 E1831.90232
G0 F10500 X112.324 Y84.393
G1 F3000 X63.106 Y35.175 E1833.26618
G0 F10500 X63.813 Y35.175
G1 F3000 X112.324 Y83.686 E1834.61045
G0 F10500 X112.324 Y82.979
G1 F3000 X64.520 Y35.175 E1835.93512
G0 F10500 X65.227 Y35.175
G1 F3000 X112.324 Y82.272 E1837.24021
G0 F10500 X112.582 Y81.822
G1 F3000 X65.934 Y35.175 E1838.53284
G0 F10500 X66.641 Y35.175
G1 F3000 X113.289 Y81.822 E1839.82547
G0 F10500 X113.996 Y81.822
G1 F3000 X67.349 Y35.175 E1841.11808
G0 F10500 X68.056 Y35.175
G1 F3000 X114.703 Y81.822 E1842.41069
G0 F10500 X115.410 Y81.822
G1 F3000 X68.763 Y35.175 E1843.70331
G0 F10500 X69.470 Y35.175
G1 F3000 X131.823 Y97.529 E1845.43116
G0 F10500 X131.823 Y98.236
G1 F3000 X115.674 Y82.086 E1845.87867
G0 F10500 X115.674 Y82.793
G1 F3000 X131.823 Y98.943 E1846.32618
G0 F10500 X131.823 Y99.650
G1 F3000 X115.674 Y83.500 E1846.77370
G0 F10500 X115.541 Y74.176
G1 F3000 X132.074 Y90.708 E1847.23182
G0 F10500 X132.074 Y91.415
G1 F3000 X114.834 Y74.176 E1847.70954
G0 F10500 X114.127 Y74.176
G1 F3000 X132.074 Y92.122 E1848.20684
G0 F10500 X132.074 Y92.829
G1 F3000 X113.420 Y74.176 E1848.72374
G0 F10500 X112.713 Y74.176
G1 F3000 X132.074 Y93.536 E1849.26023
G0 F10500 X131.823 Y93.993
G1 F3000 X73.005 Y35.175 E1850.89011
G0 F10500 X72.298 Y35.175
G1 F3000 X131.823 Y94.700 E1852.53959
G0 F10500 X131.823 Y95.407
G1 F3000 X71.591 Y35.175 E1854.20865
G0 F10500 X70.884 Y35.175
G1 F3000 X131.823 Y96.114 E1855.89730
G0 F10500 X131.823 Y96.822
G1 F3000 X70.177 Y35.175 E1857.60556
G0 F10500 X73.713 Y35.175
G1 F3000 X112.324 Y73.787 E1858.67551
G0 F10500 X112.324 Y73.080
G1 F3000 X74.420 Y35.175 E1859.72586
G0 F10500 X75.127 Y35.175
G1 F3000 X112.324 Y72.373 E1860.75663
G0 F10500 X112.324 Y71.665
G1 F3000 X75.834 Y35.175 E1861.76779
G0 F10500 X76.541 Y35.175
G1 F3000 X112.324 Y70.958 E1862.75935
G0 F10500 X112.324 Y70.251
G1 F3000 X77.248 Y35.175 E1863.73133
G0 F10500 X77.955 Y35.175
G1 F3000 X112.324 Y69.544 E1864.68371
G0 F10500 X112.324 Y68.837
G1 F3000 X78.662 Y35.175 E1865.61651
G0 F10500 X79.369 Y35.175
G1 F3000 X112.324 Y68.130 E1866.52971
G0 F10500 X112.324 Y67.423
G1 F3000 X80.077 Y35.175 E1867.42331
G0 F10500 X80.784 Y35.175
G1 F3000 X112.324 Y66.716 E1868.29731
G0 F10500 X112.324 Y66.009
G1 F3000 X81.491 Y35.175 E1869.15172
G0 F10500 X82.198 Y35.175
G1 F3000 X112.847 Y65.824 E1870.00103
G0 F10500 X113.554 Y65.824
G1 F3000 X82.905 Y35.175 E1870.85033
G0 F10500 X83.612 Y35.175
G1 F3000 X114.261 Y65.824 E1871.69963
G0 F10500 X114.968 Y65.824
G1 F3000 X84.319 Y35.175 E1872.54893
G0 F10500 X85.026 Y35.175
G1 F3000 X132.074 Y82.223 E1873.85266
G0 F10500 X132.074 Y82.930
G1 F3000 X115.674 Y66.530 E1874.30711
G0 F10500 X115.674 Y67.237
G1 F3000 X132.074 Y83.637 E1874.76156
G0 F10500 X132.074 Y84.344
G1 F3000 X115.674 Y67.944 E1875.21602
G0 F10500 X115.674 Y68.651
G1 F3000 X132.074 Y85.051 E1875.67047
G0 F10500 X132.074 Y85.758
G1 F3000 X115.674 Y69.358 E1876.12492
G0 F10500 X115.674 Y70.065
G1 F3000 X132.074 Y86.465 E1876.57938
G0 F10500 X132.074 Y87.172
G1 F3000 X115.674 Y70.772 E1877.03383
G0 F10500 X115.674 Y71.480
G1 F3000 X132.074 Y87.879 E1877.48827
G0 F10500 X132.074 Y88.587
G1 F3000 X115.674 Y72.187 E1877.94272
G0 F10500 X115.674 Y72.894
G1 F3000 X132.074 Y89.294 E1878.39717
G0 F10500 X132.074 Y90.001
G1 F3000 X115.674 Y73.601 E1878.85163
G0 F10500 X118.926 Y59.175
G1 F3000 X132.074 Y72.323 E1879.21597
G0 F10500 X132.074 Y73.030
G1 F3000 X94.219 Y35.175 E1880.26495
G0 F10500 X93.512 Y35.175
G1 F3000 X132.074 Y73.737 E1881.33352
G0 F10500 X132.074 Y74.444
G1 F3000 X92.804 Y35.175 E1882.42171
G0 F10500 X92.097 Y35.175
G1 F3000 X132.074 Y75.152 E1883.52949
G0 F10500 X132.074 Y75.859
G1 F3000 X91.390 Y35.175 E1884.65687
G0 F10500 X90.683 Y35.175
G1 F3000 X132.074 Y76.566 E1885.80384
G0 F10500 X132.074 Y77.273
G1 F3000 X89.976 Y35.175 E1886.97039
G0 F10500 X89.269 Y35.175
G1 F3000 X132.074 Y77.980 E1888.15655
G0 F10500 X132.074 Y78.687
G1 F3000 X88.562 Y35.175 E1889.36229
G0 F10500 X87.855 Y35.175
G1 F3000 X132.074 Y79.394 E1890.58762
G0 F10500 X132.074 Y71.616
G1 F3000 X119.633 Y59.175 E1890.93237
G0 F10500 X118.824 Y59.073
G1 F3000 X94.926 Y35.175 E1891.59460
G0 F10500 X95.633 Y35.175
G1 F3000 X118.824 Y58.366 E1892.23723
G0 F10500 X118.824 Y57.659
G1 F3000 X96.340 Y35.175 E1892.86028
G0 F10500 X97.047 Y35.175
G1 F3000 X118.824 Y56.952 E1893.46373
G0 F10500 X118.824 Y56.245
G1 F3000 X97.754 Y35.175 E1894.04759
G0 F10500 X98.461 Y35.175
G1 F3000 X119.111 Y55.825 E1894.61981
G0 F10500 X119.818 Y55.825
G1 F3000 X99.168 Y35.175 E1895.19204
G0 F10500 X99.876 Y35.175
G1 F3000 X120.525 Y55.825 E1895.76425
G0 F10500 X121.232 Y55.825
G1 F3000 X100.583 Y35.175 E1896.33646
G0 F10500 X101.290 Y35.175
G1 F3000 X121.939 Y55.825 E1896.90866
G0 F10500 X122.174 Y56.060
G1 F3000 X132.074 Y65.959 E1897.18299
G0 F10500 X132.074 Y66.666
G1 F3000 X122.174 Y56.767 E1897.45731
G0 F10500 X122.174 Y57.474
G1 F3000 X132.074 Y67.373 E1897.73163
G0 F10500 X132.074 Y68.080
G1 F3000 X122.174 Y58.181 E1898.00595
G0 F10500 X122.174 Y58.888
G1 F3000 X132.074 Y68.788 E1898.28028
G0 F10500 X132.074 Y69.495
G1 F3000 X121.754 Y59.175 E1898.56626
G0 F10500 X121.047 Y59.175
G1 F3000 X132.074 Y70.202 E1898.87182
G0 F10500 X132.074 Y70.909
G1 F3000 X120.340 Y59.175 E1899.19698
G0 F10500 X131.823 Y59.344
G1 F3000 X107.654 Y35.175 E1899.86671
G0 F10500 X106.947 Y35.175
G1 F3000 X131.823 Y60.051 E1900.55604
G0 F10500 X131.823 Y60.758
G1 F3000 X106.239 Y35.175 E1901.26497
G0 F10500 X105.532 Y35.175
G1 F3000 X131.823 Y61.465 E1901.99350
G0 F10500 X132.074 Y62.424
G1 F3000 X104.825 Y35.175 E1902.74858
G0 F10500 X104.118 Y35.175
G1 F3000 X132.074 Y63.131 E1903.52326
G0 F10500 X132.074 Y63.838
G1 F3000 X103.411 Y35.175 E1904.31753
G0 F10500 X102.704 Y35.175
G1 F3000 X132.074 Y64.545 E1905.13139
G0 F10500 X132.074 Y65.252
G1 F3000 X101.997 Y35.175 E1905.96484
G0 F10500 X108.361 Y35.175
G1 F3000 X131.823 Y58.637 E1906.61498
G0 F10500 X131.823 Y57.930
G1 F3000 X109.068 Y35.175 E1907.24554
G0 F10500 X109.775 Y35.175
G1 F3000 X131.823 Y57.223 E1907.85650
G0 F10500 X131.823 Y56.516
G1 F3000 X110.482 Y35.175 E1908.44787
G0 F10500 X111.189 Y35.175
G1 F3000 X131.823 Y55.809 E1909.01965
G0 F10500 X131.823 Y55.102
G1 F3000 X111.896 Y35.175 E1909.57184
G0 F10500 X112.603 Y35.175
G1 F3000 X131.823 Y54.394 E1910.10442
G0 F10500 X131.823 Y53.687
G1 F3000 X113.311 Y35.175 E1910.61740
G0 F10500 X114.018 Y35.175
G1 F3000 X131.823 Y52.980 E1911.11079
G0 F10500 X131.823 Y52.273
G1 F3000 X114.725 Y35.175 E1911.58458
G0 F10500 X115.432 Y35.175
G1 F3000 X131.823 Y51.566 E1912.03879
G0 F10500 X131.823 Y50.859
G1 F3000 X116.139 Y35.175 E1912.47340
G0 F10500 X116.846 Y35.175
G1 F3000 X131.823 Y50.152 E1912.88842
G0 F10500 X131.823 Y49.445
G1 F3000 X117.553 Y35.175 E1913.28385
G0 F10500 X118.260 Y35.175
G1 F3000 X131.823 Y48.738 E1913.65969
G0 F10500 X131.823 Y48.030
G1 F3000 X118.967 Y35.175 E1914.01592
G0 F10500 X119.674 Y35.175
G1 F3000 X131.823 Y47.323 E1914.35256
G0 F10500 X131.823 Y46.616
G1 F3000 X120.382 Y35.175 E1914.66960
G0 F10500 X121.089 Y35.175
G1 F3000 X131.823 Y45.909 E1914.96705
G0 F10500 X131.823 Y45.202
G1 F3000 X121.796 Y35.175 E1915.24490
G0 F10500 X122.503 Y35.175
G1 F3000 X131.823 Y44.495 E1915.50316
G0 F10500 X131.823 Y43.788
G1 F3000 X123.210 Y35.175 E1915.74183
G0 F10500 X123.917 Y35.175
G1 F3000 X131.823 Y43.081 E1915.96091
G0 F10500 X131.823 Y42.374
G1 F3000 X124.624 Y35.175 E1916.16040
G0 F10500 X125.331 Y35.175
G1 F3000 X131.823 Y41.666 E1916.34028
G0 F10500 X131.823 Y40.959
G1 F3000 X126.038 Y35.175 E1916.50058
G0 F10500 X126.746 Y35.175
G1 F3000 X131.823 Y40.252 E1916.64126
G0 F10500 X131.823 Y39.545
G1 F3000 X127.453 Y35.175 E1916.76236
G0 F10500 X128.160 Y35.175
G1 F3000 X131.823 Y38.838 E1916.86386
G0 F10500 X131.823 Y38.131
G1 F3000 X128.867 Y35.175 E1916.94577
G0 F10500 X129.574 Y35.175
G1 F3000 X131.823 Y37.424 E1917.00809
G0 F10500 X131.823 Y36.717
G1 F3000 X130.281 Y35.175 E1917.05082
G0 F10500 X130.988 Y35.175
G1 F3000 X131.823 Y36.010 E1917.07396
G0 F10500 X131.823 Y35.303
G1 F3000 X131.695 Y35.175 E1917.07751
G0 F10500 X87.148 Y35.175
G1 F3000 X132.074 Y80.101 E1918.32243
G0 F10500 X132.074 Y80.808
G1 F3000 X86.440 Y35.175 E1919.58696
G0 F10500 X85.733 Y35.175
G1 F3000 X132.074 Y81.515 E1920.87109
G0 F10500 X125.419 Y120.823
G1 F3000 X39.771 Y35.175 E1923.24444
G0 F10500 X39.064 Y35.175
G1 F3000 X124.712 Y120.823 E1925.61780
G0 F10500 X124.005 Y120.823
G1 F3000 X38.357 Y35.175 E1927.99115
G0 F10500 X37.650 Y35.175
G1 F3000 X123.298 Y120.823 E1930.36450
G0 F10500 X122.591 Y120.823
G1 F3000 X36.943 Y35.175 E1932.73786
G0 F10500 X36.236 Y35.175
G1 F3000 X121.883 Y120.823 E1935.11120
G0 F10500 X121.176 Y120.823
G1 F3000 X35.529 Y35.175 E1937.48454
G0 F10500 X34.822 Y35.175
G1 F3000 X120.469 Y120.823 E1939.85788
G0 F10500 X119.762 Y120.823
G1 F3000 X34.115 Y35.175 E1942.23122
G0 F10500 X33.407 Y35.175
G1 F3000 X119.055 Y120.823 E1944.60458
G0 F10500 X118.348 Y120.823
G1 F3000 X32.700 Y35.175 E1946.97793
G0 F10500 X31.993 Y35.175
G1 F3000 X117.641 Y120.823 E1949.35129
G0 F10500 X116.934 Y120.823
G1 F3000 X31.286 Y35.175 E1951.72464
G0 F10500 X30.579 Y35.175
G1 F3000 X116.227 Y120.823 E1954.09800
G0 F10500 X115.520 Y120.823
G1 F3000 X29.872 Y35.175 E1956.47135
G0 F10500 X29.165 Y35.175
G1 F3000 X114.812 Y120.823 E1958.84469
G0 F10500 X114.105 Y120.823
G1 F3000 X28.458 Y35.175 E1961.21803
G0 F10500 X28.175 Y35.599
G1 F3000 X113.398 Y120.823 E1963.57962
G0 F10500 X112.691 Y120.823
G1 F3000 X28.175 Y36.307 E1965.92161
G0 F10500 X28.175 Y37.014
G1 F3000 X111.984 Y120.823 E1968.24400
G0 F10500 X111.277 Y120.823
G1 F3000 X28.175 Y37.721 E1970.54681
G0 F10500 X28.175 Y38.428
G1 F3000 X110.570 Y120.823 E1972.83002
G0 F10500 X109.863 Y120.823
G1 F3000 X28.175 Y39.135 E1975.09364
G0 F10500 X28.175 Y39.842
G1 F3000 X109.156 Y120.823 E1977.33767
G0 F10500 X108.448 Y120.823
G1 F3000 X28.175 Y40.549 E1979.56209
G0 F10500 X28.175 Y41.256
G1 F3000 X107.741 Y120.823 E1981.76693
G0 F10500 X107.034 Y120.823
G1 F3000 X28.175 Y41.963 E1983.95217
G0 F10500 X28.175 Y42.671
G1 F3000 X106.327 Y120.823 E1986.11781
G0 F10500 X105.620 Y120.823
G1 F3000 X28.175 Y43.378 E1988.26385
G0 F10500 X28.175 Y44.085
G1 F3000 X104.913 Y120.823 E1990.39030
G0 F10500 X104.206 Y120.823
G1 F3000 X28.175 Y44.792 E1992.49717
G0 F10500 X28.175 Y45.499
G1 F3000 X103.499 Y120.823 E1994.58444
G0 F10500 X102.792 Y120.823
G1 F3000 X28.175 Y46.206 E1996.65212
G0 F10500 X28.175 Y46.913
G1 F3000 X102.085 Y120.823 E1998.70020
G0 F10500 X101.377 Y120.823
G1 F3000 X28.175 Y47.620 E2000.72869
G0 F10500 X28.175 Y48.327
G1 F3000 X100.670 Y120.823 E2002.73758
G0 F10500 X99.963 Y120.823
G1 F3000 X28.175 Y49.035 E2004.72686
G0 F10500 X28.175 Y49.742
G1 F3000 X99.256 Y120.823 E2006.69656
G0 F10500 X98.549 Y120.823
G1 F3000 X28.175 Y50.449 E2008.64666
G0 F10500 X28.175 Y51.156
G1 F3000 X97.842 Y120.823 E2010.57717
G0 F10500 X97.135 Y120.823
G1 F3000 X28.175 Y51.863 E2012.48810
G0 F10500 X28.175 Y52.570
G1 F3000 X96.428 Y120.823 E2014.37942
G0 F10500 X95.721 Y120.823
G1 F3000 X28.175 Y53.277 E2016.25116
G0 F10500 X28.175 Y53.984
G1 F3000 X95.013 Y120.823 E2018.10329
G0 F10500 X94.306 Y120.823
G1 F3000 X28.175 Y54.691 E2019.93584
G0 F10500 X28.175 Y55.398
G1 F3000 X93.599 Y120.823 E2021.74879
G0 F10500 X92.892 Y120.823
G1 F3000 X28.175 Y56.106 E2023.54213
G0 F10500 X28.175 Y56.813
G1 F3000 X92.185 Y120.823 E2025.31588
G0 F10500 X91.478 Y120.823
G1 F3000 X28.175 Y57.520 E2027.07005
G0 F10500 X28.175 Y58.227
G1 F3000 X90.771 Y120.823 E2028.80462
G0 F10500 X90.064 Y120.823
G1 F3000 X28.175 Y58.934 E2030.51960
G0 F10500 X28.175 Y59.641
G1 F3000 X89.357 Y120.823 E2032.21498
G0 F10500 X88.649 Y120.823
G1 F3000 X28.175 Y60.348 E2033.89077
G0 F10500 X28.175 Y61.055
G1 F3000 X87.942 Y120.823 E2035.54696
G0 F10500 X87.235 Y120.823
G1 F3000 X28.175 Y61.762 E2037.18356
G0 F10500 X28.175 Y62.470
G1 F3000 X86.528 Y120.823 E2038.80055
G0 F10500 X85.821 Y120.823
G1 F3000 X28.175 Y63.177 E2040.39796
G0 F10500 X28.175 Y63.884
G1 F3000 X85.114 Y120.823 E2041.97577
G0 F10500 X84.407 Y120.823
G1 F3000 X28.175 Y64.591 E2043.53399
G0 F10500 X28.175 Y65.298
G1 F3000 X83.700 Y120.823 E2045.07262
G0 F10500 X82.993 Y120.823
G1 F3000 X28.175 Y66.005 E2046.59166
G0 F10500 X28.175 Y66.712
G1 F3000 X82.286 Y120.823 E2048.09110
G0 F10500 X81.578 Y120.823
G1 F3000 X28.175 Y67.419 E2049.57094
G0 F10500 X28.175 Y68.126
G1 F3000 X80.871 Y120.823 E2051.03119
G0 F10500 X80.164 Y120.823
G1 F3000 X28.175 Y68.834 E2052.47184
G0 F10500 X28.175 Y69.541
G1 F3000 X79.457 Y120.823 E2053.89289
G0 F10500 X78.750 Y120.823
G1 F3000 X28.175 Y70.248 E2055.29435
G0 F10500 X28.175 Y70.955
G1 F3000 X78.043 Y120.823 E2056.67622
G0 F10500 X77.336 Y120.823
G1 F3000 X28.175 Y71.662 E2058.03850
G0 F10500 X28.175 Y72.369
G1 F3000 X76.629 Y120.823 E2059.38119
G0 F10500 X75.922 Y120.823
G1 F3000 X28.175 Y73.076 E2060.70429
G0 F10500 X28.175 Y73.783
G1 F3000 X75.214 Y120.823 E2062.00778
G0 F10500 X74.507 Y120.823
G1 F3000 X28.175 Y74.490 E2063.29168
G0 F10500 X28.175 Y75.197
G1 F3000 X73.800 Y120.823 E2064.55599
G0 F10500 X73.093 Y120.823
G1 F3000 X28.175 Y75.905 E2065.80069
G0 F10500 X28.175 Y76.612
G1 F3000 X72.386 Y120.823 E2067.02580
G0 F10500 X71.679 Y120.823
G1 F3000 X28.175 Y77.319 E2068.23132
G0 F10500 X28.175 Y78.026
G1 F3000 X70.972 Y120.823 E2069.41725
G0 F10500 X70.265 Y120.823
G1 F3000 X28.175 Y78.733 E2070.58359
G0 F10500 X28.175 Y79.440
G1 F3000 X69.558 Y120.823 E2071.73034
G0 F10500 X68.850 Y120.823
G1 F3000 X28.175 Y80.147 E2072.85748
G0 F10500 X28.175 Y80.854
G1 F3000 X68.143 Y120.823 E2073.96503
G0 F10500 X67.436 Y120.823
G1 F3000 X28.175 Y81.561 E2075.05299
G0 F10500 X28.175 Y82.269
G1 F3000 X66.729 Y120.823 E2076.12134
G0 F10500 X66.022 Y120.823
G1 F3000 X28.175 Y82.976 E2077.17010
G0 F10500 X28.175 Y83.683
G1 F3000 X65.315 Y120.823 E2078.19927
G0 F10500 X64.608 Y120.823
G1 F3000 X28.175 Y84.390 E2079.20885
G0 F10500 X28.175 Y85.097
G1 F3000 X63.901 Y120.823 E2080.19884
G0 F10500 X63.194 Y120.823
G1 F3000 X28.175 Y85.804 E2081.16923
G0 F10500 X28.175 Y86.511
G1 F3000 X62.487 Y120.823 E2082.12004
G0 F10500 X61.779 Y120.823
G1 F3000 X28.175 Y87.218 E2083.05124
G0 F10500 X28.175 Y87.925
G1 F3000 X61.072 Y120.823 E2083.96285
G0 F10500 X60.365 Y120.823
G1 F3000 X28.175 Y88.633 E2084.85485
G0 F10500 X28.175 Y89.340
G1 F3000 X59.658 Y120.823 E2085.72726
G0 F10500 X58.951 Y120.823
G1 F3000 X28.175 Y90.047 E2086.58008
G0 F10500 X28.175 Y90.754
G1 F3000 X58.244 Y120.823 E2087.41331
G0 F10500 X57.537 Y120.823
G1 F3000 X28.175 Y91.461 E2088.22695
G0 F10500 X28.175 Y92.168
G1 F3000 X56.830 Y120.823 E2089.02100
G0 F10500 X56.123 Y120.823
G1 F3000 X28.175 Y92.875 E2089.79545
G0 F10500 X28.175 Y93.582
G1 F3000 X55.415 Y120.823 E2090.55030
G0 F10500 X54.708 Y120.823
G1 F3000 X28.175 Y94.289 E2091.28556
G0 F10500 X28.175 Y94.996
G1 F3000 X54.001 Y120.823 E2092.00122
G0 F10500 X53.294 Y120.823
G1 F3000 X28.175 Y95.704 E2092.69729
G0 F10500 X28.175 Y96.411
G1 F3000 X52.587 Y120.823 E2093.37376
G0 F10500 X51.880 Y120.823
G1 F3000 X28.175 Y97.118 E2094.03064
G0 F10500 X28.175 Y97.825
G1 F3000 X51.173 Y120.823 E2094.66792
G0 F10500 X50.466 Y120.823
G1 F3000 X28.175 Y98.532 E2095.28562
G0 F10500 X28.175 Y99.239
G1 F3000 X49.759 Y120.823 E2095.88372
G0 F10500 X49.051 Y120.823
G1 F3000 X28.175 Y99.946 E2096.46222
G0 F10500 X28.175 Y100.653
G1 F3000 X48.344 Y120.823 E2097.02113
G0 F10500 X47.637 Y120.823
G1 F3000 X28.175 Y101.360 E2097.56045
G0 F10500 X28.175 Y102.068
G1 F3000 X46.930 Y120.823 E2098.08016
G0 F10500 X46.223 Y120.823
G1 F3000 X28.175 Y102.775 E2098.58028
G0 F10500 X28.175 Y103.482
G1 F3000 X45.516 Y120.823 E2099.06081
G0 F10500 X44.809 Y120.823
G1 F3000 X28.175 Y104.189 E2099.52175
G0 F10500 X28.175 Y104.896
G1 F3000 X44.102 Y120.823 E2099.96309
G0 F10500 X43.395 Y120.823
G1 F3000 X28.175 Y105.603 E2100.38485
G0 F10500 X28.175 Y106.310
G1 F3000 X42.688 Y120.823 E2100.78701
G0 F10500 X41.980 Y120.823
G1 F3000 X28.175 Y107.017 E2101.16957
G0 F10500 X28.175 Y107.724
G1 F3000 X41.273 Y120.823 E2101.53254
G0 F10500 X40.566 Y120.823
G1 F3000 X28.175 Y108.431 E2101.87591
G0 F10500 X28.175 Y109.139
G1 F3000 X39.859 Y120.823 E2102.19968
G0 F10500 X39.152 Y120.823
G1 F3000 X28.175 Y109.846 E2102.50386
G0 F10500 X28.175 Y110.553
G1 F3000 X38.445 Y120.823 E2102.78845
G0 F10500 X37.738 Y120.823
G1 F3000 X28.175 Y111.260 E2103.05345
G0 F10500 X28.175 Y111.967
G1 F3000 X37.031 Y120.823 E2103.29885
G0 F10500 X36.324 Y120.823
G1 F3000 X28.175 Y112.674 E2103.52466
G0 F10500 X28.175 Y113.381
G1 F3000 X35.616 Y120.823 E2103.73087
G0 F10500 X34.909 Y120.823
G1 F3000 X28.175 Y114.088 E2103.91749
G0 F10500 X28.175 Y114.795
G1 F3000 X34.202 Y120.823 E2104.08451
G0 F10500 X33.495 Y120.823
G1 F3000 X28.175 Y115.503 E2104.23193
G0 F10500 X28.175 Y116.210
G1 F3000 X32.788 Y120.823 E2104.35976
G0 F10500 X32.081 Y120.823
G1 F3000 X28.175 Y116.917 E2104.46800
G0 F10500 X28.175 Y117.624
G1 F3000 X31.374 Y120.823 E2104.55665
G0 F10500 X30.667 Y120.823
G1 F3000 X28.175 Y118.331 E2104.62570
G0 F10500 X28.175 Y119.038
G1 F3000 X29.960 Y120.823 E2104.67517
G0 F10500 X29.253 Y120.823
G1 F3000 X28.175 Y119.745 E2104.70504
G0 F10500 X28.175 Y120.452
G1 F3000 X28.545 Y120.823 E2104.71530
;LAYER:5
G0 F10500 X28.251 Y120.749 Z1.675
;TYPE:WALL-INNER
G1 F2100 X131.749 Y120.749 E2106.74328
G1 X131.749 Y93.753 E2107.27225
G1 X132.250 Y93.753 E2107.28206
G1 X132.250 Y121.250 E2107.82085
G1 X27.750 Y121.250 E2109.86846
G1 X27.750 Y34.750 E2111.56337
G1 X132.250 Y34.750 E2113.61097
G1 X132.250 Y62.247 E2114.14976
G1 X131.749 Y62.247 E2114.15958
G1 X131.749 Y35.251 E2114.68854
G1 X28.251 Y35.251 E2116.71652
G1 X28.251 Y120.749 E2118.39179
G0 F10500 X28.751 Y120.249
;TYPE:WALL-OUTER
G1 F1800 X131.249 Y120.249 E2120.40017
G1 X131.249 Y93.253 E2120.92914
G1 X132.750 Y93.253 E2120.95855
G1 X132.750 Y121.750 E2121.51693
G1 X27.250 Y121.750 E2123.58413
G1 X27.250 Y34.250 E2125.29864
G1 X132.750 Y34.250 E2127.36584
G1 X132.750 Y62.747 E2127.92422
G1 X131.249 Y62.747 E2127.95363
G1 X131.249 Y35.751 E2128.48260
G1 X28.751 Y35.751 E2130.49098
G1 X28.751 Y120.249 E2132.14666
G0 F10500 X28.401 Y120.249
G0 X28.360 Y120.640
G0 X30.953 Y121.074
;TYPE:FILL
G1 F2400 X31.104 Y120.923 E2132.15084
G0 F10500 X32.535 Y120.923
G1 F2400 X32.685 Y121.073 E2132.15500
G0 F10500 X38.024 Y121.074
G1 F2400 X38.175 Y120.923 E2132.15919
G0 F10500 X39.606 Y120.923
G1 F2400 X39.756 Y121.073 E2132.16334
G0 F10500 X45.095 Y121.074
G1 F2400 X45.247 Y120.923 E2132.16754
G0 F10500 X46.677 Y120.923
G1 F2400 X46.827 Y121.073 E2132.17170
G0 F10500 X52.166 Y121.074
G1 F2400 X52.318 Y120.923 E2132.17590
G0 F10500 X53.748 Y120.923
G1 F2400 X53.898 Y121.073 E2132.18005
G0 F10500 X59.237 Y121.074
G1 F2400 X59.389 Y120.923 E2132.18425
G0 F10500 X60.819 Y120.923
G1 F2400 X60.969 Y121.073 E2132.18841
G0 F10500 X66.308 Y121.074
G1 F2400 X66.460 Y120.923 E2132.19260
G0 F10500 X67.890 Y120.923
G1 F2400 X68.040 Y121.073 E2132.19676
G0 F10500 X73.380 Y121.074
G1 F2400 X73.531 Y120.923 E2132.20095
G0 F10500 X74.961 Y120.923
G1 F2400 X75.111 Y121.073 E2132.20510
G0 F10500 X80.450 Y121.075
G1 F2400 X80.602 Y120.923 E2132.20931
G0 F10500 X82.032 Y120.923
G1 F2400 X82.183 Y121.074 E2132.21350
G0 F10500 X87.521 Y121.075
