;This Gcode has been generated specifically for the LulzBot Mini
;Basic settings: Layer height: 0.25 Walls: 1 Fill: 20
;Filament Diameter: 2.85
;Nozzle Size: 0.5
G26                          ; clear potential 'probe fail' condition
G21                          ; metric values
G90                          ; absolute positioning
M82                          ; set extruder to absolute mode
M107                         ; start with the fan off
G92 E0                       ; set extruder position to 0
M140 S60; get bed heating up
G28                          ; home all
M109 R140                    ; set to cleaning temp and wait
G1 Z150 E-30 F75             ; suck up XXmm of filament
M109 R140                    ; heat up rest of way
G1 X45 Y174 F11520           ; move behind scraper
G1 Z0  F1200                 ; CRITICAL: set Z to height of top of scraper
G1 X45 Y174 Z-.5 F4000       ; wiping ; plunge into wipe pad
G1 X55 Y172 Z-.5 F4000       ; wiping
G1 X45 Y174 Z0 F4000         ; wiping
G1 X55 Y172 F4000            ; wiping
G1 X45 Y174 F4000            ; wiping
G1 X55 Y172 F4000            ; wiping
G1 X45 Y174 F4000            ; wiping
G1 X55 Y172 F4000            ; wiping
G1 X60 Y174 F4000            ; wiping
G1 X80 Y172 F4000            ; wiping
G1 X60 Y174 F4000            ; wiping
G1 X80 Y172 F4000            ; wiping
G1 X60 Y174 F4000            ; wiping
G1 X90 Y172 F4000            ; wiping
G1 X80 Y174 F4000            ; wiping
G1 X100 Y172 F4000           ; wiping
G1 X80 Y174 F4000            ; wiping
G1 X100 Y172 F4000           ; wiping
G1 X80 Y174 F4000            ; wiping
G1 X100 Y172 F4000           ; wiping
G1 X110 Y174 F4000           ; wiping
G1 X100 Y172 F4000           ; wiping
G1 X110 Y174 F4000           ; wiping
G1 X100 Y172 F4000           ; wiping
G1 X110 Y174 F4000           ; wiping
G1 X115 Y172 Z-0.5 F1000     ; wipe slower and bury noz in cleanish area
G1 Z10                       ; raise z
G28 X0 Y0                    ; home x and y
M109 R140                    ; set to probing temp
M204 S300                    ; Set probing acceleration
G29                          ; Probe
M204 S2000                   ; Restore standard acceleration
G1 X5 Y15 Z10 F5000          ; get out the way
G4 S1                        ; pause
M400                         ; clear buffer
M109 R205    ; set extruder temp and wait
G4 S15                       ; wait for bed to temp up
G1 Z2 E0 F75                 ; extrude filament back into nozzle
M140 S60; get bed temping up during first layer

;Layer count: 123
;LAYER:0
M107
G0 F10500 X23.020 Y30.197 Z0.425
;TYPE:SKIRT
G1 F900 X135.643 Y30.197 E4.68939
G1 X135.643 Y54.711 E5.71010
G1 X132.611 Y54.711 E5.83635
G1 X132.611 Y58.033 E5.97467
G1 X135.643 Y58.033 E6.10092
G1 X135.643 Y94.471 E7.61812
G1 X132.611 Y94.471 E7.74437
G1 X132.611 Y97.793 E7.88269
G1 X135.643 Y97.793 E8.00893
G1 X135.643 Y119.822 E8.92618
G1 X23.020 Y119.822 E13.61557
G1 X23.020 Y97.793 E14.53281
G1 X26.052 Y97.793 E14.65906
G1 X26.052 Y94.471 E14.79738
G1 X23.020 Y94.471 E14.92362
G1 X23.020 Y58.033 E16.44083
G1 X26.052 Y58.033 E16.56707
G1 X26.052 Y54.711 E16.70540
G1 X23.020 Y54.711 E16.83164
G1 X23.020 Y30.197 E17.85235
G1 F600 E16.10235
G1 Z0.525
G0 F10500 X27.269 Y34.446
;TYPE:WALL-INNER
G1 Z0.425
G1 F600 E17.85235
G1 F900 X131.394 Y34.446 E22.18791
G1 X131.394 Y50.462 E22.85478
G1 X128.362 Y50.462 E22.98103
G1 X128.362 Y62.282 E23.47319
G1 X131.394 Y62.282 E23.59943
G1 X131.394 Y90.222 E24.76280
G1 X128.362 Y90.222 E24.88904
G1 X128.362 Y102.042 E25.38120
G1 X131.394 Y102.042 E25.50745
G1 X131.394 Y115.573 E26.07085
G1 X27.269 Y115.573 E30.40640
G1 X27.269 Y102.042 E30.96981
G1 X30.301 Y102.042 E31.09605
G1 X30.301 Y90.222 E31.58821
G1 X27.269 Y90.222 E31.71446
G1 X27.269 Y62.282 E32.87783
G1 X30.301 Y62.282 E33.00407
G1 X30.301 Y50.462 E33.49623
G1 X27.269 Y50.462 E33.62248
G1 X27.269 Y34.446 E34.28935
G0 F10500 X56.283 Y72.852
G1 F900 X55.424 Y73.711 E34.33993
G1 X55.109 Y74.885 E34.39055
G1 X55.424 Y76.059 E34.44116
G1 X56.283 Y76.918 E34.49174
G1 X57.457 Y77.233 E34.54235
G1 X58.631 Y76.918 E34.59296
G1 X59.490 Y76.059 E34.64355
G1 X59.805 Y74.885 E34.69416
G1 X59.490 Y73.711 E34.74477
G1 X58.631 Y72.852 E34.79535
G1 X57.457 Y72.537 E34.84596
G1 X56.283 Y72.852 E34.89658
G0 F10500 X77.174 Y54.309
G1 F900 X78.033 Y55.168 E34.94716
G1 X79.207 Y55.483 E34.99777
G1 X80.382 Y55.168 E35.04842
G1 X80.961 Y54.588 E35.08255
G1 X81.239 Y54.309 E35.09895
G1 X81.554 Y53.135 E35.14956
G1 X81.239 Y51.961 E35.20017
G1 X80.660 Y51.381 E35.23429
G1 X80.381 Y51.102 E35.25072
G1 X79.207 Y50.787 E35.30133
G1 X78.033 Y51.102 E35.35195
G1 X77.174 Y51.961 E35.40253
G1 X76.859 Y53.135 E35.45314
G1 X77.174 Y54.309 E35.50375
G0 F10500 X79.207 Y94.536
G1 F900 X78.033 Y94.851 E35.55436
G1 X77.174 Y95.710 E35.60495
G1 X76.859 Y96.884 E35.65556
G1 X77.174 Y98.058 E35.70617
G1 X78.033 Y98.917 E35.75675
G1 X79.207 Y99.232 E35.80737
G1 X80.382 Y98.917 E35.85802
G1 X80.961 Y98.337 E35.89214
G1 X81.239 Y98.058 E35.90854
G1 X81.554 Y96.884 E35.95915
G1 X81.239 Y95.710 E36.00976
G1 X80.660 Y95.130 E36.04389
G1 X80.381 Y94.851 E36.06032
G1 X79.207 Y94.536 E36.11093
G0 F10500 X79.207 Y95.183
;TYPE:WALL-OUTER
G1 F900 X78.356 Y95.411 E36.14761
G1 X77.734 Y96.033 E36.18424
G1 X77.506 Y96.884 E36.22092
G1 X77.734 Y97.735 E36.25761
G1 X78.356 Y98.357 E36.29423
G1 X79.207 Y98.585 E36.33092
G1 X80.058 Y98.357 E36.36760
G1 X80.679 Y97.734 E36.40423
G1 X80.907 Y96.884 E36.44087
G1 X80.679 Y96.034 E36.47751
G1 X80.058 Y95.411 E36.51414
G1 X79.207 Y95.183 E36.55082
G0 F10500 X79.313 Y94.785
G0 X59.327 Y75.843
G0 X58.930 Y75.736
G1 F900 X59.158 Y74.885 E36.58751
G1 X58.930 Y74.034 E36.62419
G1 X58.308 Y73.412 E36.66082
G1 X57.457 Y73.184 E36.69750
G1 X56.606 Y73.412 E36.73418
G1 X55.984 Y74.034 E36.77081
G1 X55.756 Y74.885 E36.80749
G1 X55.984 Y75.736 E36.84418
G1 X56.606 Y76.358 E36.88080
G1 X57.457 Y76.586 E36.91749
G1 X58.308 Y76.358 E36.95417
G1 X58.930 Y75.736 E36.99080
G0 F10500 X59.327 Y75.843
G0 X78.249 Y55.005
G0 X78.356 Y54.608
G1 F900 X79.207 Y54.836 E37.02748
G1 X80.058 Y54.608 E37.06417
G1 X80.679 Y53.985 E37.10079
G1 X80.907 Y53.135 E37.13744
G1 X80.679 Y52.285 E37.17408
G1 X80.058 Y51.662 E37.21071
G1 X79.207 Y51.434 E37.24739
G1 X78.356 Y51.662 E37.28407
G1 X77.734 Y52.284 E37.32070
G1 X77.506 Y53.135 E37.35738
G1 X77.734 Y53.986 E37.39407
G1 X78.356 Y54.608 E37.43069
G0 F10500 X78.249 Y55.005
G0 X30.089 Y51.087
G0 X29.676 Y51.087
G1 F900 X26.644 Y51.087 E37.55694
G1 X26.644 Y33.821 E38.27586
G1 X132.019 Y33.821 E42.66346
G1 X132.019 Y51.087 E43.38238
G1 X128.987 Y51.087 E43.50863
G1 X128.987 Y61.657 E43.94874
G1 X132.019 Y61.657 E44.07499
G1 X132.019 Y90.847 E45.29040
G1 X128.987 Y90.847 E45.41664
G1 X128.987 Y101.417 E45.85676
G1 X132.019 Y101.417 E45.98300
G1 X132.019 Y116.198 E46.59845
G1 X26.644 Y116.198 E50.98605
G1 X26.644 Y101.417 E51.60150
G1 X29.676 Y101.417 E51.72775
G1 X29.676 Y90.847 E52.16786
G1 X26.644 Y90.847 E52.29411
G1 X26.644 Y61.657 E53.50952
G1 X29.676 Y61.657 E53.63577
G1 X29.676 Y51.087 E54.07588
G0 F10500 X30.520 Y51.292
;TYPE:SKIN
G1 F900 X55.164 Y75.936 E55.52704
G0 F10500 X54.906 Y74.794
G1 F900 X30.520 Y50.408 E56.96301
G0 F10500 X30.354 Y50.242
G1 F900 X27.488 Y47.376 E57.13177
G0 F10500 X27.488 Y48.260
G1 F900 X29.470 Y50.242 E57.24848
G0 F10500 X28.586 Y50.242
G1 F900 X27.488 Y49.143 E57.31317
G0 F10500 X27.488 Y50.027
G1 F900 X27.703 Y50.242 E57.32583
G0 F10500 X30.130 Y50.633
G0 X30.520 Y52.175
G1 F900 X93.697 Y115.353 E61.04603
G0 F10500 X92.813 Y115.353
G1 F900 X30.520 Y53.059 E64.71418
G0 F10500 X30.520 Y53.943
G1 F900 X91.929 Y115.353 E68.33028
G0 F10500 X91.045 Y115.353
G1 F900 X30.520 Y54.827 E71.89432
G0 F10500 X30.520 Y55.711
G1 F900 X90.161 Y115.353 E75.40631
G0 F10500 X89.277 Y115.353
G1 F900 X30.520 Y56.595 E78.86624
G0 F10500 X30.520 Y57.479
G1 F900 X88.394 Y115.353 E82.27415
G0 F10500 X87.510 Y115.353
G1 F900 X30.520 Y58.363 E85.63000
G0 F10500 X30.520 Y59.247
G1 F900 X86.626 Y115.353 E88.93380
G0 F10500 X85.742 Y115.353
G1 F900 X30.520 Y60.130 E92.18557
G0 F10500 X30.520 Y61.014
G1 F900 X84.858 Y115.353 E95.38529
G0 F10500 X83.974 Y115.353
G1 F900 X30.520 Y61.898 E98.53296
G0 F10500 X30.237 Y62.499
G1 F900 X83.090 Y115.353 E101.64524
G0 F10500 X82.206 Y115.353
G1 F900 X29.353 Y62.499 E104.75751
G0 F10500 X28.469 Y62.499
G1 F900 X81.322 Y115.353 E107.86979
G0 F10500 X80.439 Y115.353
G1 F900 X27.585 Y62.499 E110.98209
G0 F10500 X27.488 Y63.286
G1 F900 X79.555 Y115.353 E114.04806
G0 F10500 X78.671 Y115.353
G1 F900 X27.488 Y64.169 E117.06199
G0 F10500 X27.488 Y65.053
G1 F900 X77.787 Y115.353 E120.02388
G0 F10500 X76.903 Y115.353
G1 F900 X27.488 Y65.937 E122.93371
G0 F10500 X27.488 Y66.821
G1 F900 X76.019 Y115.353 E125.79148
G0 F10500 X75.135 Y115.353
G1 F900 X27.488 Y67.705 E128.59720
G0 F10500 X27.488 Y68.589
G1 F900 X74.251 Y115.353 E131.35087
G0 F10500 X73.367 Y115.353
G1 F900 X27.488 Y69.473 E134.05248
G0 F10500 X27.488 Y70.357
G1 F900 X72.484 Y115.353 E136.70207
G0 F10500 X71.600 Y115.353
G1 F900 X27.488 Y71.241 E139.29960
G0 F10500 X27.488 Y72.124
G1 F900 X70.716 Y115.353 E141.84511
G0 F10500 X69.832 Y115.353
G1 F900 X27.488 Y73.008 E144.33857
G0 F10500 X27.488 Y73.892
G1 F900 X68.948 Y115.353 E146.77996
G0 F10500 X68.064 Y115.353
G1 F900 X27.488 Y74.776 E149.16931
G0 F10500 X27.488 Y75.660
G1 F900 X67.180 Y115.353 E151.50660
G0 F10500 X66.296 Y115.353
G1 F900 X27.488 Y76.544 E153.79184
G0 F10500 X27.488 Y77.428
G1 F900 X65.413 Y115.353 E156.02505
G0 F10500 X64.529 Y115.353
G1 F900 X27.488 Y78.312 E158.20621
G0 F10500 X27.488 Y79.195
G1 F900 X63.645 Y115.353 E160.33534
G0 F10500 X62.761 Y115.353
G1 F900 X27.488 Y80.079 E162.41242
G0 F10500 X27.488 Y80.963
G1 F900 X61.877 Y115.353 E164.43744
G0 F10500 X60.993 Y115.353
G1 F900 X27.488 Y81.847 E166.41041
G0 F10500 X27.488 Y82.731
G1 F900 X60.109 Y115.353 E168.33133
G0 F10500 X59.225 Y115.353
G1 F900 X27.488 Y83.615 E170.20019
G0 F10500 X27.488 Y84.499
G1 F900 X58.341 Y115.353 E172.01700
G0 F10500 X57.458 Y115.353
G1 F900 X27.488 Y85.383 E173.78178
G0 F10500 X27.488 Y86.267
G1 F900 X56.574 Y115.353 E175.49451
G0 F10500 X55.690 Y115.353
G1 F900 X30.520 Y90.182 E176.97667
G0 F10500 X30.339 Y90.001
G1 F900 X27.488 Y87.150 E177.14455
G0 F10500 X27.488 Y88.034
G1 F900 X29.455 Y90.001 E177.26038
G0 F10500 X28.571 Y90.001
G1 F900 X27.488 Y88.918 E177.32415
G0 F10500 X27.488 Y89.802
G1 F900 X27.687 Y90.001 E177.33587
G0 F10500 X30.130 Y90.393
G0 X30.520 Y91.066
G1 F900 X54.806 Y115.353 E178.76598
G0 F10500 X53.922 Y115.353
G1 F900 X30.520 Y91.950 E180.14403
G0 F10500 X30.520 Y92.834
G1 F900 X53.038 Y115.353 E181.47003
G0 F10500 X52.154 Y115.353
G1 F900 X30.520 Y93.718 E182.74398
G0 F10500 X30.520 Y94.602
G1 F900 X51.270 Y115.353 E183.96587
G0 F10500 X50.387 Y115.353
G1 F900 X30.520 Y95.486 E185.13574
G0 F10500 X30.520 Y96.370
G1 F900 X49.503 Y115.353 E186.25355
G0 F10500 X48.619 Y115.353
G1 F900 X30.520 Y97.254 E187.31931
G0 F10500 X30.520 Y98.137
G1 F900 X47.735 Y115.353 E188.33305
G0 F10500 X46.851 Y115.353
G1 F900 X30.520 Y99.021 E189.29473
G0 F10500 X30.520 Y99.905
G1 F900 X45.967 Y115.353 E190.20435
G0 F10500 X45.083 Y115.353
G1 F900 X30.520 Y100.789 E191.06192
G0 F10500 X30.520 Y101.673
G1 F900 X44.199 Y115.353 E191.86744
G0 F10500 X43.315 Y115.353
G1 F900 X30.223 Y102.260 E192.63839
G0 F10500 X29.339 Y102.260
G1 F900 X42.432 Y115.353 E193.40937
G0 F10500 X41.548 Y115.353
G1 F900 X28.455 Y102.260 E194.18035
G0 F10500 X27.571 Y102.260
G1 F900 X40.664 Y115.353 E194.95133
G0 F10500 X39.780 Y115.353
G1 F900 X27.488 Y103.060 E195.67518
G0 F10500 X27.488 Y103.944
G1 F900 X38.896 Y115.353 E196.34696
G0 F10500 X38.012 Y115.353
G1 F900 X27.488 Y104.828 E196.96670
G0 F10500 X27.488 Y105.712
G1 F900 X37.128 Y115.353 E197.53438
G0 F10500 X36.244 Y115.353
G1 F900 X27.488 Y106.596 E198.05001
G0 F10500 X27.488 Y107.480
G1 F900 X35.360 Y115.353 E198.51358
G0 F10500 X34.477 Y115.353
G1 F900 X27.488 Y108.364 E198.92512
G0 F10500 X27.488 Y109.247
G1 F900 X33.593 Y115.353 E199.28465
G0 F10500 X32.709 Y115.353
G1 F900 X27.488 Y110.131 E199.59211
G0 F10500 X27.488 Y111.015
G1 F900 X31.825 Y115.353 E199.84753
G0 F10500 X30.941 Y115.353
G1 F900 X27.488 Y111.899 E200.05089
G0 F10500 X27.488 Y112.783
G1 F900 X30.057 Y115.353 E200.20219
G0 F10500 X29.173 Y115.353
G1 F900 X27.488 Y113.667 E200.30144
G0 F10500 X27.488 Y114.551
G1 F900 X28.289 Y115.353 E200.34864
G0 F10500 X56.405 Y77.177
G1 F900 X76.822 Y97.594 E201.55089
G0 F10500 X76.709 Y96.597
G1 F900 X57.547 Y77.435 E202.67925
G0 F10500 X58.244 Y77.248
G1 F900 X76.895 Y95.899 E203.77751
G0 F10500 X77.226 Y95.346
G1 F900 X58.868 Y76.989 E204.85849
G0 F10500 X59.310 Y76.547
G1 F900 X77.668 Y94.905 E205.93950
G0 F10500 X78.220 Y94.572
G1 F900 X59.714 Y76.067 E207.02920
G0 F10500 X59.901 Y75.369
G1 F900 X78.916 Y94.385 E208.14892
G0 F10500 X79.912 Y94.497
G1 F900 X59.933 Y74.518 E209.32538
G0 F10500 X57.822 Y72.407
G1 F900 X27.488 Y42.072 E211.11163
G0 F10500 X27.488 Y42.956
G1 F900 X56.970 Y72.439 E212.84771
G0 F10500 X56.273 Y72.626
G1 F900 X27.488 Y43.840 E214.54274
G0 F10500 X27.488 Y44.724
G1 F900 X55.794 Y73.030 E216.20954
G0 F10500 X55.352 Y73.472
G1 F900 X27.488 Y45.608 E217.85031
G0 F10500 X27.488 Y46.492
G1 F900 X55.093 Y74.097 E219.47583
G0 F10500 X76.658 Y53.236
G1 F900 X58.086 Y34.664 E220.56944
G0 F10500 X57.202 Y34.664
G1 F900 X131.174 Y108.636 E224.92528
G0 F10500 X131.174 Y109.520
G1 F900 X56.318 Y34.664 E229.33317
G0 F10500 X55.435 Y34.664
G1 F900 X131.174 Y110.404 E233.79308
G0 F10500 X131.174 Y111.288
G1 F900 X54.551 Y34.664 E238.30506
G0 F10500 X53.667 Y34.664
G1 F900 X131.174 Y112.171 E242.86905
G0 F10500 X131.174 Y113.055
G1 F900 X52.783 Y34.664 E247.48510
G0 F10500 X51.899 Y34.664
G1 F900 X131.174 Y113.939 E252.15321
G0 F10500 X131.174 Y114.823
G1 F900 X51.015 Y34.664 E256.87337
G0 F10500 X50.131 Y34.664
G1 F900 X130.820 Y115.353 E261.62473
G0 F10500 X129.936 Y115.353
G1 F900 X49.247 Y34.664 E266.37610
G0 F10500 X48.363 Y34.664
G1 F900 X129.052 Y115.353 E271.12747
G0 F10500 X128.168 Y115.353
G1 F900 X47.480 Y34.664 E275.87881
G0 F10500 X46.596 Y34.664
G1 F900 X127.284 Y115.353 E280.63015
G0 F10500 X126.400 Y115.353
G1 F900 X45.712 Y34.664 E285.38149
G0 F10500 X44.828 Y34.664
G1 F900 X125.517 Y115.353 E290.13285
G0 F10500 X124.633 Y115.353
G1 F900 X43.944 Y34.664 E294.88422
G0 F10500 X43.060 Y34.664
G1 F900 X123.749 Y115.353 E299.63559
G0 F10500 X122.865 Y115.353
G1 F900 X42.176 Y34.664 E304.38696
G0 F10500 X41.292 Y34.664
G1 F900 X121.981 Y115.353 E309.13833
G0 F10500 X121.097 Y115.353
G1 F900 X40.409 Y34.664 E313.88967
G0 F10500 X58.970 Y34.664
G1 F900 X76.803 Y52.497 E314.93976
G0 F10500 X77.007 Y51.817
G1 F900 X59.854 Y34.664 E315.94981
G0 F10500 X60.738 Y34.664
G1 F900 X77.449 Y51.375 E316.93384
G0 F10500 X77.891 Y50.933
G1 F900 X61.622 Y34.664 E317.89184
G0 F10500 X62.506 Y34.664
G1 F900 X78.571 Y50.729 E318.83783
G0 F10500 X79.314 Y50.589
G1 F900 X63.390 Y34.664 E319.77554
G0 F10500 X64.273 Y34.664
G1 F900 X128.142 Y98.533 E323.53646
G0 F10500 X128.142 Y99.417
G1 F900 X81.750 Y53.025 E326.26825
G0 F10500 X81.610 Y53.768
G1 F900 X128.142 Y100.300 E329.00829
G0 F10500 X128.142 Y101.184
G1 F900 X81.407 Y54.449 E331.76028
G0 F10500 X80.965 Y54.891
G1 F900 X128.142 Y102.068 E334.53829
G0 F10500 X128.334 Y102.261
G1 F900 X131.174 Y105.100 E334.70550
G0 F10500 X131.174 Y105.984
G1 F900 X80.523 Y55.333 E337.68808
G0 F10500 X79.845 Y55.538
G1 F900 X131.174 Y106.868 E340.71061
G0 F10500 X131.174 Y107.752
G1 F900 X79.105 Y55.683 E343.77669
G0 F10500 X77.281 Y54.248
G0 X76.982 Y53.135
G0 X77.281 Y52.022
G0 X78.094 Y51.209
G0 X79.299 Y34.664
G1 F900 X131.174 Y86.539 E346.83135
G0 F10500 X131.174 Y87.423
G1 F900 X78.416 Y34.664 E349.93803
G0 F10500 X77.532 Y34.664
G1 F900 X131.174 Y88.307 E353.09677
G0 F10500 X131.174 Y89.190
G1 F900 X76.648 Y34.664 E356.30753
G0 F10500 X75.764 Y34.664
G1 F900 X131.102 Y90.002 E359.56611
G0 F10500 X130.218 Y90.002
G1 F900 X74.880 Y34.664 E362.82468
G0 F10500 X73.996 Y34.664
G1 F900 X129.334 Y90.002 E366.08326
G0 F10500 X128.450 Y90.002
G1 F900 X73.112 Y34.664 E369.34183
G0 F10500 X72.228 Y34.664
G1 F900 X128.142 Y90.578 E372.63433
G0 F10500 X128.142 Y91.462
G1 F900 X71.344 Y34.664 E375.97887
G0 F10500 X70.461 Y34.664
G1 F900 X128.142 Y92.346 E379.37545
G0 F10500 X128.142 Y93.229
G1 F900 X69.577 Y34.664 E382.82404
G0 F10500 X68.693 Y34.664
G1 F900 X128.142 Y94.113 E386.32470
G0 F10500 X128.142 Y94.997
G1 F900 X67.809 Y34.664 E389.87740
G0 F10500 X66.925 Y34.664
G1 F900 X128.142 Y95.881 E393.48216
G0 F10500 X128.142 Y96.765
G1 F900 X66.041 Y34.664 E397.13898
G0 F10500 X65.157 Y34.664
G1 F900 X128.142 Y97.649 E400.84785
G0 F10500 X128.533 Y90.393
G0 X131.174 Y85.655
G1 F900 X80.184 Y34.665 E403.85039
G0 F10500 X81.068 Y34.665
G1 F900 X131.174 Y84.771 E406.80088
G0 F10500 X131.174 Y83.887
G1 F900 X81.952 Y34.665 E409.69931
G0 F10500 X82.836 Y34.665
G1 F900 X131.174 Y83.003 E412.54570
G0 F10500 X131.174 Y82.119
G1 F900 X83.720 Y34.665 E415.34002
G0 F10500 X84.603 Y34.665
G1 F900 X131.174 Y81.235 E418.08232
G0 F10500 X131.174 Y80.352
G1 F900 X85.487 Y34.665 E420.77260
G0 F10500 X86.371 Y34.665
G1 F900 X131.174 Y79.468 E423.41082
G0 F10500 X131.174 Y78.584
G1 F900 X87.255 Y34.665 E425.99699
G0 F10500 X88.139 Y34.665
G1 F900 X131.174 Y77.700 E428.53111
G0 F10500 X131.174 Y76.816
G1 F900 X89.023 Y34.665 E431.01317
G0 F10500 X89.907 Y34.665
G1 F900 X131.174 Y75.932 E433.44317
G0 F10500 X131.174 Y75.048
G1 F900 X90.791 Y34.665 E435.82112
G0 F10500 X91.674 Y34.665
G1 F900 X131.174 Y74.164 E438.14705
G0 F10500 X131.174 Y73.281
G1 F900 X92.558 Y34.665 E440.42095
G0 F10500 X93.442 Y34.665
G1 F900 X131.174 Y72.397 E442.64280
G0 F10500 X131.174 Y71.513
G1 F900 X94.326 Y34.665 E444.81259
G0 F10500 X95.210 Y34.665
G1 F900 X131.174 Y70.629 E446.93033
G0 F10500 X131.174 Y69.745
G1 F900 X96.094 Y34.665 E448.99601
G0 F10500 X96.978 Y34.665
G1 F900 X131.174 Y68.861 E451.00964
G0 F10500 X131.174 Y67.977
G1 F900 X97.862 Y34.665 E452.97122
G0 F10500 X98.746 Y34.665
G1 F900 X131.174 Y67.093 E454.88074
G0 F10500 X131.174 Y66.209
G1 F900 X99.629 Y34.665 E456.73824
G0 F10500 X100.513 Y34.665
G1 F900 X128.141 Y62.293 E458.36511
G0 F10500 X128.349 Y62.501
G1 F900 X131.174 Y65.326 E458.53146
G0 F10500 X131.174 Y64.442
G1 F900 X129.233 Y62.501 E458.64575
G0 F10500 X130.117 Y62.501
G1 F900 X131.174 Y63.558 E458.70800
G0 F10500 X131.174 Y62.674
G1 F900 X131.001 Y62.501 E458.71818
G0 F10500 X128.533 Y62.111
G0 X128.141 Y61.409
G1 F900 X101.397 Y34.665 E460.29300
G0 F10500 X102.281 Y34.665
G1 F900 X128.141 Y60.525 E461.81577
G0 F10500 X128.141 Y59.641
G1 F900 X103.165 Y34.665 E463.28648
G0 F10500 X104.049 Y34.665
G1 F900 X128.141 Y58.757 E464.70513
G0 F10500 X128.141 Y57.873
G1 F900 X104.933 Y34.665 E466.07174
G0 F10500 X105.817 Y34.665
G1 F900 X128.141 Y56.989 E467.38628
G0 F10500 X128.141 Y56.106
G1 F900 X106.700 Y34.665 E468.64884
G0 F10500 X107.584 Y34.665
G1 F900 X128.141 Y55.222 E469.85933
G0 F10500 X128.141 Y54.338
G1 F900 X108.468 Y34.665 E471.01778
G0 F10500 X109.352 Y34.665
G1 F900 X128.141 Y53.454 E472.12417
G0 F10500 X128.141 Y52.570
G1 F900 X110.236 Y34.665 E473.17850
G0 F10500 X111.120 Y34.665
G1 F900 X128.141 Y51.686 E474.18078
G0 F10500 X128.141 Y50.802
G1 F900 X112.004 Y34.665 E475.13101
G0 F10500 X112.888 Y34.665
G1 F900 X128.465 Y50.242 E476.04826
G0 F10500 X129.349 Y50.242
G1 F900 X113.772 Y34.665 E476.96551
G0 F10500 X114.655 Y34.665
G1 F900 X130.233 Y50.242 E477.88279
G0 F10500 X131.117 Y50.242
G1 F900 X115.539 Y34.665 E478.80007
G0 F10500 X116.423 Y34.665
G1 F900 X131.173 Y49.415 E479.66863
G0 F10500 X131.173 Y48.531
G1 F900 X117.307 Y34.665 E480.48512
G0 F10500 X118.191 Y34.665
G1 F900 X131.173 Y47.647 E481.24957
G0 F10500 X131.173 Y46.763
G1 F900 X119.075 Y34.665 E481.96196
G0 F10500 X119.959 Y34.665
G1 F900 X131.173 Y45.879 E482.62229
G0 F10500 X131.173 Y44.996
G1 F900 X120.843 Y34.665 E483.23061
G0 F10500 X121.727 Y34.665
G1 F900 X131.173 Y44.112 E483.78686
G0 F10500 X131.173 Y43.228
G1 F900 X122.610 Y34.665 E484.29109
G0 F10500 X123.494 Y34.665
G1 F900 X131.173 Y42.344 E484.74327
G0 F10500 X131.173 Y41.460
G1 F900 X124.378 Y34.665 E485.14340
G0 F10500 X125.262 Y34.665
G1 F900 X131.173 Y40.576 E485.49146
G0 F10500 X131.173 Y39.692
G1 F900 X126.146 Y34.665 E485.78748
G0 F10500 X127.030 Y34.665
G1 F900 X131.173 Y38.808 E486.03144
G0 F10500 X131.173 Y37.924
G1 F900 X127.914 Y34.665 E486.22335
G0 F10500 X128.798 Y34.665
G1 F900 X131.173 Y37.041 E486.36323
G0 F10500 X131.173 Y36.157
G1 F900 X129.681 Y34.665 E486.45108
G0 F10500 X130.565 Y34.665
G1 F900 X131.173 Y35.273 E486.48688
G0 F10500 X128.533 Y50.633
G0 X128.533 Y62.111
G0 X128.533 Y101.871
G0 X130.986 Y102.261
G1 F900 X131.174 Y102.449 E486.49796
G0 F10500 X131.174 Y103.333
G1 F900 X130.102 Y102.261 E486.56108
G0 F10500 X129.218 Y102.261
G1 F900 X131.174 Y104.216 E486.67623
G0 F10500 X120.213 Y115.353
G1 F900 X39.525 Y34.664 E491.42757
G0 F10500 X38.641 Y34.664
G1 F900 X119.329 Y115.353 E496.17891
G0 F10500 X118.446 Y115.353
G1 F900 X37.757 Y34.664 E500.93027
G0 F10500 X36.873 Y34.664
G1 F900 X117.562 Y115.353 E505.68164
G0 F10500 X116.678 Y115.353
G1 F900 X35.989 Y34.664 E510.43301
G0 F10500 X35.105 Y34.664
G1 F900 X115.794 Y115.353 E515.18438
G0 F10500 X114.910 Y115.353
G1 F900 X34.221 Y34.664 E519.93575
G0 F10500 X33.337 Y34.664
G1 F900 X114.026 Y115.353 E524.68712
G0 F10500 X113.142 Y115.353
G1 F900 X32.454 Y34.664 E529.43845
G0 F10500 X31.570 Y34.664
G1 F900 X112.258 Y115.353 E534.18979
G0 F10500 X111.374 Y115.353
G1 F900 X30.686 Y34.664 E538.94113
G0 F10500 X29.802 Y34.664
G1 F900 X110.491 Y115.353 E543.69250
G0 F10500 X109.607 Y115.353
G1 F900 X28.918 Y34.664 E548.44387
G0 F10500 X28.034 Y34.664
G1 F900 X108.723 Y115.353 E553.19524
G0 F10500 X107.839 Y115.353
G1 F900 X27.488 Y35.001 E557.92673
G0 F10500 X27.488 Y35.885
G1 F900 X106.955 Y115.353 E562.60617
G0 F10500 X106.071 Y115.353
G1 F900 X27.488 Y36.769 E567.23356
G0 F10500 X27.488 Y37.653
G1 F900 X105.187 Y115.353 E571.80889
G0 F10500 X104.303 Y115.353
G1 F900 X27.488 Y38.537 E576.33216
G0 F10500 X27.488 Y39.421
G1 F900 X103.420 Y115.353 E580.80342
G0 F10500 X102.536 Y115.353
G1 F900 X27.488 Y40.305 E585.22261
G0 F10500 X27.488 Y41.188
G1 F900 X101.652 Y115.353 E589.58979
G0 F10500 X100.768 Y115.353
G1 F900 X81.590 Y96.175 E590.71908
G0 F10500 X81.703 Y97.172
G1 F900 X99.884 Y115.353 E591.78967
G0 F10500 X99.000 Y115.353
G1 F900 X81.515 Y97.868 E592.81927
G0 F10500 X81.184 Y98.420
G1 F900 X98.116 Y115.353 E593.81634
G0 F10500 X97.232 Y115.353
G1 F900 X80.743 Y98.863 E594.78733
G0 F10500 X80.190 Y99.195
G1 F900 X96.348 Y115.353 E595.73879
G0 F10500 X95.465 Y115.353
G1 F900 X79.493 Y99.381 E596.67930
G0 F10500 X78.495 Y99.267
G1 F900 X94.581 Y115.353 E597.62652
;LAYER:1
M106 S191
G0 F10500 X80.285 Y98.749 Z0.675
;TYPE:WALL-INNER
G1 F1140 X81.071 Y97.961 E597.64833
G1 X81.361 Y96.884 E597.67019
G1 X81.071 Y95.807 E597.69204
G1 X80.285 Y95.019 E597.71385
G1 X79.207 Y94.729 E597.73572
G1 X78.130 Y95.019 E597.75758
G1 X77.342 Y95.807 E597.77941
G1 X77.052 Y96.884 E597.80127
G1 X77.342 Y97.961 E597.82312
G1 X78.130 Y98.749 E597.84496
G1 X79.207 Y99.039 E597.86681
G1 X80.285 Y98.749 E597.88869
G0 F10500 X79.207 Y98.980
G0 X78.159 Y98.698
G0 X77.393 Y97.932
G0 X77.111 Y96.884
G0 X58.534 Y76.750
G1 F1140 X59.322 Y75.962 E597.91052
G1 X59.612 Y74.885 E597.93238
G1 X59.322 Y73.808 E597.95423
G1 X58.534 Y73.020 E597.97607
G1 X57.457 Y72.730 E597.99792
G1 X56.380 Y73.020 E598.01978
G1 X55.592 Y73.808 E598.04162
G1 X55.302 Y74.885 E598.06347
G1 X55.592 Y75.962 E598.08532
G1 X56.380 Y76.750 E598.10716
G1 X57.457 Y77.040 E598.12902
G1 X58.534 Y76.750 E598.15087
G0 F10500 X78.130 Y55.000
G1 F1140 X79.207 Y55.290 E598.17273
G1 X80.285 Y55.000 E598.19460
G1 X81.071 Y54.212 E598.21641
G1 X81.361 Y53.135 E598.23826
G1 X81.071 Y52.058 E598.26012
G1 X80.285 Y51.270 E598.28192
G1 X79.207 Y50.980 E598.30380
G1 X78.130 Y51.270 E598.32565
G1 X77.342 Y52.058 E598.34749
G1 X77.052 Y53.135 E598.36934
G1 X77.342 Y54.212 E598.39120
G1 X78.130 Y55.000 E598.41303
G0 F10500 X30.114 Y50.649
G1 F1140 X27.082 Y50.649 E598.47244
G1 X27.082 Y34.259 E598.79360
G1 X131.581 Y34.259 E600.84118
G1 X131.581 Y50.649 E601.16233
G1 X128.549 Y50.649 E601.22174
G1 X128.549 Y62.095 E601.44602
G1 X131.581 Y62.095 E601.50543
G1 X131.581 Y90.409 E602.06022
G1 X128.549 Y90.409 E602.11963
G1 X128.549 Y101.855 E602.34391
G1 X131.581 Y101.855 E602.40332
G1 X131.581 Y115.760 E602.67578
G1 X27.082 Y115.760 E604.72337
G1 X27.082 Y101.855 E604.99583
G1 X30.114 Y101.855 E605.05524
G1 X30.114 Y90.409 E605.27951
G1 X27.082 Y90.409 E605.33892
G1 X27.082 Y62.095 E605.89372
G1 X30.114 Y62.095 E605.95313
G1 X30.114 Y50.649 E606.17741
G0 F10500 X29.614 Y51.149
;TYPE:WALL-OUTER
G1 F1080 X26.582 Y51.149 E606.23682
G1 X26.582 Y33.759 E606.57756
G1 X132.081 Y33.759 E608.64474
G1 X132.081 Y51.149 E608.98549
G1 X129.049 Y51.149 E609.04490
G1 X129.049 Y61.595 E609.24958
G1 X132.081 Y61.595 E609.30899
G1 X132.081 Y90.909 E609.88338
G1 X129.049 Y90.909 E609.94279
G1 X129.049 Y101.355 E610.14747
G1 X132.081 Y101.355 E610.20688
G1 X132.081 Y116.260 E610.49893
G1 X26.582 Y116.260 E612.56612
G1 X26.582 Y101.355 E612.85817
G1 X29.614 Y101.355 E612.91758
G1 X29.614 Y90.909 E613.12226
G1 X26.582 Y90.909 E613.18167
G1 X26.582 Y61.595 E613.75606
G1 X29.614 Y61.595 E613.81547
G1 X29.614 Y51.149 E614.02015
G0 F10500 X29.964 Y51.149
G0 X55.703 Y73.976
G0 X56.040 Y74.067
G1 F1080 X55.820 Y74.885 E614.03675
G1 X56.040 Y75.703 E614.05335
G1 X56.639 Y76.302 E614.06995
G1 X57.457 Y76.522 E614.08654
G1 X58.275 Y76.302 E614.10314
G1 X58.874 Y75.703 E614.11974
G1 X59.094 Y74.885 E614.13634
G1 X58.874 Y74.067 E614.15294
G1 X58.275 Y73.468 E614.16954
G1 X57.457 Y73.248 E614.18613
G1 X56.639 Y73.468 E614.20273
G1 X56.040 Y74.067 E614.21933
G0 F10500 X55.703 Y73.976
G0 X56.409 Y73.071
G0 X77.542 Y54.199
G0 X77.790 Y53.953
G1 F1080 X78.389 Y54.552 E614.23593
G1 X79.207 Y54.772 E614.25253
G1 X80.026 Y54.552 E614.26914
G1 X80.623 Y53.953 E614.28571
G1 X80.843 Y53.135 E614.30231
G1 X80.623 Y52.317 E614.31891
G1 X80.026 Y51.718 E614.33548
G1 X79.207 Y51.498 E614.35210
G1 X78.389 Y51.718 E614.36869
G1 X77.790 Y52.317 E614.38529
G1 X77.570 Y53.135 E614.40189
G1 X77.790 Y53.953 E614.41849
G0 F10500 X77.542 Y54.199
G0 X79.296 Y94.910
G0 X79.207 Y95.247
G1 F1080 X78.389 Y95.467 E614.43509
G1 X77.790 Y96.066 E614.45168
G1 X77.570 Y96.884 E614.46828
G1 X77.790 Y97.702 E614.48488
G1 X78.389 Y98.301 E614.50148
G1 X79.207 Y98.521 E614.51808
G1 X80.026 Y98.301 E614.53469
G1 X80.623 Y97.702 E614.55126
G1 X80.843 Y96.884 E614.56786
G1 X80.623 Y96.066 E614.58446
G1 X80.026 Y95.467 E614.60103
G1 X79.207 Y95.247 E614.61765
G0 F10500 X78.988 Y94.605
;TYPE:SKIN
G1 F1380 X131.405 Y42.189 E616.07014
G0 F10500 X131.405 Y42.896
G1 F1380 X79.638 Y94.663 E617.50463
G0 F10500 X78.159 Y95.070
G0 X77.393 Y95.836
G0 X76.927 Y96.667
G1 F1380 X58.009 Y115.585 E618.02886
G0 F10500 X58.716 Y115.585
G1 F1380 X76.985 Y97.316 E618.53510
G0 F10500 X77.136 Y97.872
G1 F1380 X59.423 Y115.585 E619.02594
G0 F10500 X57.302 Y115.585
G1 F1380 X131.405 Y41.482 E621.07938
G0 F10500 X131.405 Y40.775
G1 F1380 X56.595 Y115.585 E623.15240
G0 F10500 X55.888 Y115.585
G1 F1380 X131.405 Y40.068 E625.24502
G0 F10500 X131.405 Y43.603
G1 F1380 X80.195 Y94.813 E626.66408
G0 F10500 X80.615 Y95.100
G1 F1380 X131.405 Y44.310 E628.07150
G0 F10500 X131.405 Y45.017
G1 F1380 X80.967 Y95.455 E629.46917
G0 F10500 X81.267 Y95.862
G1 F1380 X131.405 Y45.725 E630.85851
G0 F10500 X131.405 Y46.432
G1 F1380 X81.418 Y96.418 E632.24366
G0 F10500 X81.499 Y97.044
G1 F1380 X131.405 Y47.139 E633.62657
G0 F10500 X131.405 Y47.846
G1 F1380 X128.777 Y50.473 E633.69938
G0 F10500 X128.373 Y50.878
G1 F1380 X81.238 Y98.012 E635.00550
G0 F10500 X80.334 Y98.917
G1 F1380 X63.666 Y115.585 E635.46738
G0 F10500 X64.373 Y115.585
G1 F1380 X128.373 Y51.585 E637.24086
G0 F10500 X128.373 Y52.292
G1 F1380 X65.080 Y115.585 E638.99474
G0 F10500 X65.787 Y115.585
G1 F1380 X128.373 Y52.999 E640.72904
G0 F10500 X128.373 Y53.706
G1 F1380 X66.494 Y115.585 E642.44374
G0 F10500 X67.202 Y115.585
G1 F1380 X128.373 Y54.413 E644.13884
G0 F10500 X128.373 Y55.121
G1 F1380 X67.909 Y115.585 E645.81433
G0 F10500 X68.616 Y115.585
G1 F1380 X128.373 Y55.828 E647.47023
G0 F10500 X128.373 Y56.535
G1 F1380 X69.323 Y115.585 E649.10654
G0 F10500 X70.030 Y115.585
G1 F1380 X128.373 Y57.242 E650.72325
G0 F10500 X128.373 Y57.949
G1 F1380 X70.737 Y115.585 E652.32038
G0 F10500 X71.444 Y115.585
G1 F1380 X128.373 Y58.656 E653.89792
G0 F10500 X128.373 Y59.363
G1 F1380 X72.151 Y115.585 E655.45586
G0 F10500 X72.858 Y115.585
G1 F1380 X128.373 Y60.070 E656.99421
G0 F10500 X128.373 Y60.777
G1 F1380 X73.565 Y115.585 E658.51297
G0 F10500 X74.273 Y115.585
G1 F1380 X128.373 Y61.485 E660.01211
G0 F10500 X128.373 Y62.192
G1 F1380 X74.980 Y115.585 E661.49166
G0 F10500 X75.687 Y115.585
G1 F1380 X129.002 Y62.269 E662.96907
G0 F10500 X129.709 Y62.269
G1 F1380 X76.394 Y115.585 E664.44647
G0 F10500 X77.101 Y115.585
G1 F1380 X130.416 Y62.269 E665.92387
G0 F10500 X131.123 Y62.269
G1 F1380 X77.808 Y115.585 E667.40128
G0 F10500 X78.515 Y115.585
G1 F1380 X131.405 Y62.695 E668.86689
G0 F10500 X131.405 Y63.402
G1 F1380 X79.222 Y115.585 E670.31291
G0 F10500 X79.929 Y115.585
G1 F1380 X131.405 Y64.109 E671.73934
G0 F10500 X131.405 Y64.816
G1 F1380 X80.637 Y115.585 E673.14616
G0 F10500 X81.344 Y115.585
G1 F1380 X131.405 Y65.524 E674.53338
G0 F10500 X131.405 Y66.231
G1 F1380 X82.051 Y115.585 E675.90101
G0 F10500 X82.758 Y115.585
G1 F1380 X131.405 Y66.938 E677.24904
G0 F10500 X131.405 Y67.645
G1 F1380 X83.465 Y115.585 E678.57749
G0 F10500 X84.172 Y115.585
G1 F1380 X131.405 Y68.352 E679.88634
G0 F10500 X131.405 Y69.059
G1 F1380 X84.879 Y115.585 E681.17560
G0 F10500 X85.586 Y115.585
G1 F1380 X131.405 Y69.766 E682.44527
G0 F10500 X131.405 Y70.473
G1 F1380 X86.293 Y115.585 E683.69535
G0 F10500 X87.001 Y115.585
G1 F1380 X131.405 Y71.180 E684.92583
G0 F10500 X131.405 Y71.888
G1 F1380 X87.708 Y115.585 E686.13669
G0 F10500 X88.415 Y115.585
G1 F1380 X131.405 Y72.595 E687.32797
G0 F10500 X131.405 Y73.302
G1 F1380 X89.122 Y115.585 E688.49966
G0 F10500 X89.829 Y115.585
G1 F1380 X131.405 Y74.009 E689.65175
G0 F10500 X131.405 Y74.716
G1 F1380 X90.536 Y115.585 E690.78426
G0 F10500 X91.243 Y115.585
G1 F1380 X131.405 Y75.423 E691.89717
G0 F10500 X131.405 Y76.130
G1 F1380 X91.950 Y115.585 E692.99049
G0 F10500 X92.657 Y115.585
G1 F1380 X131.405 Y76.837 E694.06422
G0 F10500 X131.405 Y77.544
G1 F1380 X93.364 Y115.585 E695.11835
G0 F10500 X94.072 Y115.585
G1 F1380 X131.405 Y78.251 E696.15289
G0 F10500 X131.405 Y78.959
G1 F1380 X94.779 Y115.585 E697.16781
G0 F10500 X95.486 Y115.585
G1 F1380 X131.405 Y79.666 E698.16315
G0 F10500 X131.405 Y80.373
G1 F1380 X96.193 Y115.585 E699.13889
G0 F10500 X96.900 Y115.585
G1 F1380 X131.405 Y81.080 E700.09505
G0 F10500 X131.405 Y81.787
G1 F1380 X97.607 Y115.585 E701.03161
G0 F10500 X98.314 Y115.585
G1 F1380 X131.405 Y82.494 E701.94858
G0 F10500 X131.405 Y83.201
G1 F1380 X99.021 Y115.585 E702.84596
G0 F10500 X99.728 Y115.585
G1 F1380 X131.405 Y83.908 E703.72375
G0 F10500 X131.405 Y84.615
G1 F1380 X100.436 Y115.585 E704.58193
G0 F10500 X101.143 Y115.585
G1 F1380 X131.405 Y85.323 E705.42051
G0 F10500 X131.405 Y86.030
G1 F1380 X101.850 Y115.585 E706.23949
G0 F10500 X102.557 Y115.585
G1 F1380 X131.405 Y86.737 E707.03889
G0 F10500 X131.405 Y87.444
G1 F1380 X128.615 Y90.233 E707.11618
G0 F10500 X128.373 Y90.475
G1 F1380 X103.264 Y115.585 E707.81198
G0 F10500 X103.971 Y115.585
G1 F1380 X128.373 Y91.182 E708.48819
G0 F10500 X128.373 Y91.889
G1 F1380 X104.678 Y115.585 E709.14481
G0 F10500 X105.385 Y115.585
G1 F1380 X128.373 Y92.597 E709.78182
G0 F10500 X128.373 Y93.304
G1 F1380 X106.092 Y115.585 E710.39924
G0 F10500 X106.799 Y115.585
G1 F1380 X128.373 Y94.011 E710.99706
G0 F10500 X128.373 Y94.718
G1 F1380 X107.507 Y115.585 E711.57529
G0 F10500 X108.214 Y115.585
G1 F1380 X128.373 Y95.425 E712.13392
G0 F10500 X128.373 Y96.132
G1 F1380 X108.921 Y115.585 E712.67296
G0 F10500 X109.628 Y115.585
G1 F1380 X128.373 Y96.839 E713.19240
G0 F10500 X128.373 Y97.546
G1 F1380 X110.335 Y115.585 E713.69226
G0 F10500 X111.042 Y115.585
G1 F1380 X128.373 Y98.253 E714.17253
G0 F10500 X128.373 Y98.961
G1 F1380 X111.749 Y115.585 E714.63319
G0 F10500 X112.456 Y115.585
G1 F1380 X128.373 Y99.668 E715.07426
G0 F10500 X128.658 Y90.518
G0 X129.322 Y90.233
G1 F1380 X131.405 Y88.151 E715.13196
G0 F10500 X131.405 Y88.858
G1 F1380 X130.029 Y90.233 E715.17008
G0 F10500 X130.736 Y90.233
G1 F1380 X131.405 Y89.565 E715.18860
G0 F10500 X128.658 Y90.518
G0 X128.373 Y100.375
G1 F1380 X113.163 Y115.585 E715.61008
G0 F10500 X113.871 Y115.585
G1 F1380 X128.373 Y101.082 E716.01196
G0 F10500 X128.373 Y101.789
G1 F1380 X114.578 Y115.585 E716.39424
G0 F10500 X115.285 Y115.585
G1 F1380 X128.840 Y102.029 E716.76987
G0 F10500 X129.547 Y102.029
G1 F1380 X115.992 Y115.585 E717.14550
G0 F10500 X116.699 Y115.585
G1 F1380 X130.254 Y102.029 E717.52113
G0 F10500 X130.961 Y102.029
G1 F1380 X117.406 Y115.585 E717.89676
G0 F10500 X118.113 Y115.585
G1 F1380 X131.405 Y102.293 E718.26509
G0 F10500 X131.405 Y103.000
G1 F1380 X118.820 Y115.585 E718.61382
G0 F10500 X119.527 Y115.585
G1 F1380 X131.405 Y103.707 E718.94297
G0 F10500 X131.405 Y104.414
G1 F1380 X120.235 Y115.585 E719.25251
G0 F10500 X120.942 Y115.585
G1 F1380 X131.405 Y105.122 E719.54245
G0 F10500 X131.405 Y105.829
G1 F1380 X121.649 Y115.585 E719.81279
G0 F10500 X122.356 Y115.585
G1 F1380 X131.405 Y106.536 E720.06354
G0 F10500 X131.405 Y107.243
G1 F1380 X123.063 Y115.585 E720.29471
G0 F10500 X123.770 Y115.585
G1 F1380 X131.405 Y107.950 E720.50628
G0 F10500 X131.405 Y108.657
G1 F1380 X124.477 Y115.585 E720.69826
G0 F10500 X125.184 Y115.585
G1 F1380 X131.405 Y109.364 E720.87064
G0 F10500 X131.405 Y110.071
G1 F1380 X125.891 Y115.585 E721.02344
G0 F10500 X126.598 Y115.585
G1 F1380 X131.405 Y110.778 E721.15664
G0 F10500 X131.405 Y111.485
G1 F1380 X127.306 Y115.585 E721.27024
G0 F10500 X128.013 Y115.585
G1 F1380 X131.405 Y112.193 E721.36424
G0 F10500 X131.405 Y112.900
G1 F1380 X128.720 Y115.585 E721.43864
G0 F10500 X129.427 Y115.585
G1 F1380 X131.405 Y113.607 E721.49345
G0 F10500 X131.405 Y114.314
G1 F1380 X130.134 Y115.585 E721.52867
G0 F10500 X130.841 Y115.585
G1 F1380 X131.405 Y115.021 E721.54430
G0 F10500 X79.367 Y99.177
G1 F1380 X62.959 Y115.585 E721.99898
G0 F10500 X62.252 Y115.585
G1 F1380 X78.742 Y99.094 E722.45594
G0 F10500 X78.185 Y98.944
G1 F1380 X61.545 Y115.585 E722.91705
G0 F10500 X60.838 Y115.585
G1 F1380 X77.778 Y98.644 E723.38649
G0 F10500 X77.424 Y98.291
G1 F1380 X60.130 Y115.585 E723.86571
G0 F10500 X55.181 Y115.585
G1 F1380 X131.405 Y39.361 E725.97792
G0 F10500 X131.405 Y38.653
G1 F1380 X54.474 Y115.585 E728.10974
G0 F10500 X53.766 Y115.585
G1 F1380 X131.405 Y37.946 E730.26116
G0 F10500 X131.405 Y37.239
G1 F1380 X53.059 Y115.585 E732.43217
G0 F10500 X52.352 Y115.585
G1 F1380 X131.405 Y36.532 E734.62277
G0 F10500 X131.405 Y35.825
G1 F1380 X51.645 Y115.585 E736.83297
G0 F10500 X50.938 Y115.585
G1 F1380 X131.405 Y35.118 E739.06275
G0 F10500 X131.383 Y34.433
G1 F1380 X50.231 Y115.585 E741.31152
G0 F10500 X49.524 Y115.585
G1 F1380 X130.676 Y34.433 E743.56029
G0 F10500 X129.969 Y34.433
G1 F1380 X48.817 Y115.585 E745.80906
G0 F10500 X48.110 Y115.585
G1 F1380 X129.261 Y34.433 E748.05781
G0 F10500 X128.554 Y34.433
G1 F1380 X47.403 Y115.585 E750.30657
G0 F10500 X46.695 Y115.585
G1 F1380 X127.847 Y34.433 E752.55533
G0 F10500 X127.140 Y34.433
G1 F1380 X45.988 Y115.585 E754.80410
G0 F10500 X45.281 Y115.585
G1 F1380 X126.433 Y34.433 E757.05287
G0 F10500 X125.726 Y34.433
G1 F1380 X44.574 Y115.585 E759.30164
G0 F10500 X43.867 Y115.585
G1 F1380 X125.019 Y34.433 E761.55041
G0 F10500 X124.312 Y34.433
G1 F1380 X43.160 Y115.585 E763.79917
G0 F10500 X42.453 Y115.585
G1 F1380 X123.605 Y34.433 E766.04794
G0 F10500 X122.897 Y34.433
G1 F1380 X41.746 Y115.585 E768.29670
G0 F10500 X41.039 Y115.585
G1 F1380 X122.190 Y34.433 E770.54545
G0 F10500 X121.483 Y34.433
G1 F1380 X40.331 Y115.585 E772.79422
G0 F10500 X39.624 Y115.585
G1 F1380 X120.776 Y34.433 E775.04299
G0 F10500 X120.069 Y34.433
G1 F1380 X38.917 Y115.585 E777.29175
G0 F10500 X38.210 Y115.585
G1 F1380 X119.362 Y34.433 E779.54052
G0 F10500 X118.655 Y34.433
G1 F1380 X37.503 Y115.585 E781.78929
G0 F10500 X36.796 Y115.585
G1 F1380 X117.948 Y34.433 E784.03806
G0 F10500 X117.241 Y34.433
G1 F1380 X36.089 Y115.585 E786.28683
G0 F10500 X35.382 Y115.585
G1 F1380 X116.534 Y34.433 E788.53559
G0 F10500 X115.826 Y34.433
G1 F1380 X34.675 Y115.585 E790.78435
G0 F10500 X33.967 Y115.585
G1 F1380 X115.119 Y34.433 E793.03312
G0 F10500 X114.412 Y34.433
G1 F1380 X33.260 Y115.585 E795.28188
G0 F10500 X32.553 Y115.585
G1 F1380 X113.705 Y34.433 E797.53065
G0 F10500 X112.998 Y34.433
G1 F1380 X31.846 Y115.585 E799.77942
G0 F10500 X31.139 Y115.585
G1 F1380 X112.291 Y34.433 E802.02819
G0 F10500 X111.584 Y34.433
G1 F1380 X30.432 Y115.585 E804.27695
G0 F10500 X29.725 Y115.585
G1 F1380 X110.877 Y34.433 E806.52572
G0 F10500 X110.170 Y34.433
G1 F1380 X29.018 Y115.585 E808.77449
G0 F10500 X28.311 Y115.585
G1 F1380 X109.462 Y34.433 E811.02324
G0 F10500 X108.755 Y34.433
G1 F1380 X27.604 Y115.585 E813.27200
G0 F10500 X27.256 Y115.225
G1 F1380 X108.048 Y34.433 E815.51079
G0 F10500 X107.341 Y34.433
G1 F1380 X27.256 Y114.518 E817.72999
G0 F10500 X27.256 Y113.810
G1 F1380 X106.634 Y34.433 E819.92959
G0 F10500 X105.927 Y34.433
G1 F1380 X27.256 Y113.103 E822.10959
G0 F10500 X27.256 Y112.396
G1 F1380 X105.220 Y34.433 E824.27000
G0 F10500 X104.513 Y34.433
G1 F1380 X27.256 Y111.689 E826.41083
G0 F10500 X27.256 Y110.982
G1 F1380 X103.806 Y34.433 E828.53206
G0 F10500 X103.098 Y34.433
G1 F1380 X27.256 Y110.275 E830.63368
G0 F10500 X27.256 Y109.568
G1 F1380 X102.391 Y34.433 E832.71571
G0 F10500 X101.684 Y34.433
G1 F1380 X27.256 Y108.861 E834.77816
G0 F10500 X27.256 Y108.154
G1 F1380 X58.460 Y76.950 E835.64284
G0 F10500 X57.492 Y77.211
G1 F1380 X27.256 Y107.446 E836.48068
G0 F10500 X27.256 Y106.739
G1 F1380 X56.920 Y77.076 E837.30267
G0 F10500 X56.363 Y76.926
G1 F1380 X27.256 Y106.032 E838.10923
G0 F10500 X27.256 Y105.325
G1 F1380 X55.982 Y76.600 E838.90523
G0 F10500 X55.628 Y76.246
G1 F1380 X30.288 Y101.586 E839.60741
G0 F10500 X29.846 Y102.029
G1 F1380 X27.256 Y104.618 E839.67917
G0 F10500 X27.256 Y103.911
G1 F1380 X29.139 Y102.029 E839.73134
G0 F10500 X28.432 Y102.029
G1 F1380 X27.256 Y103.204 E839.76391
G0 F10500 X27.256 Y102.497
G1 F1380 X27.724 Y102.029 E839.77688
G0 F10500 X30.005 Y101.746
G0 X30.288 Y100.879
G1 F1380 X55.367 Y75.801 E840.47182
G0 F10500 X55.217 Y75.243
G1 F1380 X30.288 Y100.172 E841.16262
G0 F10500 X30.288 Y99.465
G1 F1380 X55.212 Y74.541 E841.85327
G0 F10500 X57.114 Y72.639
G1 F1380 X76.961 Y52.792 E842.40324
G0 F10500 X76.966 Y53.494
G1 F1380 X57.816 Y72.644 E842.93390
G0 F10500 X58.373 Y72.794
G1 F1380 X77.116 Y54.051 E843.45328
G0 F10500 X77.378 Y54.496
G1 F1380 X58.819 Y73.056 E843.96758
G0 F10500 X59.172 Y73.409
G1 F1380 X77.732 Y54.850 E844.48187
G0 F10500 X78.113 Y55.176
G1 F1380 X59.499 Y73.790 E844.99767
G0 F10500 X59.650 Y74.346
G1 F1380 X78.669 Y55.326 E845.52472
G0 F10500 X79.240 Y55.463
G1 F1380 X59.785 Y74.918 E846.06382
G0 F10500 X59.523 Y75.887
G1 F1380 X80.208 Y55.202 E846.63702
G0 F10500 X81.271 Y54.139
G1 F1380 X100.977 Y34.433 E847.18308
G0 F10500 X100.270 Y34.433
G1 F1380 X81.532 Y53.171 E847.70232
G0 F10500 X81.397 Y52.598
G1 F1380 X99.563 Y34.433 E848.20570
G0 F10500 X98.856 Y34.433
G1 F1380 X81.247 Y52.042 E848.69365
G0 F10500 X80.922 Y51.660
G1 F1380 X98.149 Y34.433 E849.17102
G0 F10500 X97.442 Y34.433
G1 F1380 X80.569 Y51.306 E849.63858
G0 F10500 X80.123 Y51.044
G1 F1380 X96.735 Y34.433 E850.09890
G0 F10500 X96.027 Y34.433
G1 F1380 X79.565 Y50.895 E850.55507
G0 F10500 X78.862 Y50.891
G1 F1380 X95.320 Y34.433 E851.01113
G0 F10500 X94.613 Y34.433
G1 F1380 X30.288 Y98.758 E852.79361
G0 F10500 X30.288 Y98.050
G1 F1380 X93.906 Y34.433 E854.55649
G0 F10500 X93.199 Y34.433
G1 F1380 X30.288 Y97.343 E856.29978
G0 F10500 X30.288 Y96.636
G1 F1380 X92.492 Y34.433 E858.02347
G0 F10500 X91.785 Y34.433
G1 F1380 X30.288 Y95.929 E859.72757
G0 F10500 X30.288 Y95.222
G1 F1380 X91.078 Y34.433 E861.41208
G0 F10500 X90.371 Y34.433
G1 F1380 X30.288 Y94.515 E863.07700
G0 F10500 X30.288 Y93.808
G1 F1380 X89.663 Y34.433 E864.72232
G0 F10500 X88.956 Y34.433
G1 F1380 X30.288 Y93.101 E866.34804
G0 F10500 X30.288 Y92.394
G1 F1380 X88.249 Y34.433 E867.95417
G0 F10500 X87.542 Y34.433
G1 F1380 X30.288 Y91.687 E869.54072
G0 F10500 X30.288 Y90.979
G1 F1380 X86.835 Y34.433 E871.10765
G0 F10500 X86.128 Y34.433
G1 F1380 X30.288 Y90.272 E872.65500
G0 F10500 X29.621 Y90.233
G1 F1380 X85.421 Y34.433 E874.20125
G0 F10500 X84.714 Y34.433
G1 F1380 X28.914 Y90.233 E875.74749
G0 F10500 X28.207 Y90.233
G1 F1380 X84.007 Y34.433 E877.29374
G0 F10500 X83.300 Y34.433
G1 F1380 X27.500 Y90.233 E878.83999
G0 F10500 X27.257 Y89.768
G1 F1380 X82.592 Y34.433 E880.37336
G0 F10500 X81.885 Y34.433
G1 F1380 X27.257 Y89.061 E881.88713
G0 F10500 X27.257 Y88.354
G1 F1380 X81.178 Y34.433 E883.38131
G0 F10500 X80.471 Y34.433
G1 F1380 X27.257 Y87.647 E884.85590
G0 F10500 X27.257 Y86.940
G1 F1380 X79.764 Y34.433 E886.31090
G0 F10500 X79.057 Y34.433
G1 F1380 X27.257 Y86.233 E887.74631
G0 F10500 X27.257 Y85.525
G1 F1380 X78.350 Y34.433 E889.16211
G0 F10500 X77.643 Y34.433
G1 F1380 X27.257 Y84.818 E890.55832
G0 F10500 X27.257 Y84.111
G1 F1380 X76.936 Y34.433 E891.93494
G0 F10500 X76.228 Y34.433
G1 F1380 X27.257 Y83.404 E893.29196
G0 F10500 X27.257 Y82.697
G1 F1380 X75.521 Y34.433 E894.62938
G0 F10500 X74.814 Y34.433
G1 F1380 X27.257 Y81.990 E895.94721
G0 F10500 X27.257 Y81.283
G1 F1380 X74.107 Y34.433 E897.24545
G0 F10500 X73.400 Y34.433
G1 F1380 X27.257 Y80.576 E898.52410
G0 F10500 X27.257 Y79.869
G1 F1380 X72.693 Y34.433 E899.78316
G0 F10500 X71.986 Y34.433
G1 F1380 X27.257 Y79.162 E901.02262
G0 F10500 X27.257 Y78.454
G1 F1380 X71.279 Y34.433 E902.24248
G0 F10500 X70.572 Y34.433
G1 F1380 X27.257 Y77.747 E903.44275
G0 F10500 X27.257 Y77.040
G1 F1380 X69.864 Y34.433 E904.62342
G0 F10500 X69.157 Y34.433
G1 F1380 X27.257 Y76.333 E905.78449
G0 F10500 X27.257 Y75.626
G1 F1380 X68.450 Y34.433 E906.92597
G0 F10500 X67.743 Y34.433
G1 F1380 X27.257 Y74.919 E908.04786
G0 F10500 X27.257 Y74.212
G1 F1380 X67.036 Y34.433 E909.15016
G0 F10500 X66.329 Y34.433
G1 F1380 X27.257 Y73.505 E910.23287
G0 F10500 X27.257 Y72.798
G1 F1380 X65.622 Y34.433 E911.29598
G0 F10500 X64.915 Y34.433
G1 F1380 X27.257 Y72.090 E912.33949
G0 F10500 X27.257 Y71.383
G1 F1380 X64.208 Y34.433 E913.36341
G0 F10500 X63.501 Y34.433
G1 F1380 X27.257 Y70.676 E914.36774
G0 F10500 X27.257 Y69.969
G1 F1380 X62.793 Y34.433 E915.35246
G0 F10500 X62.086 Y34.433
G1 F1380 X27.257 Y69.262 E916.31759
G0 F10500 X27.257 Y68.555
G1 F1380 X61.379 Y34.433 E917.26313
G0 F10500 X60.672 Y34.433
G1 F1380 X27.257 Y67.848 E918.18908
G0 F10500 X27.257 Y67.141
G1 F1380 X59.965 Y34.433 E919.09544
G0 F10500 X59.258 Y34.433
G1 F1380 X27.257 Y66.434 E919.98221
G0 F10500 X27.257 Y65.726
G1 F1380 X58.551 Y34.433 E920.84937
G0 F10500 X57.844 Y34.433
G1 F1380 X30.289 Y61.987 E921.61292
G0 F10500 X30.008 Y62.269
G1 F1380 X27.257 Y65.019 E921.68913
G0 F10500 X27.257 Y64.312
G1 F1380 X29.301 Y62.269 E921.74576
G0 F10500 X28.593 Y62.269
G1 F1380 X27.257 Y63.605 E921.78278
G0 F10500 X27.257 Y62.898
G1 F1380 X27.886 Y62.269 E921.80021
G0 F10500 X30.005 Y61.986
G0 X30.289 Y61.280
G1 F1380 X57.137 Y34.433 E922.54417
G0 F10500 X56.429 Y34.433
G1 F1380 X30.289 Y60.573 E923.26853
G0 F10500 X30.289 Y59.866
G1 F1380 X55.722 Y34.433 E923.97329
G0 F10500 X55.015 Y34.433
G1 F1380 X30.289 Y59.159 E924.65846
G0 F10500 X30.289 Y58.452
G1 F1380 X54.308 Y34.433 E925.32404
G0 F10500 X53.601 Y34.433
G1 F1380 X30.289 Y57.745 E925.97003
G0 F10500 X30.289 Y57.038
G1 F1380 X52.894 Y34.433 E926.59643
G0 F10500 X52.187 Y34.433
G1 F1380 X30.289 Y56.330 E927.20322
G0 F10500 X30.289 Y55.623
G1 F1380 X51.480 Y34.433 E927.79042
G0 F10500 X50.773 Y34.433
G1 F1380 X30.289 Y54.916 E928.35803
G0 F10500 X30.289 Y54.209
G1 F1380 X50.065 Y34.433 E928.90603
G0 F10500 X49.358 Y34.433
G1 F1380 X30.289 Y53.502 E929.43445
G0 F10500 X30.289 Y52.795
G1 F1380 X48.651 Y34.433 E929.94327
G0 F10500 X47.944 Y34.433
G1 F1380 X30.289 Y52.088 E930.43250
G0 F10500 X30.289 Y51.381
G1 F1380 X47.237 Y34.433 E930.90214
G0 F10500 X46.530 Y34.433
G1 F1380 X30.289 Y50.674 E931.35218
G0 F10500 X29.783 Y50.473
G1 F1380 X45.823 Y34.433 E931.79666
G0 F10500 X45.116 Y34.433
G1 F1380 X29.076 Y50.473 E932.24114
G0 F10500 X28.369 Y50.473
G1 F1380 X44.409 Y34.433 E932.68562
G0 F10500 X43.702 Y34.433
G1 F1380 X27.662 Y50.473 E933.13009
G0 F10500 X27.257 Y50.170
G1 F1380 X42.994 Y34.433 E933.56617
G0 F10500 X42.287 Y34.433
G1 F1380 X27.257 Y49.463 E933.98266
G0 F10500 X27.257 Y48.756
G1 F1380 X41.580 Y34.433 E934.37956
G0 F10500 X40.873 Y34.433
G1 F1380 X27.257 Y48.049 E934.75687
G0 F10500 X27.257 Y47.342
G1 F1380 X40.166 Y34.433 E935.11459
G0 F10500 X39.459 Y34.433
G1 F1380 X27.257 Y46.635 E935.45271
G0 F10500 X27.257 Y45.927
G1 F1380 X38.752 Y34.433 E935.77123
G0 F10500 X38.045 Y34.433
G1 F1380 X27.257 Y45.220 E936.07016
G0 F10500 X27.257 Y44.513
G1 F1380 X37.338 Y34.433 E936.34949
G0 F10500 X36.630 Y34.433
G1 F1380 X27.257 Y43.806 E936.60922
G0 F10500 X27.257 Y43.099
G1 F1380 X35.923 Y34.433 E936.84936
G0 F10500 X35.216 Y34.433
G1 F1380 X27.257 Y42.392 E937.06991
G0 F10500 X27.257 Y41.685
G1 F1380 X34.509 Y34.433 E937.27087
G0 F10500 X33.802 Y34.433
G1 F1380 X27.257 Y40.978 E937.45223
G0 F10500 X27.257 Y40.271
G1 F1380 X33.095 Y34.433 E937.61401
G0 F10500 X32.388 Y34.433
G1 F1380 X27.257 Y39.564 E937.75619
G0 F10500 X27.257 Y38.856
G1 F1380 X31.681 Y34.433 E937.87877
G0 F10500 X30.974 Y34.433
G1 F1380 X27.257 Y38.149 E937.98176
G0 F10500 X27.257 Y37.442
G1 F1380 X30.266 Y34.433 E938.06514
G0 F10500 X29.559 Y34.433
G1 F1380 X27.257 Y36.735 E938.12893
G0 F10500 X27.257 Y36.028
G1 F1380 X28.852 Y34.433 E938.17313
G0 F10500 X28.145 Y34.433
G1 F1380 X27.257 Y35.321 E938.19773
G0 F10500 X27.257 Y34.614
G1 F1380 X27.438 Y34.433 E938.20275
G0 F10500 X129.484 Y50.473
G1 F1380 X131.405 Y48.553 E938.25597
G0 F10500 X131.405 Y49.260
G1 F1380 X130.191 Y50.473 E938.28959
G0 F10500 X130.898 Y50.473
G1 F1380 X131.405 Y49.967 E938.30363
;LAYER:2
G0 F10500 X131.581 Y50.649 Z0.925
;TYPE:WALL-INNER
G1 F1440 X128.549 Y50.649 E938.36304
G1 X128.549 Y62.095 E938.58731
G1 X131.581 Y62.095 E938.64672
G1 X131.581 Y90.409 E939.20152
G1 X128.549 Y90.409 E939.26093
G1 X128.549 Y101.855 E939.48521
G1 X131.581 Y101.855 E939.54462
G1 X131.581 Y115.760 E939.81707
G1 X27.082 Y115.760 E941.86466
G1 X27.082 Y101.855 E942.13712
G1 X30.114 Y101.855 E942.19653
G1 X30.114 Y90.409 E942.42081
G1 X27.082 Y90.409 E942.48022
G1 X27.082 Y62.095 E943.03501
G1 X30.114 Y62.095 E943.09442
G1 X30.114 Y50.649 E943.31870
G1 X27.082 Y50.649 E943.37811
G1 X27.082 Y34.259 E943.69926
G1 X131.581 Y34.259 E945.74685
G1 X131.581 Y50.649 E946.06800
G0 F10500 X81.361 Y53.135
G1 F1440 X81.071 Y52.058 E946.08985
G1 X80.285 Y51.270 E946.11166
G1 X79.207 Y50.980 E946.13354
G1 X78.130 Y51.270 E946.15539
G1 X77.342 Y52.058 E946.17723
G1 X77.052 Y53.135 E946.19908
G1 X77.342 Y54.212 E946.22094
G1 X78.130 Y55.000 E946.24277
G1 X79.207 Y55.290 E946.26463
G1 X80.285 Y55.000 E946.28650
G1 X81.071 Y54.212 E946.30831
G1 X81.361 Y53.135 E946.33016
G0 F10500 X81.020 Y54.182
G0 X80.255 Y54.949
G0 X59.322 Y73.808
G1 F1440 X58.534 Y73.020 E946.35200
G1 X57.457 Y72.730 E946.37385
G1 X56.380 Y73.020 E946.39571
G1 X55.592 Y73.808 E946.41754
G1 X55.302 Y74.885 E946.43940
G1 X55.592 Y75.962 E946.46125
G1 X56.380 Y76.750 E946.48309
G1 X57.457 Y77.040 E946.50494
G1 X58.534 Y76.750 E946.52680
G1 X59.322 Y75.962 E946.54864
G1 X59.612 Y74.885 E946.57049
G1 X59.322 Y73.808 E946.59234
G0 F10500 X78.130 Y95.019
G1 F1440 X77.342 Y95.807 E946.61418
G1 X77.052 Y96.884 E946.63604
G1 X77.342 Y97.961 E946.65789
G1 X78.130 Y98.749 E946.67973
G1 X79.207 Y99.039 E946.70158
G1 X80.285 Y98.749 E946.72345
G1 X81.071 Y97.961 E946.74526
G1 X81.361 Y96.884 E946.76712
G1 X81.071 Y95.807 E946.78897
G1 X80.285 Y95.019 E946.81078
G1 X79.207 Y94.729 E946.83265
G1 X78.130 Y95.019 E946.85451
G0 F10500 X78.389 Y95.467
;TYPE:WALL-OUTER
G1 F1320 X77.790 Y96.066 E946.87111
G1 X77.570 Y96.884 E946.88771
G1 X77.790 Y97.702 E946.90430
G1 X78.389 Y98.301 E946.92090
G1 X79.207 Y98.521 E946.93750
G1 X80.026 Y98.301 E946.95412
G1 X80.623 Y97.702 E946.97069
G1 X80.843 Y96.884 E946.98728
G1 X80.623 Y96.066 E947.00388
G1 X80.026 Y95.467 E947.02045
G1 X79.207 Y95.247 E947.03707
G1 X78.389 Y95.467 E947.05367
G0 F10500 X78.143 Y95.219
G0 X59.211 Y75.794
G0 X58.874 Y75.703
G1 F1320 X59.094 Y74.885 E947.07027
G1 X58.874 Y74.067 E947.08686
G1 X58.275 Y73.468 E947.10346
G1 X57.457 Y73.248 E947.12006
G1 X56.639 Y73.468 E947.13666
G1 X56.040 Y74.067 E947.15326
G1 X55.820 Y74.885 E947.16985
G1 X56.040 Y75.703 E947.18645
G1 X56.639 Y76.302 E947.20305
G1 X57.457 Y76.522 E947.21965
G1 X58.275 Y76.302 E947.23625
G1 X58.874 Y75.703 E947.25284
G0 F10500 X59.211 Y75.794
G0 X78.298 Y54.889
G0 X78.389 Y54.552
G1 F1320 X79.207 Y54.772 E947.26944
G1 X80.026 Y54.552 E947.28606
G1 X80.623 Y53.953 E947.30263
G1 X80.843 Y53.135 E947.31923
G1 X80.623 Y52.317 E947.33582
G1 X80.026 Y51.718 E947.35240
G1 X79.207 Y51.498 E947.36901
G1 X78.389 Y51.718 E947.38561
G1 X77.790 Y52.317 E947.40221
G1 X77.570 Y53.135 E947.41881
G1 X77.790 Y53.953 E947.43540
G1 X78.389 Y54.552 E947.45200
G0 F10500 X78.298 Y54.889
G0 X29.964 Y51.149
G0 X29.614 Y51.149
G1 F1320 X26.582 Y51.149 E947.51141
G1 X26.582 Y33.759 E947.85216
G1 X132.081 Y33.759 E949.91934
G1 X132.081 Y51.149 E950.26009
G1 X129.049 Y51.149 E950.31950
G1 X129.049 Y61.595 E950.52418
G1 X132.081 Y61.595 E950.58359
G1 X132.081 Y90.909 E951.15798
G1 X129.049 Y90.909 E951.21739
G1 X129.049 Y101.355 E951.42207
G1 X132.081 Y101.355 E951.48148
G1 X132.081 Y116.260 E951.77353
G1 X26.582 Y116.260 E953.84071
G1 X26.582 Y101.355 E954.13277
G1 X29.614 Y101.355 E954.19218
G1 X29.614 Y90.909 E954.39686
G1 X26.582 Y90.909 E954.45627
G1 X26.582 Y61.595 E955.03066
G1 X29.614 Y61.595 E955.09007
G1 X29.614 Y51.149 E955.29475
G0 F10500 X30.289 Y51.149
;TYPE:SKIN
G1 F1920 X77.182 Y98.042 E956.59418
G0 F10500 X76.921 Y97.073
G1 F1920 X56.925 Y77.078 E957.14827
G0 F10500 X57.708 Y77.153
G1 F1920 X76.990 Y96.435 E957.68258
G0 F10500 X77.141 Y95.879
G1 F1920 X58.265 Y77.003 E958.20565
G0 F10500 X58.749 Y76.781
G1 F1920 X77.434 Y95.465 E958.72341
G0 F10500 X77.788 Y95.112
G1 F1920 X59.103 Y76.427 E959.24118
G0 F10500 X59.457 Y76.074
G1 F1920 X78.200 Y94.817 E959.76056
G0 F10500 X78.757 Y94.667
G1 F1920 X59.619 Y75.529 E960.29088
G0 F10500 X59.769 Y74.972
G1 F1920 X79.393 Y94.596 E960.83467
G0 F10500 X81.020 Y95.837
G0 X81.302 Y96.884
G0 X81.020 Y97.931
G0 X80.255 Y98.698
G0 X79.654 Y99.100
G1 F1920 X96.138 Y115.584 E961.29146
G0 F10500 X95.431 Y115.584
G1 F1920 X79.017 Y99.169 E961.74631
G0 F10500 X78.049 Y98.908
G1 F1920 X94.724 Y115.584 E962.20840
G0 F10500 X94.017 Y115.584
G1 F1920 X30.289 Y51.856 E963.97434
G0 F10500 X30.289 Y52.563
G1 F1920 X93.310 Y115.584 E965.72069
G0 F10500 X92.603 Y115.584
G1 F1920 X30.289 Y53.270 E967.44744
G0 F10500 X30.289 Y53.977
G1 F1920 X91.896 Y115.584 E969.15461
G0 F10500 X91.189 Y115.584
G1 F1920 X30.289 Y54.684 E970.84218
G0 F10500 X30.289 Y55.391
G1 F1920 X90.482 Y115.584 E972.51016
G0 F10500 X89.774 Y115.584
G1 F1920 X30.289 Y56.099 E974.15853
G0 F10500 X30.289 Y56.806
G1 F1920 X89.067 Y115.584 E975.78730
G0 F10500 X88.360 Y115.584
G1 F1920 X30.289 Y57.513 E977.39648
G0 F10500 X30.289 Y58.220
G1 F1920 X87.653 Y115.584 E978.98607
G0 F10500 X86.946 Y115.584
G1 F1920 X30.289 Y58.927 E980.55606
G0 F10500 X30.289 Y59.634
G1 F1920 X86.239 Y115.584 E982.10647
G0 F10500 X85.532 Y115.584
G1 F1920 X30.289 Y60.341 E983.63728
G0 F10500 X30.289 Y61.048
G1 F1920 X84.825 Y115.584 E985.14851
G0 F10500 X84.118 Y115.584
G1 F1920 X30.289 Y61.755 E986.64014
G0 F10500 X30.095 Y62.269
G1 F1920 X83.411 Y115.584 E988.11754
G0 F10500 X82.703 Y115.584
G1 F1920 X29.388 Y62.269 E989.59493
G0 F10500 X28.681 Y62.269
G1 F1920 X81.996 Y115.584 E991.07232
G0 F10500 X81.289 Y115.584
G1 F1920 X27.974 Y62.269 E992.54971
G0 F10500 X27.267 Y62.269
G1 F1920 X80.582 Y115.584 E994.02710
G0 F10500 X96.846 Y115.584
G1 F1920 X80.212 Y98.950 E994.48804
G0 F10500 X80.624 Y98.655
G1 F1920 X97.553 Y115.584 E994.95715
G0 F10500 X98.260 Y115.584
G1 F1920 X80.977 Y98.301 E995.43607
G0 F10500 X81.271 Y97.888
G1 F1920 X98.967 Y115.584 E995.92644
G0 F10500 X99.674 Y115.584
G1 F1920 X81.421 Y97.331 E996.43224
G0 F10500 X81.491 Y96.694
G1 F1920 X100.381 Y115.584 E996.95569
G0 F10500 X101.088 Y115.584
G1 F1920 X81.230 Y95.725 E997.50598
G0 F10500 X80.360 Y94.856
G1 F1920 X59.574 Y74.070 E998.08197
G0 F10500 X58.270 Y72.766
G1 F1920 X27.257 Y41.753 E998.94136
G0 F10500 X27.257 Y42.460
G1 F1920 X57.368 Y72.571 E999.77575
G0 F10500 X56.811 Y72.720
G1 F1920 X27.257 Y43.167 E1000.59470
G0 F10500 X27.257 Y43.874
G1 F1920 X56.267 Y72.884 E1001.39858
G0 F10500 X55.913 Y73.237
G1 F1920 X27.257 Y44.581 E1002.19265
G0 F10500 X27.257 Y45.288
G1 F1920 X55.560 Y73.591 E1002.97695
G0 F10500 X55.338 Y74.076
G1 F1920 X27.257 Y45.995 E1003.75509
G0 F10500 X27.257 Y46.702
G1 F1920 X55.188 Y74.633 E1004.52907
G0 F10500 X55.263 Y75.416
G1 F1920 X27.257 Y47.410 E1005.30513
G0 F10500 X27.257 Y48.117
G1 F1920 X29.613 Y50.473 E1005.37042
G0 F10500 X28.906 Y50.473
G1 F1920 X27.257 Y48.824 E1005.41611
G0 F10500 X27.257 Y49.531
G1 F1920 X28.199 Y50.473 E1005.44222
G0 F10500 X27.492 Y50.473
G1 F1920 X27.257 Y50.238 E1005.44873
G0 F10500 X27.257 Y41.046
G1 F1920 X101.795 Y115.584 E1007.51422
G0 F10500 X102.502 Y115.584
G1 F1920 X27.257 Y40.339 E1009.59930
G0 F10500 X27.257 Y39.631
G1 F1920 X103.210 Y115.584 E1011.70400
G0 F10500 X103.917 Y115.584
G1 F1920 X27.257 Y38.924 E1013.82829
G0 F10500 X27.257 Y38.217
G1 F1920 X104.624 Y115.584 E1015.97218
G0 F10500 X105.331 Y115.584
G1 F1920 X27.257 Y37.510 E1018.13565
G0 F10500 X27.257 Y36.803
G1 F1920 X106.038 Y115.584 E1020.31872
G0 F10500 X106.745 Y115.584
G1 F1920 X27.257 Y36.096 E1022.52138
G0 F10500 X27.257 Y35.389
G1 F1920 X107.452 Y115.584 E1024.74362
G0 F10500 X108.159 Y115.584
G1 F1920 X27.257 Y34.682 E1026.98546
G0 F10500 X27.716 Y34.433
G1 F1920 X108.866 Y115.584 E1029.23419
G0 F10500 X109.573 Y115.584
G1 F1920 X28.423 Y34.433 E1031.48292
G0 F10500 X29.130 Y34.433
G1 F1920 X110.281 Y115.584 E1033.73166
G0 F10500 X110.988 Y115.584
G1 F1920 X29.837 Y34.433 E1035.98040
G0 F10500 X30.544 Y34.433
G1 F1920 X111.695 Y115.584 E1038.22914
G0 F10500 X112.402 Y115.584
G1 F1920 X31.251 Y34.433 E1040.47788
G0 F10500 X31.959 Y34.433
G1 F1920 X113.109 Y115.584 E1042.72660
G0 F10500 X113.816 Y115.584
G1 F1920 X32.666 Y34.433 E1044.97533
G0 F10500 X33.373 Y34.433
G1 F1920 X114.523 Y115.584 E1047.22406
G0 F10500 X115.230 Y115.584
G1 F1920 X34.080 Y34.433 E1049.47278
G0 F10500 X34.787 Y34.433
G1 F1920 X115.937 Y115.584 E1051.72151
G0 F10500 X116.645 Y115.584
G1 F1920 X35.494 Y34.433 E1053.97025
G0 F10500 X36.201 Y34.433
G1 F1920 X117.352 Y115.584 E1056.21899
G0 F10500 X118.059 Y115.584
G1 F1920 X36.908 Y34.433 E1058.46773
G0 F10500 X37.615 Y34.433
G1 F1920 X118.766 Y115.584 E1060.71647
G0 F10500 X119.473 Y115.584
G1 F1920 X38.323 Y34.433 E1062.96520
G0 F10500 X39.030 Y34.433
G1 F1920 X120.180 Y115.584 E1065.21392
G0 F10500 X120.887 Y115.584
G1 F1920 X39.737 Y34.433 E1067.46265
G0 F10500 X40.444 Y34.433
G1 F1920 X121.594 Y115.584 E1069.71138
G0 F10500 X122.301 Y115.584
G1 F1920 X41.151 Y34.433 E1071.96010
G0 F10500 X41.858 Y34.433
G1 F1920 X123.009 Y115.584 E1074.20884
G0 F10500 X123.716 Y115.584
G1 F1920 X42.565 Y34.433 E1076.45758
G0 F10500 X43.272 Y34.433
G1 F1920 X124.423 Y115.584 E1078.70632
G0 F10500 X125.130 Y115.584
G1 F1920 X43.979 Y34.433 E1080.95506
G0 F10500 X44.687 Y34.433
G1 F1920 X125.837 Y115.584 E1083.20379
G0 F10500 X126.544 Y115.584
G1 F1920 X45.394 Y34.433 E1085.45252
G0 F10500 X46.101 Y34.433
G1 F1920 X127.251 Y115.584 E1087.70124
G0 F10500 X127.958 Y115.584
G1 F1920 X46.808 Y34.433 E1089.94997
G0 F10500 X47.515 Y34.433
G1 F1920 X128.665 Y115.584 E1092.19870
G0 F10500 X129.372 Y115.584
G1 F1920 X48.222 Y34.433 E1094.44742
G0 F10500 X48.929 Y34.433
G1 F1920 X130.080 Y115.584 E1096.69616
G0 F10500 X130.787 Y115.584
G1 F1920 X49.636 Y34.433 E1098.94490
G0 F10500 X50.343 Y34.433
G1 F1920 X131.405 Y115.495 E1101.19118
G0 F10500 X131.405 Y114.788
G1 F1920 X51.050 Y34.433 E1103.41786
G0 F10500 X51.758 Y34.433
G1 F1920 X131.405 Y114.081 E1105.62494
G0 F10500 X131.405 Y113.374
G1 F1920 X52.465 Y34.433 E1107.81242
G0 F10500 X53.172 Y34.433
G1 F1920 X131.405 Y112.667 E1109.98032
G0 F10500 X131.405 Y111.960
G1 F1920 X53.879 Y34.433 E1112.12862
G0 F10500 X54.586 Y34.433
G1 F1920 X131.405 Y111.253 E1114.25733
G0 F10500 X131.405 Y110.546
G1 F1920 X55.293 Y34.433 E1116.36645
G0 F10500 X56.000 Y34.433
G1 F1920 X131.405 Y109.839 E1118.45598
G0 F10500 X131.405 Y109.132
G1 F1920 X56.707 Y34.433 E1120.52592
G0 F10500 X57.414 Y34.433
G1 F1920 X77.148 Y54.167 E1121.07276
G0 F10500 X76.887 Y53.199
G1 F1920 X58.122 Y34.433 E1121.59276
G0 F10500 X58.829 Y34.433
G1 F1920 X77.010 Y52.615 E1122.09658
G0 F10500 X77.160 Y52.057
G1 F1920 X59.536 Y34.433 E1122.58495
G0 F10500 X60.243 Y34.433
G1 F1920 X77.480 Y51.671 E1123.06261
G0 F10500 X77.834 Y51.317
G1 F1920 X60.950 Y34.433 E1123.53048
G0 F10500 X61.657 Y34.433
G1 F1920 X78.273 Y51.049 E1123.99092
G0 F10500 X78.830 Y50.899
G1 F1920 X62.364 Y34.433 E1124.44720
G0 F10500 X63.071 Y34.433
G1 F1920 X79.519 Y50.881 E1124.90298
G0 F10500 X81.020 Y52.088
G0 X81.302 Y53.135
G0 X81.020 Y54.182
G0 X79.727 Y55.332
G1 F1920 X131.405 Y107.010 E1126.33501
G0 F10500 X131.405 Y107.717
G1 F1920 X79.143 Y55.455 E1127.78322
G0 F10500 X78.174 Y55.193
G1 F1920 X131.405 Y108.424 E1129.25828
G0 F10500 X131.405 Y106.303
G1 F1920 X80.284 Y55.182 E1130.67487
G0 F10500 X80.670 Y54.860
G1 F1920 X131.405 Y105.596 E1132.08078
G0 F10500 X131.405 Y104.889
G1 F1920 X128.547 Y102.030 E1132.15999
G0 F10500 X128.373 Y101.857
G1 F1920 X81.023 Y54.506 E1133.47210
G0 F10500 X81.290 Y54.066
G1 F1920 X128.373 Y101.150 E1134.77681
G0 F10500 X128.373 Y100.443
G1 F1920 X81.440 Y53.509 E1136.07737
G0 F10500 X81.456 Y52.818
G1 F1920 X128.373 Y99.735 E1137.37746
G0 F10500 X128.373 Y99.028
G1 F1920 X63.778 Y34.433 E1139.16743
G0 F10500 X64.486 Y34.433
G1 F1920 X128.373 Y98.321 E1140.93779
G0 F10500 X128.373 Y97.614
G1 F1920 X65.193 Y34.433 E1142.68855
G0 F10500 X65.900 Y34.433
G1 F1920 X128.373 Y96.907 E1144.41973
G0 F10500 X128.373 Y96.200
G1 F1920 X66.607 Y34.433 E1146.13131
G0 F10500 X67.314 Y34.433
G1 F1920 X128.373 Y95.493 E1147.82331
G0 F10500 X128.373 Y94.786
G1 F1920 X68.021 Y34.433 E1149.49571
G0 F10500 X68.728 Y34.433
G1 F1920 X128.373 Y94.079 E1151.14852
G0 F10500 X128.373 Y93.372
G1 F1920 X69.435 Y34.433 E1152.78174
G0 F10500 X70.142 Y34.433
G1 F1920 X128.373 Y92.664 E1154.39535
G0 F10500 X128.373 Y91.957
G1 F1920 X70.849 Y34.433 E1155.98938
G0 F10500 X71.557 Y34.433
G1 F1920 X128.373 Y91.250 E1157.56379
G0 F10500 X128.373 Y90.543
G1 F1920 X72.264 Y34.433 E1159.11862
G0 F10500 X72.971 Y34.433
G1 F1920 X128.771 Y90.233 E1160.66487
G0 F10500 X129.478 Y90.233
G1 F1920 X73.678 Y34.433 E1162.21112
G0 F10500 X74.385 Y34.433
G1 F1920 X130.185 Y90.233 E1163.75737
G0 F10500 X130.892 Y90.233
G1 F1920 X75.092 Y34.433 E1165.30362
G0 F10500 X75.799 Y34.433
G1 F1920 X131.405 Y90.040 E1166.84451
G0 F10500 X131.405 Y89.333
G1 F1920 X76.506 Y34.433 E1168.36580
G0 F10500 X77.213 Y34.433
G1 F1920 X131.405 Y88.625 E1169.86749
G0 F10500 X131.405 Y87.918
G1 F1920 X77.921 Y34.433 E1171.34958
G0 F10500 X78.628 Y34.433
G1 F1920 X131.405 Y87.211 E1172.81207
G0 F10500 X131.405 Y86.504
G1 F1920 X79.335 Y34.433 E1174.25498
G0 F10500 X80.042 Y34.433
G1 F1920 X131.405 Y85.797 E1175.67829
G0 F10500 X131.405 Y85.090
G1 F1920 X80.749 Y34.433 E1177.08201
G0 F10500 X81.456 Y34.433
G1 F1920 X131.405 Y84.383 E1178.46614
G0 F10500 X131.405 Y83.676
G1 F1920 X82.163 Y34.433 E1179.83067
G0 F10500 X82.870 Y34.433
G1 F1920 X131.405 Y82.969 E1181.17562
G0 F10500 X131.405 Y82.261
G1 F1920 X83.577 Y34.433 E1182.50096
G0 F10500 X84.285 Y34.433
G1 F1920 X131.405 Y81.554 E1183.80670
G0 F10500 X131.405 Y80.847
G1 F1920 X84.992 Y34.433 E1185.09284
G0 F10500 X85.699 Y34.433
G1 F1920 X131.405 Y80.140 E1186.35940
G0 F10500 X131.405 Y79.433
G1 F1920 X86.406 Y34.433 E1187.60636
G0 F10500 X87.113 Y34.433
G1 F1920 X131.405 Y78.726 E1188.83373
G0 F10500 X131.405 Y78.019
G1 F1920 X87.820 Y34.433 E1190.04151
G0 F10500 X88.527 Y34.433
G1 F1920 X131.405 Y77.312 E1191.22969
G0 F10500 X131.405 Y76.605
G1 F1920 X89.234 Y34.433 E1192.39829
G0 F10500 X89.941 Y34.433
G1 F1920 X131.405 Y75.898 E1193.54729
G0 F10500 X131.405 Y75.190
G1 F1920 X90.648 Y34.433 E1194.67669
G0 F10500 X91.356 Y34.433
G1 F1920 X131.405 Y74.483 E1195.78649
G0 F10500 X131.405 Y73.776
G1 F1920 X92.063 Y34.433 E1196.87669
G0 F10500 X92.770 Y34.433
G1 F1920 X131.405 Y73.069 E1197.94730
G0 F10500 X131.405 Y72.362
G1 F1920 X93.477 Y34.433 E1198.99832
G0 F10500 X94.184 Y34.433
G1 F1920 X131.405 Y71.655 E1200.02975
G0 F10500 X131.405 Y70.948
G1 F1920 X94.891 Y34.433 E1201.04159
G0 F10500 X95.598 Y34.433
G1 F1920 X131.405 Y70.241 E1202.03384
G0 F10500 X131.405 Y69.534
G1 F1920 X96.305 Y34.433 E1203.00649
G0 F10500 X97.012 Y34.433
G1 F1920 X131.405 Y68.826 E1203.95954
G0 F10500 X131.405 Y68.119
G1 F1920 X97.720 Y34.433 E1204.89298
G0 F10500 X98.427 Y34.433
G1 F1920 X131.405 Y67.412 E1205.80684
G0 F10500 X131.405 Y66.705
G1 F1920 X99.134 Y34.433 E1206.70110
G0 F10500 X99.841 Y34.433
G1 F1920 X131.405 Y65.998 E1207.57577
G0 F10500 X131.405 Y65.291
G1 F1920 X128.384 Y62.269 E1207.65950
G0 F10500 X128.373 Y62.258
G1 F1920 X100.548 Y34.433 E1208.43054
G0 F10500 X101.255 Y34.433
G1 F1920 X128.373 Y61.551 E1209.18200
G0 F10500 X128.373 Y60.844
G1 F1920 X101.962 Y34.433 E1209.91386
G0 F10500 X102.669 Y34.433
G1 F1920 X128.373 Y60.137 E1210.62613
G0 F10500 X128.658 Y61.986
G0 X129.091 Y62.269
G1 F1920 X131.405 Y64.584 E1210.69027
G0 F10500 X131.405 Y63.877
G1 F1920 X129.798 Y62.269 E1210.73482
G0 F10500 X130.505 Y62.269
G1 F1920 X131.405 Y63.170 E1210.75977
G0 F10500 X131.405 Y62.462
G1 F1920 X131.212 Y62.269 E1210.76512
G0 F10500 X128.658 Y61.986
G0 X128.373 Y59.430
G1 F1920 X103.376 Y34.433 E1211.45780
G0 F10500 X104.083 Y34.433
G1 F1920 X128.373 Y58.723 E1212.13089
G0 F10500 X128.373 Y58.015
G1 F1920 X104.791 Y34.433 E1212.78436
G0 F10500 X105.498 Y34.433
G1 F1920 X128.373 Y57.308 E1213.41824
G0 F10500 X128.373 Y56.601
G1 F1920 X106.205 Y34.433 E1214.03253
G0 F10500 X106.912 Y34.433
G1 F1920 X128.373 Y55.894 E1214.62722
G0 F10500 X128.373 Y55.187
G1 F1920 X107.619 Y34.433 E1215.20233
G0 F10500 X108.326 Y34.433
G1 F1920 X128.373 Y54.480 E1215.75784
G0 F10500 X128.373 Y53.773
G1 F1920 X109.033 Y34.433 E1216.29376
G0 F10500 X109.740 Y34.433
G1 F1920 X128.373 Y53.066 E1216.81009
G0 F10500 X128.373 Y52.359
G1 F1920 X110.447 Y34.433 E1217.30683
G0 F10500 X111.155 Y34.433
G1 F1920 X128.373 Y51.652 E1217.78397
G0 F10500 X128.373 Y50.944
G1 F1920 X111.862 Y34.433 E1218.24150
G0 F10500 X112.569 Y34.433
G1 F1920 X128.609 Y50.473 E1218.68597
G0 F10500 X129.316 Y50.473
G1 F1920 X113.276 Y34.433 E1219.13045
G0 F10500 X113.983 Y34.433
G1 F1920 X130.023 Y50.473 E1219.57493
G0 F10500 X130.730 Y50.473
G1 F1920 X114.690 Y34.433 E1220.01941
G0 F10500 X115.397 Y34.433
G1 F1920 X131.405 Y50.441 E1220.46300
G0 F10500 X131.405 Y49.734
G1 F1920 X116.104 Y34.433 E1220.88700
G0 F10500 X116.811 Y34.433
G1 F1920 X131.405 Y49.027 E1221.29141
G0 F10500 X131.405 Y48.320
G1 F1920 X117.519 Y34.433 E1221.67621
G0 F10500 X118.226 Y34.433
G1 F1920 X131.405 Y47.613 E1222.04142
G0 F10500 X131.405 Y46.905
G1 F1920 X118.933 Y34.433 E1222.38703
G0 F10500 X119.640 Y34.433
G1 F1920 X131.405 Y46.198 E1222.71304
G0 F10500 X131.405 Y45.491
G1 F1920 X120.347 Y34.433 E1223.01946
G0 F10500 X121.054 Y34.433
G1 F1920 X131.405 Y44.784 E1223.30630
G0 F10500 X131.405 Y44.077
G1 F1920 X121.761 Y34.433 E1223.57354
G0 F10500 X122.468 Y34.433
G1 F1920 X131.405 Y43.370 E1223.82119
G0 F10500 X131.405 Y42.663
G1 F1920 X123.175 Y34.433 E1224.04924
G0 F10500 X123.882 Y34.433
G1 F1920 X131.405 Y41.956 E1224.25771
G0 F10500 X131.405 Y41.249
G1 F1920 X124.590 Y34.433 E1224.44657
G0 F10500 X125.297 Y34.433
G1 F1920 X131.405 Y40.541 E1224.61583
G0 F10500 X131.405 Y39.834
G1 F1920 X126.004 Y34.433 E1224.76549
G0 F10500 X126.711 Y34.433
G1 F1920 X131.405 Y39.127 E1224.89557
G0 F10500 X131.405 Y38.420
G1 F1920 X127.418 Y34.433 E1225.00605
G0 F10500 X128.125 Y34.433
G1 F1920 X131.405 Y37.713 E1225.09694
G0 F10500 X131.405 Y37.006
G1 F1920 X128.832 Y34.433 E1225.16824
G0 F10500 X129.539 Y34.433
G1 F1920 X131.405 Y36.299 E1225.21995
G0 F10500 X131.405 Y35.592
G1 F1920 X130.246 Y34.433 E1225.25206
G0 F10500 X130.954 Y34.433
G1 F1920 X131.405 Y34.885 E1225.26457
G0 F10500 X128.658 Y50.758
G0 X128.658 Y61.986
G0 X128.658 Y101.746
G0 X130.668 Y102.030
G1 F1920 X131.405 Y102.768 E1225.28501
G0 F10500 X131.405 Y103.475
G1 F1920 X129.961 Y102.030 E1225.32504
G0 F10500 X129.254 Y102.030
G1 F1920 X131.405 Y104.182 E1225.38466
G0 F10500 X79.875 Y115.584
G1 F1920 X27.256 Y62.965 E1226.84276
G0 F10500 X27.256 Y63.672
G1 F1920 X79.168 Y115.584 E1228.28127
G0 F10500 X78.461 Y115.584
G1 F1920 X27.256 Y64.379 E1229.70019
G0 F10500 X27.256 Y65.087
G1 F1920 X77.754 Y115.584 E1231.09950
G0 F10500 X77.047 Y115.584
G1 F1920 X27.256 Y65.794 E1232.47923
G0 F10500 X27.256 Y66.501
G1 F1920 X76.339 Y115.584 E1233.83935
G0 F10500 X75.632 Y115.584
G1 F1920 X27.256 Y67.208 E1235.17987
G0 F10500 X27.256 Y67.915
G1 F1920 X74.925 Y115.584 E1236.50081
G0 F10500 X74.218 Y115.584
G1 F1920 X27.256 Y68.622 E1237.80215
G0 F10500 X27.256 Y69.329
G1 F1920 X73.511 Y115.584 E1239.08390
G0 F10500 X72.804 Y115.584
G1 F1920 X27.256 Y70.036 E1240.34606
G0 F10500 X27.256 Y70.743
G1 F1920 X72.097 Y115.584 E1241.58863
G0 F10500 X71.390 Y115.584
G1 F1920 X27.256 Y71.451 E1242.81160
G0 F10500 X27.256 Y72.158
G1 F1920 X70.683 Y115.584 E1244.01497
G0 F10500 X69.975 Y115.584
G1 F1920 X27.256 Y72.865 E1245.19874
G0 F10500 X27.256 Y73.572
G1 F1920 X69.268 Y115.584 E1246.36291
G0 F10500 X68.561 Y115.584
G1 F1920 X27.256 Y74.279 E1247.50750
G0 F10500 X27.256 Y74.986
G1 F1920 X67.854 Y115.584 E1248.63249
G0 F10500 X67.147 Y115.584
G1 F1920 X27.256 Y75.693 E1249.73790
G0 F10500 X27.256 Y76.400
G1 F1920 X66.440 Y115.584 E1250.82371
G0 F10500 X65.733 Y115.584
G1 F1920 X27.256 Y77.107 E1251.88993
G0 F10500 X27.256 Y77.814
G1 F1920 X65.026 Y115.584 E1252.93655
G0 F10500 X64.319 Y115.584
G1 F1920 X27.256 Y78.522 E1253.96358
G0 F10500 X27.256 Y79.229
G1 F1920 X63.612 Y115.584 E1254.97101
G0 F10500 X62.904 Y115.584
G1 F1920 X27.256 Y79.936 E1255.95883
G0 F10500 X27.256 Y80.643
G1 F1920 X62.197 Y115.584 E1256.92707
G0 F10500 X61.490 Y115.584
G1 F1920 X27.256 Y81.350 E1257.87571
G0 F10500 X27.256 Y82.057
G1 F1920 X60.783 Y115.584 E1258.80477
G0 F10500 X60.076 Y115.584
G1 F1920 X27.256 Y82.764 E1259.71423
G0 F10500 X27.256 Y83.471
G1 F1920 X59.369 Y115.584 E1260.60410
G0 F10500 X58.662 Y115.584
G1 F1920 X27.256 Y84.178 E1261.47437
G0 F10500 X27.256 Y84.886
G1 F1920 X57.955 Y115.584 E1262.32505
G0 F10500 X57.248 Y115.584
G1 F1920 X27.256 Y85.593 E1263.15613
G0 F10500 X27.256 Y86.300
G1 F1920 X56.540 Y115.584 E1263.96760
G0 F10500 X55.833 Y115.584
G1 F1920 X27.256 Y87.007 E1264.75949
G0 F10500 X27.256 Y87.714
G1 F1920 X29.775 Y90.233 E1264.82929
G0 F10500 X29.068 Y90.233
G1 F1920 X27.256 Y88.421 E1264.87950
G0 F10500 X27.256 Y89.128
G1 F1920 X28.361 Y90.233 E1264.91012
G0 F10500 X27.654 Y90.233
G1 F1920 X27.256 Y89.835 E1264.92115
G0 F10500 X30.288 Y90.746
G1 F1920 X55.126 Y115.584 E1265.60943
G0 F10500 X54.419 Y115.584
G1 F1920 X30.288 Y91.453 E1266.27811
G0 F10500 X30.288 Y92.160
G1 F1920 X53.712 Y115.584 E1266.92720
G0 F10500 X53.005 Y115.584
G1 F1920 X30.288 Y92.867 E1267.55670
G0 F10500 X30.288 Y93.574
G1 F1920 X52.298 Y115.584 E1268.16661
G0 F10500 X51.591 Y115.584
G1 F1920 X30.288 Y94.282 E1268.75692
G0 F10500 X30.288 Y94.989
G1 F1920 X50.884 Y115.584 E1269.32763
G0 F10500 X50.177 Y115.584
G1 F1920 X30.288 Y95.696 E1269.87875
G0 F10500 X30.288 Y96.403
G1 F1920 X49.469 Y115.584 E1270.41027
G0 F10500 X48.762 Y115.584
G1 F1920 X30.288 Y97.110 E1270.92219
G0 F10500 X30.288 Y97.817
G1 F1920 X48.055 Y115.584 E1271.41453
G0 F10500 X47.348 Y115.584
G1 F1920 X30.288 Y98.524 E1271.88727
G0 F10500 X30.288 Y99.231
G1 F1920 X46.641 Y115.584 E1272.34042
G0 F10500 X45.934 Y115.584
G1 F1920 X30.288 Y99.938 E1272.77398
G0 F10500 X30.288 Y100.646
G1 F1920 X45.227 Y115.584 E1273.18793
G0 F10500 X44.520 Y115.584
G1 F1920 X30.288 Y101.353 E1273.58230
G0 F10500 X30.257 Y102.029
G1 F1920 X43.813 Y115.584 E1273.95793
G0 F10500 X43.105 Y115.584
G1 F1920 X29.550 Y102.029 E1274.33355
G0 F10500 X28.843 Y102.029
G1 F1920 X42.398 Y115.584 E1274.70916
G0 F10500 X41.691 Y115.584
G1 F1920 X28.136 Y102.029 E1275.08478
G0 F10500 X27.429 Y102.029
G1 F1920 X40.984 Y115.584 E1275.46040
G0 F10500 X40.277 Y115.584
G1 F1920 X27.256 Y102.563 E1275.82121
G0 F10500 X27.256 Y103.270
G1 F1920 X39.570 Y115.584 E1276.16244
G0 F10500 X38.863 Y115.584
G1 F1920 X27.256 Y103.977 E1276.48408
G0 F10500 X27.256 Y104.685
G1 F1920 X38.156 Y115.584 E1276.78611
G0 F10500 X37.449 Y115.584
G1 F1920 X27.256 Y105.392 E1277.06855
G0 F10500 X27.256 Y106.099
G1 F1920 X36.741 Y115.584 E1277.33139
G0 F10500 X36.034 Y115.584
G1 F1920 X27.256 Y106.806 E1277.57463
G0 F10500 X27.256 Y107.513
G1 F1920 X35.327 Y115.584 E1277.79828
G0 F10500 X34.620 Y115.584
G1 F1920 X27.256 Y108.220 E1278.00234
G0 F10500 X27.256 Y108.927
G1 F1920 X33.913 Y115.584 E1278.18681
G0 F10500 X33.206 Y115.584
G1 F1920 X27.256 Y109.634 E1278.35169
G0 F10500 X27.256 Y110.341
G1 F1920 X32.499 Y115.584 E1278.49697
G0 F10500 X31.792 Y115.584
G1 F1920 X27.256 Y111.048 E1278.62267
G0 F10500 X27.256 Y111.756
G1 F1920 X31.085 Y115.584 E1278.72876
G0 F10500 X30.378 Y115.584
G1 F1920 X27.256 Y112.463 E1278.81526
G0 F10500 X27.256 Y113.170
G1 F1920 X29.670 Y115.584 E1278.88215
G0 F10500 X28.963 Y115.584
G1 F1920 X27.256 Y113.877 E1278.92945
G0 F10500 X27.256 Y114.584
G1 F1920 X28.256 Y115.584 E1278.95716
G0 F10500 X27.549 Y115.584
G1 F1920 X27.256 Y115.291 E1278.96528
;LAYER:3
G0 F10500 X27.082 Y115.760 Z1.175
;TYPE:WALL-INNER
G1 F1740 X27.082 Y101.855 E1279.23774
G1 X30.114 Y101.855 E1279.29715
G1 X30.114 Y90.409 E1279.52143
G1 X27.082 Y90.409 E1279.58084
G1 X27.082 Y62.095 E1280.13563
G1 X30.114 Y62.095 E1280.19504
G1 X30.114 Y50.649 E1280.41932
G1 X27.082 Y50.649 E1280.47873
G1 X27.082 Y34.259 E1280.79988
G1 X131.581 Y34.259 E1282.84747
G1 X131.581 Y50.649 E1283.16862
G1 X128.549 Y50.649 E1283.22803
G1 X128.549 Y62.095 E1283.45231
G1 X131.581 Y62.095 E1283.51172
G1 X131.581 Y90.409 E1284.06651
G1 X128.549 Y90.409 E1284.12592
G1 X128.549 Y101.855 E1284.35020
G1 X131.581 Y101.855 E1284.40961
G1 X131.581 Y115.760 E1284.68207
G1 X27.082 Y115.760 E1286.72965
G0 F10500 X56.380 Y76.750
G1 F1740 X57.457 Y77.040 E1286.75151
G1 X58.534 Y76.750 E1286.77336
G1 X59.322 Y75.962 E1286.79520
G1 X59.612 Y74.885 E1286.81705
G1 X59.322 Y73.808 E1286.83891
G1 X58.534 Y73.020 E1286.86074
G1 X57.457 Y72.730 E1286.88260
G1 X56.380 Y73.020 E1286.90445
G1 X55.592 Y73.808 E1286.92629
G1 X55.302 Y74.885 E1286.94814
G1 X55.592 Y75.962 E1286.97000
G1 X56.380 Y76.750 E1286.99184
G0 F10500 X77.342 Y95.807
G1 F1740 X77.052 Y96.884 E1287.01369
G1 X77.342 Y97.961 E1287.03555
G1 X78.130 Y98.749 E1287.05738
G1 X79.207 Y99.039 E1287.07924
G1 X80.285 Y98.749 E1287.10111
G1 X81.071 Y97.961 E1287.12292
G1 X81.361 Y96.884 E1287.14477
G1 X81.071 Y95.807 E1287.16663
G1 X80.285 Y95.019 E1287.18844
G1 X79.207 Y94.729 E1287.21031
G1 X78.130 Y95.019 E1287.23216
G1 X77.342 Y95.807 E1287.25400
G0 F10500 X79.207 Y55.290
G1 F1740 X80.285 Y55.000 E1287.27587
G1 X81.071 Y54.212 E1287.29768
G1 X81.361 Y53.135 E1287.31954
G1 X81.071 Y52.058 E1287.34139
G1 X80.285 Y51.270 E1287.36320
G1 X79.207 Y50.980 E1287.38507
G1 X78.130 Y51.270 E1287.40693
G1 X77.342 Y52.058 E1287.42876
G1 X77.052 Y53.135 E1287.45062
G1 X77.342 Y54.212 E1287.47247
G1 X78.130 Y55.000 E1287.49431
G1 X79.207 Y55.290 E1287.51616
G0 F10500 X79.207 Y54.772
;TYPE:WALL-OUTER
G1 F1500 X80.026 Y54.552 E1287.53278
G1 X80.623 Y53.953 E1287.54935
G1 X80.843 Y53.135 E1287.56595
G1 X80.623 Y52.317 E1287.58255
G1 X80.026 Y51.718 E1287.59912
G1 X79.207 Y51.498 E1287.61573
G1 X78.389 Y51.718 E1287.63233
G1 X77.790 Y52.317 E1287.64893
G1 X77.570 Y53.135 E1287.66553
G1 X77.790 Y53.953 E1287.68213
G1 X78.389 Y54.552 E1287.69872
G1 X79.207 Y54.772 E1287.71532
G0 F10500 X79.118 Y55.109
G0 X59.122 Y73.821
G0 X58.874 Y74.067
G1 F1500 X58.275 Y73.468 E1287.73192
G1 X57.457 Y73.248 E1287.74852
G1 X56.639 Y73.468 E1287.76512
G1 X56.040 Y74.067 E1287.78172
G1 X55.820 Y74.885 E1287.79831
G1 X56.040 Y75.703 E1287.81491
G1 X56.639 Y76.302 E1287.83151
G1 X57.457 Y76.522 E1287.84811
G1 X58.275 Y76.302 E1287.86470
G1 X58.874 Y75.703 E1287.88130
G1 X59.094 Y74.885 E1287.89790
G1 X58.874 Y74.067 E1287.91450
G0 F10500 X59.122 Y73.821
G0 X78.143 Y95.219
G0 X78.389 Y95.467
G1 F1500 X77.790 Y96.066 E1287.93110
G1 X77.570 Y96.884 E1287.94770
G1 X77.790 Y97.702 E1287.96429
G1 X78.389 Y98.301 E1287.98089
G1 X79.207 Y98.521 E1287.99749
G1 X80.026 Y98.301 E1288.01411
G1 X80.623 Y97.702 E1288.03068
G1 X80.843 Y96.884 E1288.04727
G1 X80.623 Y96.066 E1288.06387
G1 X80.026 Y95.467 E1288.08044
G1 X79.207 Y95.247 E1288.09706
G1 X78.389 Y95.467 E1288.11366
G0 F10500 X78.143 Y95.219
G0 X29.964 Y90.909
G0 X29.614 Y90.909
G1 F1500 X26.582 Y90.909 E1288.17307
G1 X26.582 Y61.595 E1288.74746
G1 X29.614 Y61.595 E1288.80687
G1 X29.614 Y51.149 E1289.01155
G1 X26.582 Y51.149 E1289.07096
G1 X26.582 Y33.759 E1289.41170
G1 X132.081 Y33.759 E1291.47889
G1 X132.081 Y51.149 E1291.81963
G1 X129.049 Y51.149 E1291.87904
G1 X129.049 Y61.595 E1292.08372
G1 X132.081 Y61.595 E1292.14313
G1 X132.081 Y90.909 E1292.71752
G1 X129.049 Y90.909 E1292.77693
G1 X129.049 Y101.355 E1292.98161
G1 X132.081 Y101.355 E1293.04102
G1 X132.081 Y116.260 E1293.33308
G1 X26.582 Y116.260 E1295.40026
G1 X26.582 Y101.355 E1295.69231
G1 X29.614 Y101.355 E1295.75172
G1 X29.614 Y90.909 E1295.95641
G0 F10500 X29.621 Y90.233
;TYPE:SKIN
G1 F2400 X85.421 Y34.433 E1297.50266
G0 F10500 X86.128 Y34.433
G1 F2400 X30.288 Y90.272 E1299.05000
G0 F10500 X30.288 Y90.979
G1 F2400 X86.835 Y34.433 E1300.61694
G0 F10500 X87.542 Y34.433
G1 F2400 X30.288 Y91.687 E1302.20348
G0 F10500 X30.288 Y92.394
G1 F2400 X88.249 Y34.433 E1303.80961
G0 F10500 X88.956 Y34.433
G1 F2400 X30.288 Y93.101 E1305.43533
G0 F10500 X30.288 Y93.808
G1 F2400 X89.663 Y34.433 E1307.08065
G0 F10500 X90.371 Y34.433
G1 F2400 X30.288 Y94.515 E1308.74557
G0 F10500 X30.288 Y95.222
G1 F2400 X91.078 Y34.433 E1310.43008
G0 F10500 X91.785 Y34.433
G1 F2400 X30.288 Y95.929 E1312.13418
G0 F10500 X30.288 Y96.636
G1 F2400 X92.492 Y34.433 E1313.85788
G0 F10500 X93.199 Y34.433
G1 F2400 X30.288 Y97.343 E1315.60116
G0 F10500 X30.288 Y98.050
G1 F2400 X93.906 Y34.433 E1317.36404
G0 F10500 X94.613 Y34.433
G1 F2400 X30.288 Y98.758 E1319.14652
G0 F10500 X30.288 Y99.465
G1 F2400 X55.212 Y74.541 E1319.83718
G0 F10500 X55.217 Y75.243
G1 F2400 X30.288 Y100.172 E1320.52797
G0 F10500 X30.288 Y100.879
G1 F2400 X55.367 Y75.801 E1321.22291
G0 F10500 X55.628 Y76.246
G1 F2400 X30.288 Y101.586 E1321.92510
G0 F10500 X29.846 Y102.029
G1 F2400 X27.256 Y104.618 E1321.99686
G0 F10500 X27.256 Y103.911
G1 F2400 X29.139 Y102.029 E1322.04902
G0 F10500 X28.432 Y102.029
G1 F2400 X27.256 Y103.204 E1322.08160
G0 F10500 X27.256 Y102.497
G1 F2400 X27.724 Y102.029 E1322.09456
G0 F10500 X27.256 Y105.325
G1 F2400 X55.982 Y76.600 E1322.89056
G0 F10500 X56.363 Y76.926
G1 F2400 X27.256 Y106.032 E1323.69712
G0 F10500 X27.256 Y106.739
G1 F2400 X56.920 Y77.076 E1324.51911
G0 F10500 X57.492 Y77.211
G1 F2400 X27.256 Y107.446 E1325.35696
G0 F10500 X27.256 Y108.154
G1 F2400 X58.460 Y76.950 E1326.22164
G0 F10500 X59.523 Y75.887
G1 F2400 X80.208 Y55.202 E1326.79483
G0 F10500 X81.271 Y54.139
G1 F2400 X100.977 Y34.433 E1327.34089
G0 F10500 X101.684 Y34.433
G1 F2400 X27.256 Y108.861 E1329.40334
G0 F10500 X27.256 Y109.568
G1 F2400 X102.391 Y34.433 E1331.48537
G0 F10500 X103.098 Y34.433
G1 F2400 X27.256 Y110.275 E1333.58700
G0 F10500 X27.256 Y110.982
G1 F2400 X103.806 Y34.433 E1335.70823
G0 F10500 X104.513 Y34.433
G1 F2400 X27.256 Y111.689 E1337.84905
G0 F10500 X27.256 Y112.396
G1 F2400 X105.220 Y34.433 E1340.00946
G0 F10500 X105.927 Y34.433
G1 F2400 X27.256 Y113.103 E1342.18946
G0 F10500 X27.256 Y113.810
G1 F2400 X106.634 Y34.433 E1344.38906
G0 F10500 X107.341 Y34.433
G1 F2400 X27.256 Y114.518 E1346.60826
G0 F10500 X27.256 Y115.225
G1 F2400 X108.048 Y34.433 E1348.84705
G0 F10500 X108.755 Y34.433
G1 F2400 X27.604 Y115.585 E1351.09581
G0 F10500 X28.311 Y115.585
G1 F2400 X109.462 Y34.433 E1353.34456
G0 F10500 X110.170 Y34.433
G1 F2400 X29.018 Y115.585 E1355.59333
G0 F10500 X29.725 Y115.585
G1 F2400 X110.877 Y34.433 E1357.84210
G0 F10500 X111.584 Y34.433
G1 F2400 X30.432 Y115.585 E1360.09086
G0 F10500 X31.139 Y115.585
G1 F2400 X112.291 Y34.433 E1362.33963
G0 F10500 X112.998 Y34.433
G1 F2400 X31.846 Y115.585 E1364.58840
G0 F10500 X32.553 Y115.585
G1 F2400 X113.705 Y34.433 E1366.83717
G0 F10500 X114.412 Y34.433
G1 F2400 X33.260 Y115.585 E1369.08594
G0 F10500 X33.967 Y115.585
G1 F2400 X115.119 Y34.433 E1371.33470
G0 F10500 X115.826 Y34.433
G1 F2400 X34.675 Y115.585 E1373.58346
G0 F10500 X35.382 Y115.585
G1 F2400 X116.534 Y34.433 E1375.83223
G0 F10500 X117.241 Y34.433
G1 F2400 X36.089 Y115.585 E1378.08099
G0 F10500 X36.796 Y115.585
G1 F2400 X117.948 Y34.433 E1380.32976
G0 F10500 X118.655 Y34.433
G1 F2400 X37.503 Y115.585 E1382.57853
G0 F10500 X38.210 Y115.585
G1 F2400 X119.362 Y34.433 E1384.82730
G0 F10500 X100.270 Y34.433
G1 F2400 X81.532 Y53.171 E1385.34654
G0 F10500 X81.397 Y52.598
G1 F2400 X99.563 Y34.433 E1385.84991
G0 F10500 X98.856 Y34.433
G1 F2400 X81.247 Y52.042 E1386.33787
G0 F10500 X80.922 Y51.660
G1 F2400 X98.149 Y34.433 E1386.81524
G0 F10500 X97.442 Y34.433
G1 F2400 X80.569 Y51.306 E1387.28280
G0 F10500 X80.123 Y51.044
G1 F2400 X96.735 Y34.433 E1387.74311
G0 F10500 X96.027 Y34.433
G1 F2400 X79.565 Y50.895 E1388.19929
G0 F10500 X78.862 Y50.891
G1 F2400 X95.320 Y34.433 E1388.65535
G0 F10500 X84.714 Y34.433
G1 F2400 X28.914 Y90.233 E1390.20160
G0 F10500 X28.207 Y90.233
G1 F2400 X84.007 Y34.433 E1391.74784
G0 F10500 X83.300 Y34.433
G1 F2400 X27.500 Y90.233 E1393.29409
G0 F10500 X27.257 Y89.768
G1 F2400 X82.592 Y34.433 E1394.82746
G0 F10500 X81.885 Y34.433
G1 F2400 X27.257 Y89.061 E1396.34123
G0 F10500 X27.257 Y88.354
G1 F2400 X81.178 Y34.433 E1397.83541
G0 F10500 X80.471 Y34.433
G1 F2400 X27.257 Y87.647 E1399.31000
G0 F10500 X27.257 Y86.940
G1 F2400 X79.764 Y34.433 E1400.76500
G0 F10500 X79.057 Y34.433
G1 F2400 X27.257 Y86.233 E1402.20041
G0 F10500 X27.257 Y85.525
G1 F2400 X78.350 Y34.433 E1403.61621
G0 F10500 X77.643 Y34.433
G1 F2400 X27.257 Y84.818 E1405.01242
G0 F10500 X27.257 Y84.111
G1 F2400 X76.936 Y34.433 E1406.38904
G0 F10500 X76.228 Y34.433
G1 F2400 X27.257 Y83.404 E1407.74606
G0 F10500 X27.257 Y82.697
G1 F2400 X75.521 Y34.433 E1409.08348
G0 F10500 X74.814 Y34.433
G1 F2400 X27.257 Y81.990 E1410.40131
G0 F10500 X27.257 Y81.283
G1 F2400 X74.107 Y34.433 E1411.69955
G0 F10500 X73.400 Y34.433
G1 F2400 X27.257 Y80.576 E1412.97820
G0 F10500 X27.257 Y79.869
G1 F2400 X72.693 Y34.433 E1414.23726
G0 F10500 X71.986 Y34.433
G1 F2400 X27.257 Y79.162 E1415.47672
G0 F10500 X27.257 Y78.454
G1 F2400 X71.279 Y34.433 E1416.69658
G0 F10500 X70.572 Y34.433
G1 F2400 X27.257 Y77.747 E1417.89685
G0 F10500 X27.257 Y77.040
G1 F2400 X69.864 Y34.433 E1419.07752
G0 F10500 X69.157 Y34.433
G1 F2400 X27.257 Y76.333 E1420.23859
G0 F10500 X27.257 Y75.626
G1 F2400 X68.450 Y34.433 E1421.38007
G0 F10500 X67.743 Y34.433
G1 F2400 X27.257 Y74.919 E1422.50196
G0 F10500 X27.257 Y74.212
G1 F2400 X67.036 Y34.433 E1423.60426
G0 F10500 X66.329 Y34.433
G1 F2400 X27.257 Y73.505 E1424.68697
G0 F10500 X27.257 Y72.798
G1 F2400 X65.622 Y34.433 E1425.75008
G0 F10500 X64.915 Y34.433
G1 F2400 X27.257 Y72.090 E1426.79359
G0 F10500 X27.257 Y71.383
G1 F2400 X64.208 Y34.433 E1427.81751
G0 F10500 X63.501 Y34.433
G1 F2400 X27.257 Y70.676 E1428.82184
G0 F10500 X27.257 Y69.969
G1 F2400 X62.793 Y34.433 E1429.80656
G0 F10500 X62.086 Y34.433
G1 F2400 X27.257 Y69.262 E1430.77169
G0 F10500 X27.257 Y68.555
G1 F2400 X61.379 Y34.433 E1431.71723
G0 F10500 X60.672 Y34.433
G1 F2400 X27.257 Y67.848 E1432.64318
G0 F10500 X27.257 Y67.141
G1 F2400 X59.965 Y34.433 E1433.54954
G0 F10500 X59.258 Y34.433
G1 F2400 X27.257 Y66.434 E1434.43631
G0 F10500 X27.257 Y65.726
G1 F2400 X58.551 Y34.433 E1435.30347
G0 F10500 X57.844 Y34.433
G1 F2400 X30.289 Y61.987 E1436.06702
G0 F10500 X30.008 Y62.269
G1 F2400 X27.257 Y65.019 E1436.14324
G0 F10500 X27.257 Y64.312
G1 F2400 X29.301 Y62.269 E1436.19986
G0 F10500 X28.593 Y62.269
G1 F2400 X27.257 Y63.605 E1436.23688
G0 F10500 X27.257 Y62.898
G1 F2400 X27.886 Y62.269 E1436.25431
G0 F10500 X30.005 Y61.986
G0 X30.289 Y61.280
G1 F2400 X57.137 Y34.433 E1436.99827
G0 F10500 X56.429 Y34.433
G1 F2400 X30.289 Y60.573 E1437.72263
G0 F10500 X30.289 Y59.866
G1 F2400 X55.722 Y34.433 E1438.42739
G0 F10500 X55.015 Y34.433
G1 F2400 X30.289 Y59.159 E1439.11256
G0 F10500 X30.289 Y58.452
G1 F2400 X54.308 Y34.433 E1439.77814
G0 F10500 X53.601 Y34.433
G1 F2400 X30.289 Y57.745 E1440.42413
G0 F10500 X30.289 Y57.038
G1 F2400 X52.894 Y34.433 E1441.05053
G0 F10500 X52.187 Y34.433
G1 F2400 X30.289 Y56.330 E1441.65732
G0 F10500 X30.289 Y55.623
G1 F2400 X51.480 Y34.433 E1442.24452
G0 F10500 X50.773 Y34.433
G1 F2400 X30.289 Y54.916 E1442.81213
G0 F10500 X30.289 Y54.209
G1 F2400 X50.065 Y34.433 E1443.36013
G0 F10500 X49.358 Y34.433
G1 F2400 X30.289 Y53.502 E1443.88855
G0 F10500 X30.289 Y52.795
G1 F2400 X48.651 Y34.433 E1444.39737
G0 F10500 X47.944 Y34.433
G1 F2400 X30.289 Y52.088 E1444.88660
G0 F10500 X30.289 Y51.381
G1 F2400 X47.237 Y34.433 E1445.35624
G0 F10500 X46.530 Y34.433
G1 F2400 X30.289 Y50.674 E1445.80628
G0 F10500 X29.783 Y50.473
G1 F2400 X45.823 Y34.433 E1446.25076
G0 F10500 X45.116 Y34.433
G1 F2400 X29.076 Y50.473 E1446.69524
G0 F10500 X28.369 Y50.473
G1 F2400 X44.409 Y34.433 E1447.13972
G0 F10500 X43.702 Y34.433
G1 F2400 X27.662 Y50.473 E1447.58419
G0 F10500 X27.257 Y50.170
G1 F2400 X42.994 Y34.433 E1448.02027
G0 F10500 X42.287 Y34.433
G1 F2400 X27.257 Y49.463 E1448.43676
G0 F10500 X27.257 Y48.756
G1 F2400 X41.580 Y34.433 E1448.83366
G0 F10500 X40.873 Y34.433
G1 F2400 X27.257 Y48.049 E1449.21097
G0 F10500 X27.257 Y47.342
G1 F2400 X40.166 Y34.433 E1449.56869
G0 F10500 X39.459 Y34.433
G1 F2400 X27.257 Y46.635 E1449.90681
G0 F10500 X27.257 Y45.927
G1 F2400 X38.752 Y34.433 E1450.22533
G0 F10500 X38.045 Y34.433
G1 F2400 X27.257 Y45.220 E1450.52426
G0 F10500 X27.257 Y44.513
G1 F2400 X37.338 Y34.433 E1450.80359
G0 F10500 X36.630 Y34.433
G1 F2400 X27.257 Y43.806 E1451.06332
G0 F10500 X27.257 Y43.099
G1 F2400 X35.923 Y34.433 E1451.30346
G0 F10500 X35.216 Y34.433
G1 F2400 X27.257 Y42.392 E1451.52401
G0 F10500 X27.257 Y41.685
G1 F2400 X34.509 Y34.433 E1451.72497
G0 F10500 X33.802 Y34.433
G1 F2400 X27.257 Y40.978 E1451.90634
G0 F10500 X27.257 Y40.271
G1 F2400 X33.095 Y34.433 E1452.06811
G0 F10500 X32.388 Y34.433
G1 F2400 X27.257 Y39.564 E1452.21029
G0 F10500 X27.257 Y38.856
G1 F2400 X31.681 Y34.433 E1452.33287
G0 F10500 X30.974 Y34.433
G1 F2400 X27.257 Y38.149 E1452.43586
G0 F10500 X27.257 Y37.442
G1 F2400 X30.266 Y34.433 E1452.51924
G0 F10500 X29.559 Y34.433
G1 F2400 X27.257 Y36.735 E1452.58303
G0 F10500 X27.257 Y36.028
G1 F2400 X28.852 Y34.433 E1452.62723
G0 F10500 X28.145 Y34.433
G1 F2400 X27.257 Y35.321 E1452.65183
G0 F10500 X27.257 Y34.614
G1 F2400 X27.438 Y34.433 E1452.65685
G0 F10500 X57.114 Y72.639
G1 F2400 X76.961 Y52.792 E1453.20682
G0 F10500 X76.966 Y53.494
G1 F2400 X57.816 Y72.644 E1453.73748
G0 F10500 X58.373 Y72.794
G1 F2400 X77.116 Y54.051 E1454.25686
G0 F10500 X77.378 Y54.496
G1 F2400 X58.819 Y73.056 E1454.77115
G0 F10500 X59.172 Y73.409
G1 F2400 X77.732 Y54.850 E1455.28545
G0 F10500 X78.113 Y55.176
G1 F2400 X59.499 Y73.790 E1455.80125
G0 F10500 X59.650 Y74.346
G1 F2400 X78.669 Y55.326 E1456.32829
G0 F10500 X79.240 Y55.463
G1 F2400 X59.785 Y74.918 E1456.86740
G0 F10500 X78.988 Y94.605
G1 F2400 X131.405 Y42.189 E1458.31989
G0 F10500 X131.405 Y42.896
G1 F2400 X79.638 Y94.663 E1459.75438
G0 F10500 X78.159 Y95.070
G0 X77.393 Y95.836
G0 X76.927 Y96.667
G1 F2400 X58.009 Y115.585 E1460.27861
G0 F10500 X58.716 Y115.585
G1 F2400 X76.985 Y97.316 E1460.78486
G0 F10500 X77.136 Y97.872
G1 F2400 X59.423 Y115.585 E1461.27569
G0 F10500 X57.302 Y115.585
G1 F2400 X131.405 Y41.482 E1463.32913
G0 F10500 X131.405 Y40.775
G1 F2400 X56.595 Y115.585 E1465.40216
G0 F10500 X55.888 Y115.585
G1 F2400 X131.405 Y40.068 E1467.49478
G0 F10500 X131.405 Y43.603
G1 F2400 X80.195 Y94.813 E1468.91383
G0 F10500 X80.615 Y95.100
G1 F2400 X131.405 Y44.310 E1470.32125
G0 F10500 X131.405 Y45.017
G1 F2400 X80.967 Y95.455 E1471.71892
G0 F10500 X81.267 Y95.862
G1 F2400 X131.405 Y45.725 E1473.10826
G0 F10500 X131.405 Y46.432
G1 F2400 X81.418 Y96.418 E1474.49341
G0 F10500 X81.499 Y97.044
G1 F2400 X131.405 Y47.139 E1475.87632
G0 F10500 X131.405 Y47.846
G1 F2400 X128.777 Y50.473 E1475.94913
G0 F10500 X128.373 Y50.878
G1 F2400 X81.238 Y98.012 E1477.25526
G0 F10500 X80.334 Y98.917
G1 F2400 X63.666 Y115.585 E1477.71714
G0 F10500 X64.373 Y115.585
G1 F2400 X128.373 Y51.585 E1479.49061
G0 F10500 X128.373 Y52.292
G1 F2400 X65.080 Y115.585 E1481.24450
G0 F10500 X65.787 Y115.585
G1 F2400 X128.373 Y52.999 E1482.97879
G0 F10500 X128.373 Y53.706
G1 F2400 X66.494 Y115.585 E1484.69349
G0 F10500 X67.202 Y115.585
G1 F2400 X128.373 Y54.413 E1486.38859
G0 F10500 X128.373 Y55.121
G1 F2400 X67.909 Y115.585 E1488.06408
G0 F10500 X68.616 Y115.585
G1 F2400 X128.373 Y55.828 E1489.71998
G0 F10500 X128.373 Y56.535
G1 F2400 X69.323 Y115.585 E1491.35629
G0 F10500 X70.030 Y115.585
G1 F2400 X128.373 Y57.242 E1492.97301
G0 F10500 X128.373 Y57.949
G1 F2400 X70.737 Y115.585 E1494.57013
G0 F10500 X71.444 Y115.585
G1 F2400 X128.373 Y58.656 E1496.14767
G0 F10500 X128.373 Y59.363
G1 F2400 X72.151 Y115.585 E1497.70561
G0 F10500 X72.858 Y115.585
G1 F2400 X128.373 Y60.070 E1499.24396
G0 F10500 X128.373 Y60.777
G1 F2400 X73.565 Y115.585 E1500.76273
G0 F10500 X74.273 Y115.585
G1 F2400 X128.373 Y61.485 E1502.26187
G0 F10500 X128.373 Y62.192
G1 F2400 X74.980 Y115.585 E1503.74142
G0 F10500 X75.687 Y115.585
G1 F2400 X129.002 Y62.269 E1505.21882
G0 F10500 X129.709 Y62.269
G1 F2400 X76.394 Y115.585 E1506.69622
G0 F10500 X77.101 Y115.585
G1 F2400 X130.416 Y62.269 E1508.17363
G0 F10500 X131.123 Y62.269
G1 F2400 X77.808 Y115.585 E1509.65103
G0 F10500 X78.515 Y115.585
G1 F2400 X131.405 Y62.695 E1511.11664
G0 F10500 X131.405 Y63.402
G1 F2400 X79.222 Y115.585 E1512.56266
G0 F10500 X79.929 Y115.585
G1 F2400 X131.405 Y64.109 E1513.98909
G0 F10500 X131.405 Y64.816
G1 F2400 X80.637 Y115.585 E1515.39591
G0 F10500 X81.344 Y115.585
G1 F2400 X131.405 Y65.524 E1516.78313
G0 F10500 X131.405 Y66.231
G1 F2400 X82.051 Y115.585 E1518.15076
G0 F10500 X82.758 Y115.585
G1 F2400 X131.405 Y66.938 E1519.49880
G0 F10500 X131.405 Y67.645
G1 F2400 X83.465 Y115.585 E1520.82724
G0 F10500 X84.172 Y115.585
G1 F2400 X131.405 Y68.352 E1522.13609
G0 F10500 X131.405 Y69.059
G1 F2400 X84.879 Y115.585 E1523.42535
G0 F10500 X85.586 Y115.585
G1 F2400 X131.405 Y69.766 E1524.69503
G0 F10500 X131.405 Y70.473
G1 F2400 X86.293 Y115.585 E1525.94510
G0 F10500 X87.001 Y115.585
G1 F2400 X131.405 Y71.180 E1527.17558
G0 F10500 X131.405 Y71.888
G1 F2400 X87.708 Y115.585 E1528.38645
G0 F10500 X88.415 Y115.585
G1 F2400 X131.405 Y72.595 E1529.57772
G0 F10500 X131.405 Y73.302
G1 F2400 X89.122 Y115.585 E1530.74941
G0 F10500 X89.829 Y115.585
G1 F2400 X131.405 Y74.009 E1531.90150
G0 F10500 X131.405 Y74.716
G1 F2400 X90.536 Y115.585 E1533.03401
G0 F10500 X91.243 Y115.585
G1 F2400 X131.405 Y75.423 E1534.14692
G0 F10500 X131.405 Y76.130
G1 F2400 X91.950 Y115.585 E1535.24024
G0 F10500 X92.657 Y115.585
G1 F2400 X131.405 Y76.837 E1536.31397
G0 F10500 X131.405 Y77.544
G1 F2400 X93.364 Y115.585 E1537.36811
G0 F10500 X94.072 Y115.585
G1 F2400 X131.405 Y78.251 E1538.40264
G0 F10500 X131.405 Y78.959
G1 F2400 X94.779 Y115.585 E1539.41757
G0 F10500 X95.486 Y115.585
G1 F2400 X131.405 Y79.666 E1540.41290
G0 F10500 X131.405 Y80.373
G1 F2400 X96.193 Y115.585 E1541.38865
G0 F10500 X96.900 Y115.585
G1 F2400 X131.405 Y81.080 E1542.34480
G0 F10500 X131.405 Y81.787
G1 F2400 X97.607 Y115.585 E1543.28136
G0 F10500 X98.314 Y115.585
G1 F2400 X131.405 Y82.494 E1544.19833
G0 F10500 X131.405 Y83.201
G1 F2400 X99.021 Y115.585 E1545.09571
G0 F10500 X99.728 Y115.585
G1 F2400 X131.405 Y83.908 E1545.97350
G0 F10500 X131.405 Y84.615
G1 F2400 X100.436 Y115.585 E1546.83168
G0 F10500 X101.143 Y115.585
G1 F2400 X131.405 Y85.323 E1547.67026
G0 F10500 X131.405 Y86.030
G1 F2400 X101.850 Y115.585 E1548.48924
G0 F10500 X102.557 Y115.585
G1 F2400 X131.405 Y86.737 E1549.28864
G0 F10500 X131.405 Y87.444
G1 F2400 X128.615 Y90.233 E1549.36594
G0 F10500 X128.373 Y90.475
G1 F2400 X103.264 Y115.585 E1550.06174
G0 F10500 X103.971 Y115.585
G1 F2400 X128.373 Y91.182 E1550.73794
G0 F10500 X128.373 Y91.889
G1 F2400 X104.678 Y115.585 E1551.39456
G0 F10500 X105.385 Y115.585
G1 F2400 X128.373 Y92.597 E1552.03157
G0 F10500 X128.373 Y93.304
G1 F2400 X106.092 Y115.585 E1552.64899
G0 F10500 X106.799 Y115.585
G1 F2400 X128.373 Y94.011 E1553.24682
G0 F10500 X128.373 Y94.718
G1 F2400 X107.507 Y115.585 E1553.82504
G0 F10500 X108.214 Y115.585
G1 F2400 X128.373 Y95.425 E1554.38367
G0 F10500 X128.373 Y96.132
G1 F2400 X108.921 Y115.585 E1554.92271
G0 F10500 X109.628 Y115.585
G1 F2400 X128.373 Y96.839 E1555.44216
G0 F10500 X128.373 Y97.546
G1 F2400 X110.335 Y115.585 E1555.94201
G0 F10500 X111.042 Y115.585
G1 F2400 X128.373 Y98.253 E1556.42228
G0 F10500 X128.373 Y98.961
G1 F2400 X111.749 Y115.585 E1556.88294
G0 F10500 X112.456 Y115.585
G1 F2400 X128.373 Y99.668 E1557.32401
G0 F10500 X128.658 Y90.518
G0 X129.322 Y90.233
G1 F2400 X131.405 Y88.151 E1557.38172
G0 F10500 X131.405 Y88.858
G1 F2400 X130.029 Y90.233 E1557.41983
G0 F10500 X130.736 Y90.233
G1 F2400 X131.405 Y89.565 E1557.43836
G0 F10500 X128.658 Y90.518
G0 X128.373 Y100.375
G1 F2400 X113.163 Y115.585 E1557.85984
G0 F10500 X113.871 Y115.585
G1 F2400 X128.373 Y101.082 E1558.26171
G0 F10500 X128.373 Y101.789
G1 F2400 X114.578 Y115.585 E1558.64399
G0 F10500 X115.285 Y115.585
G1 F2400 X128.840 Y102.029 E1559.01962
G0 F10500 X129.547 Y102.029
G1 F2400 X115.992 Y115.585 E1559.39525
G0 F10500 X116.699 Y115.585
G1 F2400 X130.254 Y102.029 E1559.77088
G0 F10500 X130.961 Y102.029
G1 F2400 X117.406 Y115.585 E1560.14651
G0 F10500 X118.113 Y115.585
G1 F2400 X131.405 Y102.293 E1560.51484
G0 F10500 X131.405 Y103.000
G1 F2400 X118.820 Y115.585 E1560.86358
G0 F10500 X119.527 Y115.585
G1 F2400 X131.405 Y103.707 E1561.19272
G0 F10500 X131.405 Y104.414
G1 F2400 X120.235 Y115.585 E1561.50226
G0 F10500 X120.942 Y115.585
G1 F2400 X131.405 Y105.122 E1561.79220
G0 F10500 X131.405 Y105.829
G1 F2400 X121.649 Y115.585 E1562.06254
G0 F10500 X122.356 Y115.585
G1 F2400 X131.405 Y106.536 E1562.31330
G0 F10500 X131.405 Y107.243
G1 F2400 X123.063 Y115.585 E1562.54446
G0 F10500 X123.770 Y115.585
G1 F2400 X131.405 Y107.950 E1562.75603
G0 F10500 X131.405 Y108.657
G1 F2400 X124.477 Y115.585 E1562.94801
G0 F10500 X125.184 Y115.585
G1 F2400 X131.405 Y109.364 E1563.12040
G0 F10500 X131.405 Y110.071
G1 F2400 X125.891 Y115.585 E1563.27319
G0 F10500 X126.598 Y115.585
G1 F2400 X131.405 Y110.778 E1563.40640
G0 F10500 X131.405 Y111.485
G1 F2400 X127.306 Y115.585 E1563.52000
G0 F10500 X128.013 Y115.585
G1 F2400 X131.405 Y112.193 E1563.61399
G0 F10500 X131.405 Y112.900
G1 F2400 X128.720 Y115.585 E1563.68839
G0 F10500 X129.427 Y115.585
G1 F2400 X131.405 Y113.607 E1563.74320
G0 F10500 X131.405 Y114.314
G1 F2400 X130.134 Y115.585 E1563.77842
G0 F10500 X130.841 Y115.585
G1 F2400 X131.405 Y115.021 E1563.79405
G0 F10500 X79.367 Y99.177
G1 F2400 X62.959 Y115.585 E1564.24873
G0 F10500 X62.252 Y115.585
G1 F2400 X78.742 Y99.094 E1564.70569
G0 F10500 X78.185 Y98.944
G1 F2400 X61.545 Y115.585 E1565.16681
G0 F10500 X60.838 Y115.585
G1 F2400 X77.778 Y98.644 E1565.63624
G0 F10500 X77.424 Y98.291
G1 F2400 X60.130 Y115.585 E1566.11546
G0 F10500 X55.181 Y115.585
G1 F2400 X131.405 Y39.361 E1568.22767
G0 F10500 X131.405 Y38.653
G1 F2400 X54.474 Y115.585 E1570.35949
G0 F10500 X53.766 Y115.585
G1 F2400 X131.405 Y37.946 E1572.51091
G0 F10500 X131.405 Y37.239
G1 F2400 X53.059 Y115.585 E1574.68192
G0 F10500 X52.352 Y115.585
G1 F2400 X131.405 Y36.532 E1576.87253
G0 F10500 X131.405 Y35.825
G1 F2400 X51.645 Y115.585 E1579.08272
G0 F10500 X50.938 Y115.585
G1 F2400 X131.405 Y35.118 E1581.31251
G0 F10500 X131.383 Y34.433
G1 F2400 X50.231 Y115.585 E1583.56128
G0 F10500 X49.524 Y115.585
G1 F2400 X130.676 Y34.433 E1585.81004
G0 F10500 X129.969 Y34.433
G1 F2400 X48.817 Y115.585 E1588.05881
G0 F10500 X48.110 Y115.585
G1 F2400 X129.261 Y34.433 E1590.30757
G0 F10500 X128.554 Y34.433
G1 F2400 X47.403 Y115.585 E1592.55632
G0 F10500 X46.695 Y115.585
G1 F2400 X127.847 Y34.433 E1594.80509
G0 F10500 X127.140 Y34.433
G1 F2400 X45.988 Y115.585 E1597.05386
G0 F10500 X45.281 Y115.585
G1 F2400 X126.433 Y34.433 E1599.30262
G0 F10500 X125.726 Y34.433
G1 F2400 X44.574 Y115.585 E1601.55139
G0 F10500 X43.867 Y115.585
G1 F2400 X125.019 Y34.433 E1603.80016
G0 F10500 X124.312 Y34.433
G1 F2400 X43.160 Y115.585 E1606.04893
G0 F10500 X42.453 Y115.585
G1 F2400 X123.605 Y34.433 E1608.29769
G0 F10500 X122.897 Y34.433
G1 F2400 X41.746 Y115.585 E1610.54645
G0 F10500 X41.039 Y115.585
G1 F2400 X122.190 Y34.433 E1612.79520
G0 F10500 X121.483 Y34.433
G1 F2400 X40.331 Y115.585 E1615.04397
G0 F10500 X39.624 Y115.585
G1 F2400 X120.776 Y34.433 E1617.29274
G0 F10500 X120.069 Y34.433
G1 F2400 X38.917 Y115.585 E1619.54151
G0 F10500 X128.658 Y50.758
G0 X129.484 Y50.473
G1 F2400 X131.405 Y48.553 E1619.59472
G0 F10500 X131.405 Y49.260
G1 F2400 X130.191 Y50.473 E1619.62835
G0 F10500 X130.898 Y50.473
G1 F2400 X131.405 Y49.967 E1619.64239
;LAYER:4
G0 F10500 X131.581 Y50.649 Z1.425
;TYPE:WALL-INNER
G1 F2100 X128.549 Y50.649 E1619.70180
G1 X128.549 Y62.095 E1619.92607
G1 X131.581 Y62.095 E1619.98548
G1 X131.581 Y90.409 E1620.54028
G1 X128.549 Y90.409 E1620.59969
G1 X128.549 Y101.855 E1620.82396
G1 X131.581 Y101.855 E1620.88337
G1 X131.581 Y115.760 E1621.15583
G1 X27.082 Y115.760 E1623.20342
G1 X27.082 Y101.855 E1623.47588
G1 X30.114 Y101.855 E1623.53529
G1 X30.114 Y90.409 E1623.75957
G1 X27.082 Y90.409 E1623.81898
G1 X27.082 Y62.095 E1624.37377
G1 X30.114 Y62.095 E1624.43318
G1 X30.114 Y50.649 E1624.65746
G1 X27.082 Y50.649 E1624.71687
G1 X27.082 Y34.259 E1625.03802
G1 X131.581 Y34.259 E1627.08561
G1 X131.581 Y50.649 E1627.40676
G0 F10500 X81.361 Y53.135
G1 F2100 X81.071 Y52.058 E1627.42861
G1 X80.285 Y51.270 E1627.45042
G1 X79.207 Y50.980 E1627.47229
G1 X78.130 Y51.270 E1627.49415
G1 X77.342 Y52.058 E1627.51598
G1 X77.052 Y53.135 E1627.53784
G1 X77.342 Y54.212 E1627.55969
G1 X78.130 Y55.000 E1627.58153
G1 X79.207 Y55.290 E1627.60339
G1 X80.285 Y55.000 E1627.62526
G1 X81.071 Y54.212 E1627.64707
G1 X81.361 Y53.135 E1627.66892
G0 F10500 X81.020 Y54.182
G0 X80.255 Y54.949
G0 X59.322 Y73.808
G1 F2100 X58.534 Y73.020 E1627.69076
G1 X57.457 Y72.730 E1627.71261
G1 X56.380 Y73.020 E1627.73447
G1 X55.592 Y73.808 E1627.75630
G1 X55.302 Y74.885 E1627.77816
G1 X55.592 Y75.962 E1627.80001
G1 X56.380 Y76.750 E1627.82185
G1 X57.457 Y77.040 E1627.84370
G1 X58.534 Y76.750 E1627.86556
G1 X59.322 Y75.962 E1627.88739
G1 X59.612 Y74.885 E1627.90925
G1 X59.322 Y73.808 E1627.93110
G0 F10500 X78.130 Y95.019
G1 F2100 X77.342 Y95.807 E1627.95294
G1 X77.052 Y96.884 E1627.97479
G1 X77.342 Y97.961 E1627.99665
G1 X78.130 Y98.749 E1628.01848
G1 X79.207 Y99.039 E1628.04034
G1 X80.285 Y98.749 E1628.06221
G1 X81.071 Y97.961 E1628.08402
G1 X81.361 Y96.884 E1628.10588
G1 X81.071 Y95.807 E1628.12773
G1 X80.285 Y95.019 E1628.14954
G1 X79.207 Y94.729 E1628.17141
G1 X78.130 Y95.019 E1628.19327
G0 F10500 X78.389 Y95.467
;TYPE:WALL-OUTER
G1 F1800 X77.790 Y96.066 E1628.20987
G1 X77.570 Y96.884 E1628.22646
G1 X77.790 Y97.702 E1628.24306
G1 X78.389 Y98.301 E1628.25966
G1 X79.207 Y98.521 E1628.27626
G1 X80.026 Y98.301 E1628.29287
G1 X80.623 Y97.702 E1628.30945
G1 X80.843 Y96.884 E1628.32604
G1 X80.623 Y96.066 E1628.34264
G1 X80.026 Y95.467 E1628.35921
G1 X79.207 Y95.247 E1628.37583
G1 X78.389 Y95.467 E1628.39243
G0 F10500 X78.143 Y95.219
G0 X59.211 Y75.794
G0 X58.874 Y75.703
G1 F1800 X59.094 Y74.885 E1628.40902
G1 X58.874 Y74.067 E1628.42562
G1 X58.275 Y73.468 E1628.44222
G1 X57.457 Y73.248 E1628.45882
G1 X56.639 Y73.468 E1628.47542
G1 X56.040 Y74.067 E1628.49201
G1 X55.820 Y74.885 E1628.50861
G1 X56.040 Y75.703 E1628.52521
G1 X56.639 Y76.302 E1628.54181
G1 X57.457 Y76.522 E1628.55841
G1 X58.275 Y76.302 E1628.57500
G1 X58.874 Y75.703 E1628.59160
G0 F10500 X59.211 Y75.794
G0 X78.298 Y54.889
G0 X78.389 Y54.552
G1 F1800 X79.207 Y54.772 E1628.60820
G1 X80.026 Y54.552 E1628.62482
G1 X80.623 Y53.953 E1628.64139
G1 X80.843 Y53.135 E1628.65799
G1 X80.623 Y52.317 E1628.67458
G1 X80.026 Y51.718 E1628.69115
G1 X79.207 Y51.498 E1628.70777
G1 X78.389 Y51.718 E1628.72437
G1 X77.790 Y52.317 E1628.74097
G1 X77.570 Y53.135 E1628.75757
G1 X77.790 Y53.953 E1628.77416
G1 X78.389 Y54.552 E1628.79076
G0 F10500 X78.298 Y54.889
G0 X29.964 Y51.149
G0 X29.614 Y51.149
G1 F1800 X26.582 Y51.149 E1628.85017
G1 X26.582 Y33.759 E1629.19092
G1 X132.081 Y33.759 E1631.25810
G1 X132.081 Y51.149 E1631.59884
G1 X129.049 Y51.149 E1631.65825
G1 X129.049 Y61.595 E1631.86294
G1 X132.081 Y61.595 E1631.92235
G1 X132.081 Y90.909 E1632.49673
G1 X129.049 Y90.909 E1632.55614
G1 X129.049 Y101.355 E1632.76083
G1 X132.081 Y101.355 E1632.82024
G1 X132.081 Y116.260 E1633.11229
G1 X26.582 Y116.260 E1635.17947
G1 X26.582 Y101.355 E1635.47153
G1 X29.614 Y101.355 E1635.53094
G1 X29.614 Y90.909 E1635.73562
G1 X26.582 Y90.909 E1635.79503
G1 X26.582 Y61.595 E1636.36942
G1 X29.614 Y61.595 E1636.42883
G1 X29.614 Y51.149 E1636.63351
G0 F10500 X29.964 Y51.149
G0 X31.363 Y63.183
;TYPE:FILL
G1 F2400 X35.157 Y66.977 E1636.73864
G0 F10500 X35.156 Y67.373
G1 F2400 X34.696 Y67.834 E1636.75140
G0 F10500 X30.507 Y64.952
G1 F2400 X32.275 Y63.183 E1636.80041
G0 F10500 X34.490 Y82.182
G1 F2400 X30.506 Y86.165 E1636.91080
G0 F10500 X30.506 Y83.539
G1 F2400 X33.800 Y86.833 E1637.00207
G0 F10500 X33.504 Y86.183
;TYPE:SKIN
G1 F3000 X62.904 Y115.584 E1637.81678
G0 F10500 X62.197 Y115.584
G1 F3000 X32.797 Y86.183 E1638.63148
G0 F10500 X32.089 Y86.183
G1 F3000 X61.490 Y115.584 E1639.44620
G0 F10500 X60.783 Y115.584
G1 F3000 X31.382 Y86.183 E1640.26092
G0 F10500 X31.157 Y85.958
G1 F3000 X27.256 Y82.057 E1640.36902
G0 F10500 X27.256 Y82.764
G1 F3000 X60.076 Y115.584 E1641.27848
G0 F10500 X63.612 Y115.584
G1 F3000 X34.211 Y86.183 E1642.09320
G0 F10500 X34.506 Y85.772
G1 F3000 X64.319 Y115.584 E1642.91932
G0 F10500 X65.026 Y115.584
G1 F3000 X34.506 Y85.064 E1643.76505
G0 F10500 X34.506 Y84.357
G1 F3000 X65.733 Y115.584 E1644.63036
G0 F10500 X66.440 Y115.584
G1 F3000 X34.506 Y83.650 E1645.51527
G0 F10500 X34.506 Y82.943
G1 F3000 X67.147 Y115.584 E1646.41977
G0 F10500 X67.854 Y115.584
G1 F3000 X27.256 Y74.986 E1647.54477
G0 F10500 X27.256 Y75.693
G1 F3000 X34.395 Y82.831 E1647.74258
G0 F10500 X33.687 Y82.831
G1 F3000 X27.256 Y76.400 E1647.92079
G0 F10500 X27.256 Y77.107
G1 F3000 X32.980 Y82.831 E1648.07940
G0 F10500 X32.273 Y82.831
G1 F3000 X27.256 Y77.814 E1648.21842
G0 F10500 X27.256 Y78.522
G1 F3000 X31.566 Y82.831 E1648.33784
G0 F10500 X31.157 Y83.129
G1 F3000 X27.256 Y79.229 E1648.44593
G0 F10500 X27.256 Y79.936
G1 F3000 X31.157 Y83.836 E1648.55401
G0 F10500 X31.157 Y84.543
G1 F3000 X27.256 Y80.643 E1648.66210
G0 F10500 X27.256 Y81.350
G1 F3000 X31.157 Y85.250 E1648.77018
G0 F10500 X27.256 Y85.593
G1 F3000 X57.248 Y115.584 E1649.60126
G0 F10500 X57.955 Y115.584
G1 F3000 X27.256 Y84.886 E1650.45194
G0 F10500 X27.256 Y84.178
G1 F3000 X58.662 Y115.584 E1651.32222
G0 F10500 X59.369 Y115.584
G1 F3000 X27.256 Y83.471 E1652.21209
G0 F10500 X27.256 Y86.300
G1 F3000 X56.540 Y115.584 E1653.02356
G0 F10500 X55.833 Y115.584
G1 F3000 X27.256 Y87.007 E1653.81545
G0 F10500 X27.256 Y87.714
G1 F3000 X29.775 Y90.233 E1653.88525
G0 F10500 X29.068 Y90.233
G1 F3000 X27.256 Y88.421 E1653.93546
G0 F10500 X27.256 Y89.128
G1 F3000 X28.361 Y90.233 E1653.96608
G0 F10500 X27.654 Y90.233
G1 F3000 X27.256 Y89.835 E1653.97711
G0 F10500 X30.288 Y90.746
G1 F3000 X55.126 Y115.584 E1654.66538
G0 F10500 X54.419 Y115.584
